; generated by PrusaSlicer 2.3.1+linux-x64 on 2021-05-31 at 23:27:46 UTC


;
;

;
;
; 

; external perimeters extrusion width = 0.45mm
; perimeters extrusion width = 0.45mm
; infill extrusion width = 0.45mm
; solid infill extrusion width = 0.45mm
; top infill extrusion width = 0.40mm
; first layer extrusion width = 0.42mm

M73 P0 R51
M201 X1250 Y1250 Z400 E5000 ; sets maximum accelerations, mm/sec^2
M203 X180 Y180 Z12 E80 ; sets maximum feedrates, mm/sec
M204 P1250 R1250 T1250 ; sets acceleration (P, T) and retract acceleration (R), mm/sec^2
M205 X8.00 Y8.00 Z2.00 E10.00 ; sets the jerk limits, mm/sec
M205 S0 T0 ; sets the minimum extruding and travel feed rate, mm/sec
M107
;TYPE:Custom
G90 ; use absolute coordinates
M83 ; extruder relative mode
M104 S170 ; set extruder temp for bed leveling
M140 S60 ; set bed temp
M109 R170 ; wait for bed leveling temp
M190 S60 ; wait for bed temp
G28 ; home all without mesh bed level
G29 ; mesh bed leveling 
M104 S215 ; set extruder temp
G92 E0.0
G1 Y-2.0 X179 F2400
G1 Z3 F720
M109 S215 ; wait for extruder temp

; intro line
G1 X170 F1000
G1 Z0.2 F720
G1 X110.0 E8.0 F900
M73 P0 R50
G1 X40.0 E10.0 F700
G92 E0.0

M221 S95 ; set flow
G21 ; set units to millimeters
G90 ; use absolute coordinates
M83 ; use relative distances for extrusion
M900 K0.2 ; Filament gcode LA 1.5
; ; Filament gcode LA 1.0
;LAYER_CHANGE
;Z:0.2
;HEIGHT:0.2
;BEFORE_LAYER_CHANGE
G92 E0.0
;0.2


G1 E-3.20000 F4200.000
G1 Z0.200 F9000.000
;AFTER_LAYER_CHANGE
;0.2
G1 Z0.400
G1 X67.623 Y64.100
G1 Z0.200
G1 E3.20000 F2400.000
M204 S800
;TYPE:Skirt
;WIDTH:0.42
G1 F1200.000
G1 X68.100 Y63.181 E0.03245
G1 X68.696 Y62.533 E0.02760
G1 X69.380 Y62.075 E0.02582
G1 X70.044 Y61.811 E0.02239
G1 X70.882 Y61.671 E0.02665
G1 X109.033 Y61.670 E1.19619
G1 X109.705 Y61.747 E0.02120
G1 X110.427 Y61.981 E0.02380
G1 X110.975 Y62.285 E0.01966
G1 X111.536 Y62.750 E0.02285
G1 X111.945 Y63.245 E0.02014
G1 X112.301 Y63.899 E0.02333
G1 X112.489 Y64.481 E0.01918
G1 X112.580 Y65.177 E0.02202
G1 X112.583 Y114.730 E1.55370
G1 X112.377 Y115.900 E0.03724
G1 X111.901 Y116.819 E0.03245
G1 X111.301 Y117.469 E0.02772
G1 X110.606 Y117.932 E0.02617
G1 X109.934 Y118.195 E0.02263
G1 X109.076 Y118.330 E0.02724
G1 X70.933 Y118.330 E1.19595
G1 X69.921 Y118.153 E0.03222
G1 X68.994 Y117.693 E0.03245
G1 X68.366 Y117.148 E0.02606
G1 X67.853 Y116.424 E0.02784
G1 X67.533 Y115.608 E0.02749
G1 X67.418 Y114.739 E0.02748
G1 X67.417 Y65.270 E1.55108
G1 X67.613 Y64.159 E0.03536
M204 S1250
; printing object RPM_case.stl id:0 copy 0
G1 E-2.24000 F4200.000
;WIPE_START
G1 F7200.000
G1 X68.100 Y63.181 E-0.60534
G1 X68.474 Y62.774 E-0.30666
;WIPE_END
G1 E-0.04800 F4200.000
G1 Z0.400 F9000.000
G1 X92.840 Y100.591
G1 Z0.200
G1 E3.20000 F2400.000
M204 S800
;TYPE:Perimeter
G1 F1200.000
G1 X96.658 Y102.796 E0.13824
G1 X96.658 Y107.204 E0.13824
G1 X92.840 Y109.409 E0.13824
G1 X89.022 Y107.204 E0.13824
G1 X89.022 Y102.796 E0.13824
G1 X92.788 Y100.621 E0.13635
M204 S1250
G1 X92.840 Y101.027 F9000.000
M204 S800
;TYPE:External perimeter
G1 F1200.000
G1 X96.281 Y103.013 E0.12458
G1 X96.281 Y106.987 E0.12458
G1 X92.840 Y108.973 E0.12458
G1 X89.399 Y106.987 E0.12458
G1 X89.399 Y103.013 E0.12458
G1 X92.788 Y101.057 E0.12270
M204 S1250
G1 X93.040 Y100.680 F9000.000
G1 E-2.24000 F4200.000
;WIPE_START
G1 F7200.000
G1 X94.224 Y101.861 E-0.91200
;WIPE_END
G1 E-0.04800 F4200.000
G1 Z0.400 F9000.000
G1 X92.410 Y109.930
G1 Z0.200
G1 E3.20000 F2400.000
M204 S800
;TYPE:Perimeter
G1 F1200.000
G1 X92.857 Y109.951 E0.01403
G1 X93.242 Y110.035 E0.01235
G1 X93.517 Y110.144 E0.00928
G1 X93.767 Y110.282 E0.00895
G1 X93.998 Y110.449 E0.00895
G1 X94.206 Y110.645 E0.00895
G1 X94.388 Y110.865 E0.00895
G1 X94.541 Y111.105 E0.00895
G1 X94.662 Y111.364 E0.00895
G1 X94.755 Y111.650 E0.00944
G1 X94.819 Y112.116 E0.01474
G1 X94.805 Y112.477 E0.01134
G1 X94.751 Y112.765 E0.00919
G1 X94.658 Y113.051 E0.00944
G1 X94.435 Y113.465 E0.01474
G1 X94.201 Y113.764 E0.01188
G1 X93.813 Y114.088 E0.01586
G1 X93.510 Y114.261 E0.01095
G1 X93.092 Y114.404 E0.01384
M73 P1 R50
G1 X92.703 Y114.467 E0.01235
G1 X92.407 Y114.467 E0.00928
G1 X92.124 Y114.432 E0.00895
G1 X91.838 Y114.358 E0.00927
G1 X91.480 Y114.202 E0.01225
G1 X91.112 Y113.960 E0.01380
G1 X90.894 Y113.755 E0.00939
G1 X90.712 Y113.535 E0.00895
G1 X90.559 Y113.295 E0.00895
G1 X90.438 Y113.036 E0.00895
G1 X90.345 Y112.752 E0.00938
G1 X90.283 Y112.320 E0.01369
G1 X90.294 Y111.926 E0.01235
G1 X90.349 Y111.635 E0.00928
G1 X90.438 Y111.364 E0.00895
G1 X90.559 Y111.105 E0.00895
G1 X90.712 Y110.865 E0.00895
G1 X90.900 Y110.638 E0.00923
G1 X91.181 Y110.390 E0.01175
G1 X91.581 Y110.142 E0.01474
G1 X92.008 Y109.996 E0.01416
G1 X92.351 Y109.940 E0.01091
M204 S1250
G1 X92.412 Y110.312 F9000.000
M204 S800
;TYPE:External perimeter
G1 F1200.000
G1 X92.808 Y110.326 E0.01242
G1 X93.132 Y110.397 E0.01040
G1 X93.356 Y110.486 E0.00758
G1 X93.565 Y110.601 E0.00746
G1 X93.757 Y110.741 E0.00746
G1 X93.931 Y110.903 E0.00746
G1 X94.082 Y111.087 E0.00746
G1 X94.210 Y111.287 E0.00746
G1 X94.311 Y111.503 E0.00746
G1 X94.386 Y111.734 E0.00763
G1 X94.441 Y112.134 E0.01266
G1 X94.430 Y112.435 E0.00942
G1 X94.385 Y112.671 E0.00754
G1 X94.309 Y112.903 E0.00763
G1 X94.118 Y113.258 E0.01266
G1 X93.929 Y113.500 E0.00962
G1 X93.597 Y113.777 E0.01356
G1 X93.354 Y113.916 E0.00878
G1 X93.000 Y114.037 E0.01173
G1 X92.673 Y114.090 E0.01040
G1 X92.431 Y114.090 E0.00758
G1 X92.195 Y114.061 E0.00746
G1 X91.961 Y114.001 E0.00757
G1 X91.660 Y113.869 E0.01030
G1 X91.346 Y113.663 E0.01177
G1 X91.169 Y113.497 E0.00762
G1 X91.018 Y113.313 E0.00746
G1 X90.890 Y113.113 E0.00746
G1 X90.789 Y112.897 E0.00746
G1 X90.714 Y112.666 E0.00761
G1 X90.661 Y112.298 E0.01167
G1 X90.670 Y111.966 E0.01040
G1 X90.715 Y111.729 E0.00758
G1 X90.789 Y111.503 E0.00746
G1 X90.890 Y111.287 E0.00746
G1 X91.018 Y111.087 E0.00746
G1 X91.171 Y110.901 E0.00756
G1 X91.406 Y110.694 E0.00982
G1 X91.743 Y110.485 E0.01241
G1 X92.100 Y110.363 E0.01184
G1 X92.353 Y110.322 E0.00803
M204 S1250
G1 X92.589 Y109.958 F9000.000
G1 E-2.24000 F4200.000
;WIPE_START
G1 F7200.000
G1 X92.808 Y110.326 E-0.25226
G1 X93.132 Y110.397 E-0.18373
G1 X93.356 Y110.486 E-0.13394
G1 X93.565 Y110.601 E-0.13182
G1 X93.757 Y110.741 E-0.13182
G1 X93.861 Y110.837 E-0.07843
;WIPE_END
G1 E-0.04800 F4200.000
G1 Z0.400 F9000.000
G1 X109.019 Y114.809
G1 Z0.200
G1 E3.20000 F2400.000
M204 S800
;TYPE:Perimeter
G1 F1200.000
G1 X108.921 Y114.834 E0.00316
G1 X71.060 Y114.834 E1.18711
G1 X70.980 Y114.810 E0.00261
G1 X70.936 Y114.763 E0.00203
G1 X70.915 Y114.657 E0.00337
G1 X70.915 Y95.343 E0.60560
G1 X70.929 Y95.255 E0.00279
G1 X70.981 Y95.191 E0.00257
G1 X71.079 Y95.166 E0.00316
G1 X108.990 Y95.178 E1.18867
G1 X109.065 Y95.253 E0.00335
G1 X109.085 Y95.361 E0.00343
G1 X109.085 Y114.657 E0.60503
G1 X109.057 Y114.762 E0.00341
M204 S1250
G1 X109.270 Y115.097 F9000.000
M204 S800
;TYPE:External perimeter
G1 F1200.000
G1 X109.173 Y115.158 E0.00359
G1 X108.969 Y115.211 E0.00661
G1 X71.025 Y115.211 E1.18972
G1 X70.892 Y115.185 E0.00422
G1 X70.776 Y115.131 E0.00401
G1 X70.678 Y115.049 E0.00401
G1 X70.603 Y114.946 E0.00401
G1 X70.556 Y114.827 E0.00400
G1 X70.538 Y114.681 E0.00463
G1 X70.538 Y95.319 E0.60706
G1 X70.556 Y95.173 E0.00463
G1 X70.600 Y95.060 E0.00379
G1 X70.730 Y94.903 E0.00640
G1 X70.827 Y94.842 E0.00359
G1 X71.031 Y94.789 E0.00661
G1 X109.044 Y94.800 E1.19187
G1 X109.162 Y94.837 E0.00386
G1 X109.321 Y94.952 E0.00616
G1 X109.422 Y95.113 E0.00596
G1 X109.463 Y95.326 E0.00680
G1 X109.463 Y114.681 E0.60686
G1 X109.444 Y114.827 E0.00463
G1 X109.400 Y114.940 E0.00379
G1 X109.308 Y115.051 E0.00452
M204 S1250
G1 X109.162 Y115.059 F9000.000
G1 E-2.24000 F4200.000
;WIPE_START
G1 F7200.000
G1 X109.173 Y115.158 E-0.09562
G1 X108.969 Y115.211 E-0.11683
G1 X107.706 Y115.211 E-0.69955
;WIPE_END
G1 E-0.04800 F4200.000
G1 Z0.400 F9000.000
G1 X93.709 Y114.368
G1 Z0.200
G1 E3.20000 F2400.000
M204 S800
;TYPE:Gap fill
;WIDTH:0.266271
G1 F1200.000
G1 X93.638 Y114.533 E0.00334
G1 X93.504 Y114.556 E0.00251
M204 S1250
M204 S800
;WIDTH:0.220809
G1 X93.385 Y114.576 E0.00178
M204 S1250
M204 S800
;WIDTH:0.181236
G1 X93.267 Y114.596 E0.00138
M204 S1250
M204 S800
;WIDTH:0.141664
G1 X93.148 Y114.615 E0.00099
M204 S1250
M204 S800
;WIDTH:0.10209
G1 X93.071 Y114.622 E0.00038
M204 S1250
G1 X92.023 Y114.623 F9000.000
M204 S800
;WIDTH:0.123006
G1 F1200.000
G1 X91.358 Y114.522 E0.00447
M204 S1250
G1 E-2.24000 F4200.000
;WIPE_START
G1 F7200.000
G1 X92.023 Y114.623 E-0.37239
;WIPE_END
G1 E-0.58761 F4200.000
G1 Z0.400 F9000.000
G1 X108.972 Y96.057
G1 Z0.200
G1 E3.20000 F2400.000
M204 S800
;TYPE:Solid infill
;WIDTH:0.422582
G1 F1200.000
G1 X108.374 Y95.459 E0.02671
G1 X107.837 Y95.459 E0.01695
G1 X108.803 Y96.425 E0.04311
G1 X108.803 Y96.962 E0.01695
G1 X107.300 Y95.459 E0.06709
G1 X106.763 Y95.459 E0.01695
G1 X108.803 Y97.499 E0.09107
G1 X108.803 Y98.035 E0.01695
G1 X106.226 Y95.459 E0.11504
G1 X105.689 Y95.459 E0.01695
G1 X108.803 Y98.572 E0.13902
G1 X108.803 Y99.109 E0.01695
G1 X105.152 Y95.458 E0.16300
G1 X104.615 Y95.458 E0.01695
G1 X108.803 Y99.646 E0.18698
G1 X108.803 Y100.183 E0.01695
G1 X104.078 Y95.458 E0.21095
G1 X103.540 Y95.458 E0.01695
G1 X108.803 Y100.720 E0.23493
G1 X108.803 Y101.257 E0.01695
G1 X103.003 Y95.458 E0.25891
G1 X102.466 Y95.458 E0.01695
G1 X108.803 Y101.794 E0.28289
G1 X108.803 Y102.331 E0.01695
G1 X101.929 Y95.458 E0.30686
G1 X101.392 Y95.457 E0.01695
G1 X108.803 Y102.868 E0.33084
G1 X108.803 Y103.405 E0.01695
G1 X100.855 Y95.457 E0.35482
G1 X100.318 Y95.457 E0.01695
G1 X108.803 Y103.942 E0.37880
G1 X108.803 Y104.479 E0.01695
G1 X99.781 Y95.457 E0.40277
G1 X99.244 Y95.457 E0.01695
G1 X108.803 Y105.015 E0.42675
G1 X108.803 Y105.552 E0.01695
G1 X98.707 Y95.457 E0.45073
G1 X98.170 Y95.457 E0.01695
G1 X108.803 Y106.089 E0.47471
G1 X108.803 Y106.626 E0.01695
G1 X97.633 Y95.456 E0.49868
G1 X97.096 Y95.456 E0.01695
G1 X108.803 Y107.163 E0.52266
G1 X108.803 Y107.700 E0.01695
G1 X96.559 Y95.456 E0.54664
G1 X96.022 Y95.456 E0.01695
G1 X108.803 Y108.237 E0.57062
G1 X108.803 Y108.774 E0.01695
G1 X95.484 Y95.456 E0.59459
G1 X94.947 Y95.456 E0.01695
G1 X108.803 Y109.311 E0.61857
G1 X108.803 Y109.848 E0.01695
G1 X94.410 Y95.455 E0.64255
G1 X93.873 Y95.455 E0.01695
G1 X108.803 Y110.385 E0.66653
M73 P2 R50
G1 X108.803 Y110.922 E0.01695
G1 X93.336 Y95.455 E0.69050
G1 X92.799 Y95.455 E0.01695
G1 X108.803 Y111.459 E0.71448
G1 X108.803 Y111.995 E0.01695
G1 X92.262 Y95.455 E0.73846
G1 X91.725 Y95.455 E0.01695
G1 X108.803 Y112.532 E0.76244
G1 X108.803 Y113.069 E0.01695
G1 X91.188 Y95.455 E0.78641
G1 X90.651 Y95.454 E0.01695
G1 X108.803 Y113.606 E0.81039
M73 P2 R49
G1 X108.803 Y114.143 E0.01695
G1 X90.114 Y95.454 E0.83437
G1 X89.577 Y95.454 E0.01695
G1 X108.673 Y114.551 E0.85258
G1 X108.136 Y114.551 E0.01695
G1 X96.941 Y103.355 E0.49983
G1 X96.941 Y103.892 E0.01695
G1 X107.599 Y114.551 E0.47585
G1 X107.063 Y114.551 E0.01695
G1 X96.941 Y104.429 E0.45188
G1 X96.941 Y104.966 E0.01695
G1 X106.526 Y114.551 E0.42791
G1 X105.989 Y114.551 E0.01695
G1 X96.941 Y105.503 E0.40394
G1 X96.941 Y106.040 E0.01695
G1 X105.452 Y114.551 E0.37997
G1 X104.915 Y114.551 E0.01695
G1 X96.941 Y106.577 E0.35600
G1 X96.941 Y107.114 E0.01695
G1 X104.378 Y114.551 E0.33203
G1 X103.841 Y114.551 E0.01695
G1 X96.762 Y107.471 E0.31607
G1 X96.421 Y107.668 E0.01241
G1 X103.304 Y114.551 E0.30729
G1 X102.767 Y114.551 E0.01695
G1 X96.081 Y107.864 E0.29852
G1 X95.740 Y108.061 E0.01241
G1 X102.230 Y114.551 E0.28975
G1 X101.693 Y114.551 E0.01695
G1 X95.400 Y108.257 E0.28097
G1 X95.060 Y108.454 E0.01241
G1 X101.156 Y114.551 E0.27220
G1 X100.619 Y114.551 E0.01695
G1 X94.719 Y108.650 E0.26342
G1 X94.379 Y108.847 E0.01241
G1 X100.083 Y114.551 E0.25465
G1 X99.546 Y114.551 E0.01695
G1 X94.038 Y109.044 E0.24588
G1 X93.698 Y109.240 E0.01241
G1 X99.009 Y114.551 E0.23710
G1 X98.472 Y114.551 E0.01695
G1 X93.233 Y109.312 E0.23387
M204 S1250
G1 X93.334 Y109.950 F9000.000
M204 S800
G1 F1200.000
G1 X92.893 Y109.509 E0.01970
M204 S1250
G1 X92.677 Y109.830 F9000.000
M204 S800
G1 F1200.000
G1 X92.231 Y109.384 E0.01991
G1 X90.960 Y108.650 E0.04631
G1 X92.166 Y109.856 E0.05382
M204 S1250
G1 E-2.24000 F4200.000
;WIPE_START
G1 F7200.000
G1 X91.002 Y108.692 E-0.91200
;WIPE_END
G1 E-0.04800 F4200.000
G1 Z0.400 F9000.000
G1 X94.798 Y111.413
G1 Z0.200
G1 E3.20000 F2400.000
M204 S800
G1 F1200.000
G1 X97.935 Y114.551 E0.14007
G1 X97.398 Y114.551 E0.01695
G1 X95.097 Y112.250 E0.10273
G1 X95.087 Y112.509 E0.00819
G1 X95.044 Y112.734 E0.00723
G1 X96.861 Y114.551 E0.08111
G1 X96.324 Y114.551 E0.01695
G1 X94.923 Y113.150 E0.06255
G1 X94.737 Y113.501 E0.01254
G1 X95.787 Y114.551 E0.04688
G1 X95.250 Y114.551 E0.01695
G1 X94.518 Y113.818 E0.03271
G1 X94.405 Y113.961 E0.00575
G1 X94.252 Y114.090 E0.00631
G1 X94.713 Y114.551 E0.02059
G1 X94.176 Y114.551 E0.01695
G1 X93.839 Y114.213 E0.01506
M204 S1250
G1 E-2.24000 F4200.000
;WIPE_START
G1 F7200.000
G1 X94.176 Y114.551 E-0.26438
G1 X94.713 Y114.551 E-0.29754
G1 X94.267 Y114.104 E-0.35007
;WIPE_END
G1 E-0.04800 F4200.000
G1 Z0.400 F9000.000
G1 X95.694 Y102.108
G1 Z0.200
G1 E3.20000 F2400.000
M204 S800
G1 F1200.000
G1 X89.040 Y95.454 E0.29708
G1 X88.503 Y95.454 E0.01695
G1 X93.960 Y100.911 E0.24364
G1 X92.840 Y100.265 E0.04082
G1 X92.800 Y100.288 E0.00147
G1 X87.966 Y95.454 E0.21582
G1 X87.428 Y95.454 E0.01695
G1 X92.459 Y100.484 E0.22460
G1 X92.119 Y100.681 E0.01241
G1 X86.891 Y95.453 E0.23338
G1 X86.354 Y95.453 E0.01695
G1 X91.778 Y100.877 E0.24216
G1 X91.438 Y101.074 E0.01241
G1 X85.817 Y95.453 E0.25094
G1 X85.280 Y95.453 E0.01695
G1 X91.098 Y101.271 E0.25972
G1 X90.757 Y101.467 E0.01241
G1 X84.743 Y95.453 E0.26851
G1 X84.206 Y95.453 E0.01695
G1 X90.417 Y101.664 E0.27729
G1 X90.077 Y101.860 E0.01241
G1 X83.669 Y95.453 E0.28607
G1 X83.132 Y95.452 E0.01695
G1 X89.736 Y102.057 E0.29485
G1 X89.396 Y102.253 E0.01241
G1 X82.595 Y95.452 E0.30363
G1 X82.058 Y95.452 E0.01695
G1 X89.055 Y102.450 E0.31241
G1 X88.739 Y102.632 E0.01153
G1 X88.739 Y102.670 E0.00120
G1 X81.521 Y95.452 E0.32227
M73 P3 R49
G1 X80.984 Y95.452 E0.01695
G1 X88.739 Y103.207 E0.34624
G1 X88.739 Y103.744 E0.01695
G1 X80.447 Y95.452 E0.37022
G1 X79.909 Y95.452 E0.01695
G1 X88.739 Y104.281 E0.39420
G1 X88.739 Y104.818 E0.01695
G1 X79.372 Y95.451 E0.41818
G1 X78.835 Y95.451 E0.01695
G1 X88.739 Y105.355 E0.44215
G1 X88.739 Y105.892 E0.01695
G1 X78.298 Y95.451 E0.46613
G1 X77.761 Y95.451 E0.01695
G1 X88.909 Y106.599 E0.49768
M204 S1250
G1 E-2.24000 F4200.000
;WIPE_START
G1 F7200.000
G1 X87.745 Y105.435 E-0.91200
;WIPE_END
G1 E-0.04800 F4200.000
G1 Z0.400 F9000.000
G1 X91.741 Y109.968
G1 Z0.200
G1 E3.20000 F2400.000
M204 S800
G1 F1200.000
G1 X89.690 Y107.917 E0.09157
G1 X88.739 Y107.368 E0.03467
G1 X88.739 Y106.966 E0.01269
G1 X77.224 Y95.451 E0.51409
G1 X76.687 Y95.451 E0.01695
G1 X91.250 Y110.014 E0.65018
G1 X91.011 Y110.162 E0.00887
G1 X90.932 Y110.232 E0.00336
G1 X76.150 Y95.451 E0.65993
G1 X75.613 Y95.450 E0.01695
G1 X90.654 Y110.491 E0.67150
G1 X90.421 Y110.795 E0.01209
G1 X75.076 Y95.450 E0.68509
G1 X74.539 Y95.450 E0.01695
G1 X90.230 Y111.141 E0.70053
G1 X90.085 Y111.533 E0.01320
G1 X74.002 Y95.450 E0.71805
G1 X73.465 Y95.450 E0.01695
G1 X90.009 Y111.994 E0.73864
G1 X90.000 Y112.336 E0.01078
G1 X90.031 Y112.553 E0.00693
G1 X72.928 Y95.450 E0.76359
G1 X72.391 Y95.450 E0.01695
G1 X90.256 Y113.315 E0.79762
G1 X90.483 Y113.702 E0.01414
G1 X90.687 Y113.949 E0.01013
G1 X90.936 Y114.183 E0.01079
G1 X91.109 Y114.297 E0.00653
G1 X91.067 Y114.551 E0.00814
G1 X90.955 Y114.551 E0.00353
G1 X71.853 Y95.449 E0.85279
G1 X71.316 Y95.449 E0.01695
G1 X90.418 Y114.551 E0.85279
G1 X89.881 Y114.551 E0.01695
G1 X71.197 Y95.867 E0.83414
G1 X71.197 Y96.404 E0.01695
G1 X89.344 Y114.551 E0.81017
G1 X88.807 Y114.551 E0.01695
G1 X71.197 Y96.941 E0.78620
G1 X71.197 Y97.478 E0.01695
G1 X88.270 Y114.551 E0.76222
G1 X87.733 Y114.551 E0.01695
G1 X71.197 Y98.015 E0.73825
G1 X71.197 Y98.552 E0.01695
G1 X87.196 Y114.551 E0.71428
G1 X86.659 Y114.551 E0.01695
G1 X71.197 Y99.089 E0.69031
G1 X71.197 Y99.626 E0.01695
G1 X86.123 Y114.551 E0.66634
G1 X85.586 Y114.551 E0.01695
G1 X71.197 Y100.163 E0.64237
M73 P4 R49
