; generated by Slic3r 1.3.1-dev (Build adea0d9) on 2020-02-06 at 17:58:57

; external perimeters extrusion width = 0.44mm (2.86mm^3/s)
; perimeters extrusion width = 0.56mm (4.14mm^3/s)
; infill extrusion width = 0.50mm (3.66mm^3/s)
; solid infill extrusion width = 0.56mm (3.10mm^3/s)
; top infill extrusion width = 0.56mm (3.10mm^3/s)

M107
G92 E0
;D3D:START:START
T0
M104 S215 T0

G21
G90
M107
T0
G28
G29
M109 T0 S215 T0
G0 F3000
M107
T0
G92 E0
G0 X0 Y149 Z0.1 F3600
G1 Y49 E6.5 F1200
G0 Z1
G92 E0
; Filament gcode

G21 ; set units to millimeters
G90 ; use absolute coordinates
M82 ; use absolute distances for extrusion
G92 E0
G1 Z0.300 F7800.000
G1 E-2.00000 F2400.00000
G92 E0
G1 X82.788 Y80.456 F7800.000
G1 E2.00000 F2400.00000
G1 F1800.000
G1 X85.448 Y80.924 E2.08949
G1 X85.448 Y79.840 E2.12540
G1 X87.255 Y81.238 E2.20109
G1 X91.112 Y81.912 E2.33082
G1 X91.112 Y83.179 E2.37279
G1 X88.456 Y82.712 E2.46213
G1 X88.456 Y82.998 E2.47160
G1 X91.112 Y83.465 E2.56094
G1 X91.112 Y84.732 E2.60291
G1 X87.527 Y84.111 E2.72345
G1 X87.527 Y84.379 E2.73232
G1 X91.112 Y85.003 E2.85288
G1 X91.112 Y86.270 E2.89485
G1 X88.456 Y85.803 E2.98419
G1 X88.456 Y89.229 E3.09770
G1 X88.167 Y89.229 E3.10730
G1 X88.359 Y89.589 E3.12082
G1 X88.448 Y89.965 E3.13360
G1 X88.456 Y91.950 E3.19936
G1 X88.146 Y92.157 E3.21173
G1 X88.180 Y92.270 E3.21565
G1 X88.456 Y92.270 E3.22481
G1 X88.456 Y93.524 E3.26634
G1 X88.239 Y93.524 E3.27353
G1 X88.408 Y93.846 E3.28560
G1 X88.479 Y94.111 E3.29467
G1 X88.500 Y94.391 E3.30397
G1 X88.479 Y94.671 E3.31327
G1 X88.408 Y94.935 E3.32234
G1 X88.239 Y95.258 E3.33442
G1 X88.456 Y95.258 E3.34161
G1 X88.456 Y99.106 E3.46907
G1 X86.690 Y99.106 E3.52760
G1 X86.690 Y99.713 E3.54771
G1 X85.448 Y99.713 E3.58884
G1 X85.448 Y92.475 E3.82862
G1 X85.662 Y92.334 E3.83711
G1 X85.628 Y92.220 E3.84104
G1 X85.448 Y92.220 E3.84699
G1 X85.457 Y89.965 E3.92172
G1 X85.542 Y89.603 E3.93402
G1 X85.634 Y89.400 E3.94142
G1 X85.759 Y89.229 E3.94842
G1 X85.448 Y89.229 E3.95871
G1 X85.459 Y86.070 E4.06338
G1 X85.577 Y85.680 E4.07688
G1 X85.712 Y85.478 E4.08492
G1 X85.845 Y85.353 E4.09097
G1 X82.788 Y84.816 E4.19380
G1 X82.788 Y83.549 E4.23578
G1 X85.448 Y84.016 E4.32527
G1 X85.448 Y83.745 E4.33424
G1 X82.788 Y83.278 E4.42373
G1 X82.788 Y82.011 E4.46570
G1 X85.448 Y82.478 E4.55520
G1 X85.448 Y82.191 E4.56472
G1 X82.788 Y81.723 E4.65421
G1 X82.788 Y80.516 E4.69421
G1 E2.69421 F2400.00000
G92 E0
G1 X85.714 Y80.381 F7800.000
G1 E2.00000 F2400.00000
G1 F1800.000
G1 X87.144 Y81.489 E2.05992
G1 X88.191 Y81.674 E2.09514
G1 X88.191 Y83.958 E2.17080
G1 X87.261 Y83.795 E2.20206
G1 X87.261 Y84.602 E2.22880
G1 X88.191 Y84.765 E2.26005
G1 X88.191 Y85.979 E2.30028
G1 X87.393 Y86.393 E2.33004
G1 X87.393 Y86.526 E2.33446
G1 X88.191 Y86.526 E2.36087
G1 X88.191 Y88.964 E2.44162
G1 X87.590 Y88.964 E2.46153
G1 X87.559 Y89.083 E2.46562
G1 X87.740 Y89.184 E2.47249
G1 X87.960 Y89.405 E2.48282
G1 X88.109 Y89.684 E2.49329
G1 X88.182 Y89.997 E2.50393
G1 X88.191 Y91.807 E2.56392
G1 X87.268 Y92.422 E2.60065
G1 X87.303 Y92.535 E2.60456
G1 X88.191 Y92.535 E2.63398
G1 X88.191 Y93.258 E2.65792
G1 X87.551 Y93.258 E2.67911
G1 X87.525 Y93.386 E2.68342
G1 X87.753 Y93.482 E2.69162
G1 X87.923 Y93.601 E2.69849
G1 X88.061 Y93.756 E2.70538
G1 X88.159 Y93.943 E2.71238
G1 X88.216 Y94.156 E2.71966
G1 X88.234 Y94.391 E2.72747
G1 X88.216 Y94.626 E2.73528
G1 X88.159 Y94.838 E2.74256
G1 X88.061 Y95.025 E2.74956
G1 X87.923 Y95.181 E2.75645
G1 X87.753 Y95.299 E2.76333
G1 X87.525 Y95.396 E2.77152
G1 X87.551 Y95.524 E2.77584
G1 X88.191 Y95.524 E2.79703
G1 X88.191 Y96.246 E2.82097
G1 X87.261 Y96.246 E2.85175
G1 X87.261 Y96.898 E2.87333
G1 X88.191 Y96.898 E2.90411
G1 X88.191 Y97.620 E2.92805
G1 X86.424 Y97.620 E2.98657
G1 X86.424 Y98.117 E3.00305
G1 X88.191 Y98.117 E3.06157
G1 X88.191 Y98.840 E3.08551
G1 X86.424 Y98.840 E3.14403
G1 X86.424 Y99.447 E3.16415
G1 X85.714 Y99.447 E3.18768
G1 X85.714 Y96.898 E3.27214
G1 X86.563 Y96.898 E3.30029
G1 X86.563 Y96.246 E3.32186
G1 X85.714 Y96.246 E3.35001
G1 X85.714 Y94.723 E3.40048
G1 X86.996 Y94.723 E3.44295
G1 X87.334 Y94.686 E3.45424
G1 X87.418 Y94.650 E3.45725
G1 X87.473 Y94.600 E3.45973
G1 X87.510 Y94.521 E3.46259
G1 X87.525 Y94.391 E3.46695
G1 X87.510 Y94.260 E3.47131
G1 X87.473 Y94.182 E3.47417
G1 X87.418 Y94.131 E3.47665
G1 X87.334 Y94.095 E3.47966
G1 X86.996 Y94.059 E3.49095
G1 X85.714 Y94.059 E3.53341
G1 X85.714 Y92.618 E3.58116
G1 X86.545 Y92.068 E3.61417
G1 X86.511 Y91.955 E3.61810
G1 X85.714 Y91.955 E3.64451
G1 X85.722 Y89.997 E3.70938
G1 X85.794 Y89.689 E3.71983
G1 X85.864 Y89.534 E3.72547
G1 X86.046 Y89.287 E3.73564
G1 X86.330 Y89.073 E3.74743
G1 X86.294 Y88.964 E3.75123
G1 X85.714 Y88.964 E3.77044
G1 X85.724 Y86.111 E3.86496
G1 X85.820 Y85.794 E3.87591
G1 X85.916 Y85.650 E3.88164
G1 X86.037 Y85.537 E3.88714
G1 X86.183 Y85.455 E3.89268
G1 X86.348 Y85.409 E3.89837
G1 X86.532 Y85.394 E3.90447
G1 X86.776 Y85.422 E3.91262
G1 X86.986 Y85.514 E3.92020
G1 X87.193 Y85.700 E3.92943
G1 X87.577 Y85.494 E3.94387
G1 X87.559 Y85.382 E3.94763
G1 X85.714 Y85.057 E4.00970
G1 X85.714 Y82.011 E4.11062
G1 X86.404 Y81.730 E4.13529
G1 X85.714 Y81.218 E4.16377
G1 X85.714 Y80.441 E4.18950
G1 X85.530 Y81.208 F7800.000
G1 F1800.000
G1 X85.530 Y81.935 E4.21360
G1 X83.053 Y81.500 E4.29691
G1 X83.053 Y80.772 E4.32102
G1 X85.471 Y81.197 E4.40235
G1 X85.530 Y82.762 F7800.000
G1 F1800.000
G1 X85.530 Y83.490 E4.42645
G1 X83.053 Y83.055 E4.50977
G1 X83.053 Y82.327 E4.53387
G1 X85.471 Y82.752 E4.61519
G1 X85.530 Y84.300 F7800.000
G1 F1800.000
G1 X85.530 Y85.028 E4.63930
G1 X83.053 Y84.593 E4.72261
G1 X83.053 Y83.865 E4.74671
G1 X85.471 Y84.290 E4.82804
G1 E2.82804 F2400.00000
G92 E0
G1 X88.370 Y83.980 F7800.000
G1 E2.00000 F2400.00000
G1 F1800.000
G1 X88.370 Y83.252 E2.02411
G1 X90.847 Y83.688 E2.10742
G1 X90.847 Y84.415 E2.13152
G1 X88.429 Y83.990 E2.21285
G1 X88.370 Y84.791 F7800.000
G1 F1800.000
G1 X90.847 Y85.226 E2.29616
G1 X90.847 Y85.953 E2.32026
G1 X88.370 Y85.518 E2.40357
G1 X88.370 Y84.851 E2.42569
G1 E0.42569 F2400.00000
G92 E0
G1 X88.370 Y82.427 F7800.000
G1 E2.00000 F2400.00000
G1 F1800.000
G1 X88.370 Y81.700 E2.02411
G1 X90.847 Y82.135 E2.10742
G1 X90.847 Y82.863 E2.13152
G1 X88.429 Y82.438 E2.21285
G1 E0.21285 F2400.00000
G92 E0
G1 X78.951 Y95.507 F7800.000
G1 E2.00000 F2400.00000
G1 F1800.000
G1 X79.168 Y95.711 E2.00988
G1 X79.466 Y96.121 E2.02670
G1 X79.603 Y96.411 E2.03730
G1 X79.734 Y96.924 E2.05485
G1 X79.734 Y97.476 E2.07313
G1 X79.603 Y97.989 E2.09068
G1 X79.466 Y98.279 E2.10128
G1 X79.168 Y98.689 E2.11810
G1 X78.935 Y98.908 E2.12871
G1 X78.506 Y99.180 E2.14552
G1 X78.209 Y99.298 E2.15612
G1 X77.710 Y99.393 E2.17294
G1 X77.390 Y99.393 E2.18354
G1 X76.870 Y99.294 E2.20109
G1 X76.390 Y99.068 E2.21864
G1 X76.149 Y98.893 E2.22851
G1 X75.932 Y98.689 E2.23839
G1 X75.634 Y98.279 E2.25521
G1 X75.497 Y97.989 E2.26581
G1 X75.366 Y97.476 E2.28336
G1 X75.366 Y96.924 E2.30164
G1 X75.497 Y96.411 E2.31919
G1 X75.634 Y96.121 E2.32979
G1 X75.932 Y95.711 E2.34661
G1 X76.165 Y95.492 E2.35722
G1 X76.594 Y95.220 E2.37403
G1 X76.891 Y95.102 E2.38463
G1 X77.390 Y95.007 E2.40145
G1 X77.710 Y95.007 E2.41205
G1 X78.230 Y95.106 E2.42960
G1 X78.710 Y95.332 E2.44715
G1 X78.902 Y95.471 E2.45503
G1 X78.781 Y95.712 F7800.000
G1 F1800.000
G1 X78.968 Y95.887 E2.46352
G1 X79.237 Y96.257 E2.47868
G1 X79.352 Y96.501 E2.48762
G1 X79.469 Y96.958 E2.50322
G1 X79.469 Y97.442 E2.51928
G1 X79.352 Y97.899 E2.53489
G1 X79.237 Y98.143 E2.54383
G1 X78.968 Y98.513 E2.55898
G1 X78.771 Y98.698 E2.56792
G1 X78.385 Y98.943 E2.58307
G1 X78.134 Y99.042 E2.59201
G1 X77.685 Y99.128 E2.60717
G1 X77.415 Y99.128 E2.61610
G1 X76.952 Y99.039 E2.63171
G1 X76.526 Y98.839 E2.64732
G1 X76.319 Y98.688 E2.65580
G1 X76.132 Y98.513 E2.66429
G1 X75.863 Y98.143 E2.67945
G1 X75.748 Y97.899 E2.68838
G1 X75.631 Y97.442 E2.70399
G1 X75.631 Y96.958 E2.72005
G1 X75.748 Y96.501 E2.73566
G1 X75.863 Y96.257 E2.74460
G1 X76.132 Y95.887 E2.75975
G1 X76.329 Y95.702 E2.76869
G1 X76.715 Y95.457 E2.78384
G1 X76.966 Y95.358 E2.79278
G1 X77.415 Y95.272 E2.80794
G1 X77.685 Y95.272 E2.81687
G1 X78.148 Y95.361 E2.83248
G1 X78.574 Y95.561 E2.84809
G1 X78.733 Y95.676 E2.85458
G1 X78.611 Y95.917 F7800.000
G1 F1800.000
G1 X78.768 Y96.064 E2.86169
G1 X79.007 Y96.393 E2.87518
G1 X79.101 Y96.592 E2.88245
G1 X79.203 Y96.991 E2.89612
G1 X79.203 Y97.409 E2.90996
G1 X79.101 Y97.808 E2.92362
G1 X79.007 Y98.007 E2.93089
G1 X78.768 Y98.336 E2.94438
G1 X78.608 Y98.487 E2.95166
G1 X78.264 Y98.705 E2.96515
G1 X78.060 Y98.786 E2.97242
G1 X77.660 Y98.862 E2.98591
G1 X77.440 Y98.862 E2.99319
G1 X77.035 Y98.785 E3.00685
G1 X76.662 Y98.609 E3.02051
G1 X76.489 Y98.483 E3.02761
G1 X76.332 Y98.336 E3.03472
G1 X76.093 Y98.007 E3.04821
G1 X75.999 Y97.808 E3.05548
G1 X75.897 Y97.409 E3.06915
G1 X75.897 Y96.991 E3.08298
G1 X75.999 Y96.592 E3.09665
G1 X76.093 Y96.393 E3.10392
G1 X76.332 Y96.064 E3.11741
G1 X76.492 Y95.913 E3.12469
G1 X76.836 Y95.695 E3.13817
G1 X77.040 Y95.614 E3.14545
G1 X77.440 Y95.538 E3.15894
G1 X77.660 Y95.538 E3.16621
G1 X78.065 Y95.615 E3.17988
G1 X78.438 Y95.791 E3.19354
G1 X78.563 Y95.882 E3.19865
G1 E1.19865 F2400.00000
G92 E0
G1 X78.333 Y93.632 F7800.000
G1 E2.00000 F2400.00000
G1 F1800.000
G1 X77.872 Y93.690 E2.01538
G1 X77.408 Y93.690 E2.03077
G1 X76.919 Y93.629 E2.04708
G1 X76.494 Y93.516 E2.06165
G1 X76.066 Y93.346 E2.07692
G1 X75.659 Y93.122 E2.09231
G1 X75.283 Y92.849 E2.10769
G1 X74.945 Y92.531 E2.12307
G1 X74.649 Y92.173 E2.13846
G1 X74.400 Y91.781 E2.15384
G1 X74.202 Y91.361 E2.16922
G1 X74.058 Y90.920 E2.18461
G1 X73.972 Y90.463 E2.20000
G1 X73.942 Y90.000 E2.21538
G1 X73.972 Y89.537 E2.23076
G1 X74.058 Y89.080 E2.24614
G1 X74.202 Y88.639 E2.26153
G1 X74.400 Y88.219 E2.27691
G1 X74.649 Y87.827 E2.29229
G1 X74.945 Y87.469 E2.30768
G1 X75.283 Y87.151 E2.32306
G1 X75.659 Y86.878 E2.33845
G1 X76.066 Y86.654 E2.35383
G1 X76.497 Y86.483 E2.36921
G1 X76.947 Y86.368 E2.38460
G1 X77.408 Y86.310 E2.39998
G1 X77.872 Y86.310 E2.41537
G1 X78.333 Y86.368 E2.43075
G1 X78.783 Y86.483 E2.44613
G1 X79.214 Y86.654 E2.46152
G1 X79.621 Y86.878 E2.47690
G1 X79.997 Y87.151 E2.49229
G1 X80.335 Y87.469 E2.50767
G1 X80.631 Y87.827 E2.52305
G1 X80.880 Y88.219 E2.53844
G1 X81.078 Y88.639 E2.55382
G1 X81.222 Y89.080 E2.56920
G1 X81.308 Y89.537 E2.58459
G1 X81.338 Y90.000 E2.59997
G1 X81.308 Y90.463 E2.61535
G1 X81.222 Y90.920 E2.63074
G1 X81.078 Y91.361 E2.64612
G1 X80.880 Y91.781 E2.66150
G1 X80.631 Y92.173 E2.67689
G1 X80.335 Y92.531 E2.69227
G1 X79.997 Y92.849 E2.70765
G1 X79.621 Y93.122 E2.72304
G1 X79.214 Y93.346 E2.73842
G1 X78.783 Y93.517 E2.75381
G1 X78.391 Y93.617 E2.76721
G1 X78.283 Y93.371 F7800.000
G1 F1800.000
G1 X77.855 Y93.425 E2.78148
G1 X77.425 Y93.425 E2.79576
G1 X76.970 Y93.367 E2.81093
G1 X76.578 Y93.263 E2.82438
G1 X76.179 Y93.105 E2.83859
G1 X75.801 Y92.897 E2.85287
G1 X75.453 Y92.644 E2.86715
G1 X75.139 Y92.349 E2.88142
G1 X74.864 Y92.017 E2.89570
G1 X74.633 Y91.653 E2.90998
G1 X74.450 Y91.263 E2.92425
G1 X74.316 Y90.853 E2.93853
G1 X74.236 Y90.430 E2.95281
G1 X74.209 Y90.000 E2.96708
G1 X74.236 Y89.570 E2.98136
G1 X74.316 Y89.147 E2.99563
G1 X74.450 Y88.737 E3.00991
G1 X74.633 Y88.347 E3.02419
G1 X74.864 Y87.983 E3.03846
G1 X75.139 Y87.651 E3.05274
G1 X75.453 Y87.356 E3.06702
G1 X75.801 Y87.103 E3.08129
G1 X76.179 Y86.895 E3.09557
G1 X76.580 Y86.736 E3.10984
G1 X76.997 Y86.629 E3.12412
G1 X77.425 Y86.575 E3.13840
G1 X77.855 Y86.575 E3.15268
G1 X78.283 Y86.629 E3.16695
G1 X78.700 Y86.736 E3.18123
G1 X79.101 Y86.895 E3.19550
G1 X79.479 Y87.103 E3.20978
G1 X79.827 Y87.356 E3.22406
G1 X80.141 Y87.651 E3.23833
G1 X80.416 Y87.983 E3.25261
G1 X80.647 Y88.347 E3.26689
G1 X80.830 Y88.737 E3.28116
G1 X80.964 Y89.147 E3.29544
G1 X81.044 Y89.570 E3.30972
G1 X81.071 Y90.000 E3.32399
G1 X81.044 Y90.430 E3.33827
G1 X80.964 Y90.853 E3.35254
G1 X80.830 Y91.263 E3.36682
G1 X80.647 Y91.653 E3.38110
G1 X80.416 Y92.017 E3.39538
G1 X80.141 Y92.349 E3.40965
G1 X79.827 Y92.644 E3.42392
G1 X79.479 Y92.897 E3.43820
G1 X79.101 Y93.105 E3.45248
G1 X78.700 Y93.264 E3.46675
G1 X78.341 Y93.356 E3.47905
G1 X78.233 Y93.109 F7800.000
G1 F1800.000
G1 X77.839 Y93.159 E3.49221
G1 X77.441 Y93.159 E3.50538
G1 X77.021 Y93.106 E3.51941
G1 X76.661 Y93.010 E3.53176
G1 X76.292 Y92.864 E3.54490
G1 X75.944 Y92.673 E3.55807
G1 X75.622 Y92.439 E3.57124
G1 X75.333 Y92.167 E3.58441
G1 X75.079 Y91.861 E3.59758
G1 X74.866 Y91.525 E3.61074
G1 X74.697 Y91.165 E3.62391
G1 X74.574 Y90.787 E3.63708
G1 X74.500 Y90.397 E3.65025
G1 X74.475 Y90.000 E3.66342
G1 X74.500 Y89.603 E3.67659
G1 X74.574 Y89.213 E3.68976
G1 X74.697 Y88.835 E3.70293
G1 X74.866 Y88.475 E3.71610
G1 X75.079 Y88.139 E3.72927
G1 X75.333 Y87.833 E3.74244
G1 X75.622 Y87.561 E3.75560
G1 X75.944 Y87.327 E3.76877
G1 X76.292 Y87.136 E3.78194
G1 X76.662 Y86.990 E3.79511
G1 X77.047 Y86.891 E3.80828
G1 X77.441 Y86.841 E3.82145
G1 X77.839 Y86.841 E3.83462
G1 X78.233 Y86.891 E3.84779
G1 X78.618 Y86.990 E3.86096
G1 X78.988 Y87.136 E3.87413
G1 X79.336 Y87.327 E3.88730
G1 X79.658 Y87.561 E3.90047
G1 X79.947 Y87.833 E3.91364
G1 X80.201 Y88.139 E3.92681
G1 X80.414 Y88.475 E3.93997
G1 X80.583 Y88.835 E3.95314
G1 X80.706 Y89.213 E3.96631
G1 X80.780 Y89.603 E3.97948
G1 X80.805 Y90.000 E3.99265
G1 X80.780 Y90.397 E4.00582
G1 X80.706 Y90.787 E4.01899
G1 X80.583 Y91.165 E4.03216
G1 X80.414 Y91.525 E4.04533
G1 X80.201 Y91.861 E4.05850
G1 X79.947 Y92.167 E4.07167
G1 X79.658 Y92.439 E4.08483
G1 X79.336 Y92.673 E4.09800
G1 X78.988 Y92.864 E4.11117
G1 X78.618 Y93.010 E4.12434
G1 X78.291 Y93.094 E4.13553
G1 E2.13553 F2400.00000
G92 E0
G1 X82.522 Y85.039 F7800.000
G1 E2.00000 F2400.00000
G1 F1800.000
G1 X85.344 Y85.534 E2.09492
G1 X85.194 Y86.029 E2.11205
G1 X85.175 Y87.780 E2.17006
G1 X85.183 Y89.495 E2.22688
G1 X85.294 Y89.495 E2.23058
G1 X85.191 Y89.933 E2.24547
G1 X85.177 Y91.665 E2.30287
G1 X85.183 Y100.052 E2.58073
G1 X61.105 Y100.052 E3.37840
G1 X61.105 Y98.595 E3.42668
G1 X64.521 Y98.595 E3.53985
G1 X64.521 Y96.686 E3.60311
G1 X61.105 Y96.686 E3.71628
G1 X61.105 Y96.282 E3.72966
G1 X64.521 Y96.282 E3.84283
G1 X64.521 Y94.370 E3.90616
G1 X62.967 Y94.370 E3.95764
G1 X62.967 Y92.958 E4.00442
G1 X64.521 Y92.958 E4.05590
G1 X64.521 Y92.396 E4.07453
G1 X64.793 Y92.708 E4.08823
G1 X65.341 Y92.927 E4.10779
G1 X65.929 Y92.983 E4.12735
G1 X66.511 Y92.925 E4.14671
G1 X67.055 Y92.703 E4.16618
G1 X67.469 Y92.240 E4.18677
G1 X67.599 Y91.626 E4.20755
G1 X67.547 Y91.380 E4.21591
G1 X67.584 Y91.380 E4.21714
G1 X67.584 Y88.355 E4.31733
G1 X67.531 Y87.906 E4.33231
G1 X67.311 Y87.441 E4.34937
G1 X66.889 Y87.092 E4.36749
G1 X66.364 Y86.983 E4.38525
G1 X65.917 Y87.063 E4.40031
G1 X65.784 Y87.151 E4.40557
G1 X65.334 Y87.083 E4.42067
G1 X64.521 Y87.469 E4.45047
G1 X64.521 Y87.121 E4.46200
G1 X63.012 Y87.121 E4.51199
G1 X63.012 Y86.642 E4.52788
G1 X62.906 Y85.915 E4.55220
G1 X62.619 Y85.416 E4.57128
G1 X64.521 Y85.416 E4.63431
G1 X64.521 Y80.373 E4.80137
G1 X59.289 Y80.373 E4.97472
G1 X59.289 Y82.223 E5.03601
G1 X61.100 Y82.881 E5.09984
G1 X59.289 Y83.553 E5.16383
G1 X59.289 Y85.416 E5.22553
G1 X59.664 Y85.416 E5.23796
G1 X59.386 Y85.939 E5.25757
G1 X59.289 Y86.680 E5.28233
G1 X59.289 Y89.033 E5.36028
G1 X59.711 Y89.033 E5.37428
G1 X59.383 Y89.671 E5.39805
G1 X59.289 Y90.411 E5.42278
G1 X59.289 Y100.052 E5.74219
G1 X56.050 Y100.052 E5.84950
G1 X55.863 Y99.995 E5.85597
G1 X55.744 Y99.868 E5.86172
G1 X55.712 Y99.787 E5.86462
G1 X55.696 Y99.656 E5.86898
G1 X55.696 Y80.344 E6.50879
G1 X55.712 Y80.213 E6.51315
G1 X55.744 Y80.132 E6.51604
G1 X55.809 Y80.043 E6.51968
G1 X55.920 Y79.972 E6.52405
G1 X56.050 Y79.948 E6.52842
G1 X85.183 Y79.948 E7.49358
G1 X85.183 Y80.607 E7.51543
G1 X82.522 Y80.140 E7.60492
G1 X82.522 Y84.979 E7.76524
G1 E5.76524 F2400.00000
G92 E0
G1 X91.378 Y86.586 F7800.000
G1 E2.00000 F2400.00000
G1 F1800.000
G1 X91.378 Y81.689 E2.16224
G1 X87.366 Y80.988 E2.29717
G1 X86.161 Y80.056 E2.34765
G1 X86.198 Y79.948 E2.35143
G1 X93.972 Y79.948 E2.60899
G1 X94.137 Y80.005 E2.61478
G1 X94.204 Y80.061 E2.61768
G1 X94.278 Y80.170 E2.62203
G1 X94.304 Y80.344 E2.62786
G1 X94.304 Y99.678 E3.26839
G1 X94.274 Y99.828 E3.27347
G1 X94.172 Y99.969 E3.27922
