; generated by Slic3r 1.3.0 on 2020-12-15 at 19:33:46

; external perimeters extrusion width = 0.44mm (2.86mm^3/s)
; perimeters extrusion width = 0.56mm (4.14mm^3/s)
; infill extrusion width = 0.50mm (3.66mm^3/s)
; solid infill extrusion width = 0.56mm (3.10mm^3/s)
; top infill extrusion width = 0.56mm (3.10mm^3/s)

M107
;D3D:START:START
T0
M104 S215 T0

G21
G90
M107
T0
G28
G29
M109 T0 S215 T0
G0 F3000
M107
T0
G92 E0
G0 X0 Y149 Z0.1 F3600
G1 Y49 E6.5 F1200
G0 Z1
G92 E0
; Filament gcode

G21 ; set units to millimeters
G90 ; use absolute coordinates
M82 ; use absolute distances for extrusion
G92 E0
G1 Z0.300 F7800.000
G1 E-2.00000 F2400.00000
G92 E0
G1 X84.142 Y95.903 F7800.000
G1 E2.00000 F2400.00000
G1 F1800
G1 X86.762 Y95.903 E2.08072
G1 X86.762 Y96.652 E2.10379
G1 X85.771 Y96.652 E2.13432
G1 X85.771 Y97.369 E2.15641
G1 X86.762 Y97.369 E2.18695
G1 X86.762 Y98.117 E2.21001
G1 X84.878 Y98.117 E2.26807
G1 X84.878 Y98.670 E2.28509
G1 X86.762 Y98.670 E2.34315
G1 X86.762 Y99.418 E2.36621
G1 X84.878 Y99.418 E2.42427
G1 X84.878 Y100.066 E2.44422
G1 X84.142 Y100.066 E2.46689
G1 X84.142 Y97.369 E2.55000
G1 X85.049 Y97.369 E2.57792
G1 X85.049 Y96.652 E2.60000
G1 X84.142 Y96.652 E2.62792
G1 X84.142 Y95.963 E2.64914
G1 X84.142 Y95.797 F7800.000
G1 F1800
G1 X84.142 Y95.049 E2.67221
G1 X85.504 Y95.049 E2.71416
G1 X85.858 Y95.012 E2.72511
G1 X85.955 Y94.970 E2.72839
G1 X86.017 Y94.913 E2.73097
G1 X86.058 Y94.826 E2.73393
G1 X86.075 Y94.684 E2.73835
G1 X86.058 Y94.541 E2.74277
G1 X86.017 Y94.454 E2.74572
G1 X85.955 Y94.397 E2.74831
G1 X85.858 Y94.355 E2.75159
G1 X85.504 Y94.319 E2.76254
G1 X84.142 Y94.319 E2.80449
G1 X84.142 Y93.570 E2.82755
G1 X85.621 Y93.570 E2.87312
G1 X85.867 Y93.586 E2.88070
G1 X86.095 Y93.637 E2.88791
G1 X86.301 Y93.724 E2.89479
G1 X86.480 Y93.849 E2.90153
G1 X86.626 Y94.013 E2.90829
G1 X86.729 Y94.210 E2.91515
G1 X86.789 Y94.435 E2.92230
G1 X86.809 Y94.684 E2.92999
G1 X86.789 Y94.932 E2.93768
G1 X86.729 Y95.157 E2.94484
G1 X86.626 Y95.354 E2.95170
G1 X86.480 Y95.518 E2.95845
G1 X86.301 Y95.643 E2.96520
G1 X86.096 Y95.730 E2.97207
G1 X85.867 Y95.781 E2.97929
G1 X85.621 Y95.797 E2.98687
G1 X84.202 Y95.797 E3.03058
G1 E1.03058 F2400.00000
G92 E0
G1 X84.142 Y93.464 F7800.000
G1 E2.00000 F2400.00000
G1 F1800
G1 X84.142 Y92.798 E2.02051
G1 X85.238 Y92.074 E2.06097
G1 X84.142 Y92.074 E2.09471
G1 X84.142 Y91.325 E2.11778
G1 X86.762 Y91.325 E2.19849
G1 X86.762 Y91.922 E2.21688
G1 X85.572 Y92.716 E2.26095
G1 X86.762 Y92.716 E2.29762
G1 X86.762 Y93.464 E2.32069
G1 X84.202 Y93.464 E2.39956
G1 E0.39956 F2400.00000
G92 E0
G1 X84.141 Y91.199 F7800.000
G1 E2.00000 F2400.00000
G1 F1800
G1 X84.151 Y90.003 E2.03684
G1 X84.182 Y89.824 E2.04244
G1 X84.298 Y89.513 E2.05265
G1 X84.494 Y89.247 E2.06283
G1 X84.760 Y89.046 E2.07311
G1 X85.084 Y88.922 E2.08378
G1 X85.432 Y88.884 E2.09458
G1 X84.142 Y88.884 E2.13431
G1 X84.142 Y87.088 E2.18962
G1 X84.878 Y87.088 E2.21229
G1 X84.878 Y88.125 E2.24424
G1 X85.035 Y88.125 E2.24908
G1 X85.035 Y87.320 E2.27388
G1 X85.771 Y87.320 E2.29654
G1 X85.771 Y88.125 E2.32133
G1 X86.027 Y88.125 E2.32921
G1 X86.027 Y87.055 E2.36217
G1 X86.762 Y87.055 E2.38483
G1 X86.762 Y88.884 E2.44116
G1 X85.449 Y88.884 E2.48161
G1 X85.821 Y88.922 E2.49312
G1 X86.145 Y89.046 E2.50381
G1 X86.411 Y89.247 E2.51408
G1 X86.606 Y89.513 E2.52426
G1 X86.723 Y89.824 E2.53448
G1 X86.754 Y90.003 E2.54007
G1 X86.764 Y91.199 E2.57692
G1 X84.201 Y91.199 E2.65587
G1 E0.65587 F2400.00000
G92 E0
G1 X84.141 Y87.054 F7800.000
G1 E2.00000 F2400.00000
G1 F1800
G1 X84.154 Y85.860 E2.03679
G1 X84.193 Y85.676 E2.04260
G1 X84.259 Y85.512 E2.04804
G1 X84.356 Y85.368 E2.05340
G1 X84.482 Y85.248 E2.05877
G1 X84.671 Y85.144 E2.06540
G1 X84.816 Y85.113 E2.06998
G1 X85.004 Y85.098 E2.07578
G1 X85.262 Y85.128 E2.08378
G1 X85.482 Y85.225 E2.09120
G1 X85.655 Y85.380 E2.09836
G1 X85.692 Y85.436 E2.10041
G1 X86.315 Y85.100 E2.12222
G1 X84.142 Y84.719 E2.19019
G1 X84.142 Y82.328 E2.26383
G1 X86.027 Y82.659 E2.32277
G1 X86.027 Y81.868 E2.34714
G1 X86.762 Y81.999 E2.37015
G1 X86.762 Y83.543 E2.41772
G1 X84.878 Y83.211 E2.47666
G1 X84.878 Y84.092 E2.50380
G1 X85.035 Y84.121 E2.50873
G1 X85.035 Y83.395 E2.53109
G1 X85.771 Y83.526 E2.55411
G1 X85.771 Y84.252 E2.57647
G1 X86.762 Y84.425 E2.60747
G1 X86.762 Y85.704 E2.64688
G1 X85.912 Y86.146 E2.67641
G1 X85.912 Y86.306 E2.68134
G1 X86.762 Y86.306 E2.70754
G1 X86.762 Y87.054 E2.73061
G1 X84.201 Y87.054 E2.80953
G1 E0.80953 F2400.00000
G92 E0
G1 X86.975 Y85.210 F7800.000
G1 E2.00000 F2400.00000
G1 F1800
G1 X86.975 Y84.457 E2.02322
G1 X89.595 Y84.917 E2.10518
G1 X89.595 Y85.671 E2.12840
G1 X87.035 Y85.221 E2.20850
G1 X86.975 Y83.570 F7800.000
G1 F1800
G1 X86.975 Y82.816 E2.23173
G1 X89.595 Y83.276 E2.31368
G1 X89.595 Y84.030 E2.33690
G1 X87.035 Y83.580 E2.41701
G1 X86.975 Y81.913 F7800.000
G1 F1800
G1 X86.975 Y81.160 E2.44023
G1 X89.595 Y81.620 E2.52219
G1 X89.595 Y82.374 E2.54541
G1 X87.035 Y81.924 E2.62552
G1 X86.762 Y81.878 F7800.000
G1 F1800
G1 X85.603 Y81.676 E2.66178
G1 X84.142 Y82.290 E2.71059
G1 X84.142 Y81.486 E2.73537
G1 X84.890 Y81.182 E2.76023
G1 X84.142 Y80.627 E2.78891
G1 X84.142 Y79.762 E2.81554
G1 X85.652 Y80.931 E2.87436
G1 X86.762 Y81.129 E2.90910
G1 X86.762 Y81.818 E2.93036
G1 E0.93036 F2400.00000
G92 E0
G1 X83.924 Y81.385 F7800.000
G1 E2.00000 F2400.00000
G1 F1800
G1 X81.305 Y80.924 E2.08195
G1 X81.305 Y80.170 E2.10518
G1 X83.924 Y80.631 E2.18714
G1 X83.924 Y81.325 E2.20851
G1 X83.924 Y82.289 F7800.000
G1 F1800
G1 X83.924 Y83.043 E2.23174
G1 X81.305 Y82.582 E2.31369
G1 X81.305 Y81.829 E2.33691
G1 X83.865 Y82.279 E2.41702
G1 X83.924 Y83.929 F7800.000
G1 F1800
G1 X83.924 Y84.683 E2.44024
G1 X81.305 Y84.223 E2.52219
G1 X81.305 Y83.469 E2.54542
G1 X83.865 Y83.919 E2.62552
G1 E0.62552 F2400.00000
G92 E0
G1 X80.366 Y87.628 F7800.000
G1 E2.00000 F2400.00000
G1 F1800
G1 X80.644 Y87.963 E2.01341
G1 X80.877 Y88.331 E2.02682
G1 X81.062 Y88.724 E2.04023
G1 X81.196 Y89.138 E2.05363
G1 X81.278 Y89.566 E2.06704
G1 X81.305 Y90.000 E2.08045
G1 X81.278 Y90.434 E2.09386
G1 X81.196 Y90.862 E2.10727
G1 X81.062 Y91.276 E2.12067
G1 X80.877 Y91.669 E2.13408
G1 X80.644 Y92.037 E2.14749
G1 X80.366 Y92.372 E2.16090
G1 X80.049 Y92.670 E2.17431
G1 X79.697 Y92.926 E2.18771
G1 X79.315 Y93.135 E2.20112
G1 X78.911 Y93.296 E2.21453
G1 X78.489 Y93.404 E2.22794
G1 X78.058 Y93.458 E2.24135
G1 X77.622 Y93.458 E2.25475
G1 X77.191 Y93.404 E2.26816
G1 X76.769 Y93.296 E2.28157
G1 X76.364 Y93.135 E2.29498
G1 X75.983 Y92.926 E2.30839
G1 X75.631 Y92.670 E2.32179
G1 X75.314 Y92.372 E2.33520
G1 X75.036 Y92.037 E2.34861
G1 X74.803 Y91.669 E2.36202
G1 X74.618 Y91.276 E2.37543
G1 X74.484 Y90.862 E2.38883
G1 X74.402 Y90.434 E2.40224
G1 X74.375 Y90.000 E2.41565
G1 X74.402 Y89.566 E2.42906
G1 X74.484 Y89.138 E2.44247
G1 X74.618 Y88.724 E2.45587
G1 X74.804 Y88.330 E2.46930
G1 X75.051 Y87.946 E2.48339
G1 X75.314 Y87.628 E2.49609
G1 X75.631 Y87.330 E2.50950
G1 X75.983 Y87.074 E2.52291
G1 X76.364 Y86.864 E2.53632
G1 X76.769 Y86.704 E2.54973
G1 X77.169 Y86.602 E2.56243
G1 X77.622 Y86.542 E2.57652
G1 X78.058 Y86.542 E2.58995
G1 X78.467 Y86.593 E2.60266
G1 X78.910 Y86.704 E2.61674
G1 X79.315 Y86.864 E2.63017
G1 X79.697 Y87.074 E2.64357
G1 X80.049 Y87.330 E2.65698
G1 X80.322 Y87.587 E2.66854
G1 E0.66854 F2400.00000
G92 E0
G1 X69.049 Y90.858 F7800.000
G1 E2.00000 F2400.00000
G1 F1800
G1 X68.511 Y90.858 E2.01656
G1 X68.511 Y90.371 E2.03156
G1 X67.527 Y90.371 E2.06190
G1 X67.834 Y90.802 E2.07822
G1 X67.197 Y90.802 E2.09787
G1 X66.808 Y90.237 E2.11902
G1 X66.808 Y89.796 E2.13261
G1 X68.511 Y89.796 E2.18510
G1 X68.511 Y89.333 E2.19935
G1 X66.808 Y89.333 E2.25183
G1 X66.808 Y88.455 E2.27889
G1 X66.946 Y87.855 E2.29785
G1 X67.411 Y87.630 E2.31377
G1 X67.647 Y87.666 E2.32112
G1 X67.846 Y87.788 E2.32833
G1 X67.910 Y87.693 E2.33186
G1 X68.109 Y87.564 E2.33915
G1 X68.348 Y87.522 E2.34663
G1 X68.645 Y87.583 E2.35598
G1 X68.875 Y87.771 E2.36514
G1 X69.009 Y88.051 E2.37470
G1 X69.049 Y88.383 E2.38498
G1 X69.049 Y90.798 E2.45941
G1 X69.000 Y91.277 F7800.000
G1 F1800
G1 X69.080 Y91.644 E2.47100
G1 X69.000 Y92.011 E2.48257
G1 X68.757 Y92.278 E2.49370
G1 X68.391 Y92.425 E2.50584
G1 X67.928 Y92.471 E2.52018
G1 X67.458 Y92.427 E2.53471
G1 X67.093 Y92.283 E2.54681
G1 X66.853 Y92.013 E2.55794
G1 X66.776 Y91.636 E2.56981
G1 X66.854 Y91.265 E2.58149
G1 X67.096 Y90.998 E2.59258
G1 X67.462 Y90.855 E2.60468
G1 X67.928 Y90.811 E2.61911
G1 X68.390 Y90.858 E2.63341
G1 X68.756 Y91.007 E2.64559
G1 X68.959 Y91.232 E2.65493
G1 E0.65493 F2400.00000
G92 E0
G1 X65.981 Y91.575 F7800.000
G1 E2.00000 F2400.00000
G1 F1800
G1 X65.981 Y92.423 E2.02613
G1 X61.829 Y92.423 E2.15405
G1 X61.829 Y90.450 E2.21487
G1 X61.906 Y89.839 E2.23384
G1 X62.153 Y89.355 E2.25058
G1 X62.560 Y89.045 E2.26632
G1 X63.085 Y88.944 E2.28279
G1 X63.535 Y89.016 E2.29684
G1 X63.913 Y89.232 E2.31026
G1 X64.187 Y89.575 E2.32379
G1 X64.258 Y89.789 E2.33073
G1 X65.981 Y88.654 E2.39429
G1 X65.981 Y89.648 E2.42494
G1 X64.394 Y90.641 E2.48260
G1 X64.394 Y91.575 E2.51139
G1 X65.921 Y91.575 E2.55844
G1 E0.55844 F2400.00000
G92 E0
G1 X65.981 Y88.505 F7800.000
G1 E2.00000 F2400.00000
G1 F1800
G1 X61.829 Y88.505 E2.12792
G1 X61.829 Y86.721 E2.18290
G1 X61.910 Y86.110 E2.20187
G1 X62.168 Y85.625 E2.21879
G1 X62.592 Y85.316 E2.23496
G1 X63.144 Y85.216 E2.25227
G1 X63.697 Y85.316 E2.26957
G1 X64.132 Y85.624 E2.28599
G1 X64.406 Y86.100 E2.30291
G1 X64.492 Y86.687 E2.32119
G1 X64.492 Y87.657 E2.35108
G1 X65.981 Y87.657 E2.39696
G1 X65.981 Y88.445 E2.42124
G1 E0.42124 F2400.00000
G92 E0
G1 X59.616 Y87.141 F7800.000
G1 E2.00000 F2400.00000
G1 F1800
G1 X59.152 Y87.141 E2.01427
G1 X58.883 Y87.002 E2.02362
G1 X58.670 Y86.852 E2.03164
G1 X58.485 Y86.689 E2.03925
G1 X58.320 Y86.519 E2.04655
G1 X57.921 Y86.039 E2.06577
G1 X57.682 Y85.800 E2.07620
G1 X57.573 Y85.725 E2.08024
G1 X57.463 Y85.680 E2.08392
G1 X57.343 Y85.666 E2.08766
G1 X57.191 Y85.691 E2.09238
G1 X57.096 Y85.754 E2.09592
G1 X57.034 Y85.859 E2.09967
G1 X57.009 Y86.022 E2.10475
G1 X57.033 Y86.181 E2.10972
G1 X57.098 Y86.298 E2.11383
G1 X57.199 Y86.378 E2.11779
G1 X57.504 Y86.464 E2.12755
G1 X57.438 Y87.176 E2.14959
G1 X56.904 Y87.015 E2.16679
G1 X56.614 Y86.774 E2.17838
G1 X56.433 Y86.432 E2.19029
G1 X56.375 Y86.022 E2.20305
G1 X56.433 Y85.587 E2.21659
G1 X56.619 Y85.243 E2.22864
G1 X56.928 Y85.025 E2.24030
G1 X57.322 Y84.956 E2.25260
G1 X57.530 Y84.980 E2.25905
G1 X57.727 Y85.048 E2.26548
G1 X57.916 Y85.157 E2.27221
G1 X58.100 Y85.304 E2.27944
G1 X58.320 Y85.534 E2.28928
G1 X58.802 Y86.099 E2.31215
G1 X58.974 Y86.267 E2.31956
G1 X58.974 Y84.913 E2.36128
G1 X59.616 Y84.913 E2.38104
G1 X59.616 Y87.081 E2.44784
G1 E0.44784 F2400.00000
G92 E0
G1 X57.572 Y82.542 F7800.000
G1 E2.00000 F2400.00000
G1 F1800
G1 X57.261 Y82.725 E2.01114
G1 X57.134 Y82.874 E2.01717
G1 X57.053 Y83.070 E2.02371
G1 X57.026 Y83.306 E2.03102
G1 X57.091 Y83.668 E2.04235
G1 X57.277 Y83.925 E2.05212
G1 X57.581 Y84.091 E2.06278
G1 X58.004 Y84.150 E2.07594
G1 X58.426 Y84.088 E2.08908
G1 X58.740 Y83.914 E2.10016
G1 X58.937 Y83.648 E2.11034
G1 X59.003 Y83.302 E2.12119
G1 X58.878 Y82.861 E2.13532
G1 X58.370 Y82.432 E2.15580
G1 X58.670 Y81.833 E2.17643
G1 X59.171 Y82.161 E2.19489
G1 X59.441 Y82.483 E2.20784
G1 X59.604 Y82.873 E2.22087
G1 X59.657 Y83.312 E2.23450
G1 X59.608 Y83.757 E2.24829
G1 X59.456 Y84.146 E2.26114
G1 X59.207 Y84.463 E2.27358
G1 X58.871 Y84.694 E2.28613
G1 X58.466 Y84.832 E2.29931
G1 X58.000 Y84.877 E2.31375
G1 X57.336 Y84.777 E2.33443
G1 X56.813 Y84.463 E2.35322
G1 X56.482 Y83.961 E2.37176
G1 X56.375 Y83.320 E2.39177
G1 X56.424 Y82.856 E2.40615
G1 X56.577 Y82.465 E2.41906
G1 X56.834 Y82.157 E2.43145
G1 X57.343 Y81.851 E2.44975
G1 X57.553 Y82.485 E2.47030
G1 E0.47030 F2400.00000
G92 E0
G1 X61.829 Y81.784 F7800.000
G1 E2.00000 F2400.00000
G1 F1800
G1 X61.829 Y80.840 E2.02908
G1 X65.981 Y80.840 E2.15700
G1 X65.981 Y81.637 E2.18154
G1 X63.548 Y81.637 E2.25652
G1 X65.981 Y82.560 E2.33671
G1 X65.981 Y83.151 E2.35491
G1 X63.523 Y84.095 E2.43606
G1 X65.981 Y84.095 E2.51180
G1 X65.981 Y84.887 E2.53618
G1 X61.829 Y84.887 E2.66410
G1 X61.829 Y83.927 E2.69365
G1 X64.658 Y82.848 E2.78693
G1 X61.885 Y81.805 E2.87820
G1 E0.87820 F2400.00000
G92 E0
G1 X59.616 Y87.378 F7800.000
G1 E2.00000 F2400.00000
G1 F1800
G1 X59.616 Y88.096 E2.02214
G1 X56.419 Y88.096 E2.12062
G1 X56.419 Y87.378 E2.14276
G1 X59.556 Y87.378 E2.23940
G1 E0.23940 F2400.00000
G92 E0
G1 X58.670 Y91.533 F7800.000
G1 E2.00000 F2400.00000
G1 F1800
G1 X59.171 Y91.861 E2.01846
G1 X59.441 Y92.183 E2.03140
G1 X59.604 Y92.573 E2.04444
G1 X59.657 Y93.012 E2.05807
G1 X59.608 Y93.457 E2.07186
G1 X59.456 Y93.846 E2.08471
G1 X59.207 Y94.163 E2.09715
G1 X58.871 Y94.394 E2.10969
G1 X58.466 Y94.532 E2.12288
G1 X58.000 Y94.577 E2.13731
G1 X57.336 Y94.477 E2.15800
G1 X56.813 Y94.163 E2.17679
G1 X56.482 Y93.661 E2.19532
G1 X56.375 Y93.020 E2.21533
G1 X56.424 Y92.556 E2.22972
G1 X56.577 Y92.166 E2.24263
G1 X56.834 Y91.857 E2.25501
G1 X57.343 Y91.551 E2.27331
G1 X57.572 Y92.242 E2.29571
G1 X57.261 Y92.425 E2.30685
G1 X57.134 Y92.574 E2.31289
G1 X57.053 Y92.771 E2.31942
G1 X57.026 Y93.006 E2.32673
G1 X57.091 Y93.368 E2.33807
G1 X57.277 Y93.625 E2.34783
G1 X57.581 Y93.791 E2.35849
G1 X58.004 Y93.850 E2.37166
G1 X58.426 Y93.788 E2.38480
G1 X58.740 Y93.614 E2.39588
G1 X58.937 Y93.348 E2.40605
G1 X59.003 Y93.002 E2.41691
G1 X58.878 Y92.561 E2.43104
G1 X58.370 Y92.132 E2.45152
G1 X58.643 Y91.587 E2.47030
G1 E0.47030 F2400.00000
G92 E0
G1 X58.974 Y94.613 F7800.000
G1 E2.00000 F2400.00000
G1 F1800
G1 X59.616 Y94.613 E2.01976
G1 X59.616 Y96.841 E2.08840
G1 X59.152 Y96.841 E2.10268
G1 X58.883 Y96.702 E2.11202
G1 X58.670 Y96.552 E2.12004
G1 X58.485 Y96.389 E2.12765
G1 X58.320 Y96.219 E2.13495
G1 X57.921 Y95.739 E2.15417
G1 X57.682 Y95.500 E2.16460
G1 X57.573 Y95.425 E2.16864
G1 X57.463 Y95.380 E2.17232
G1 X57.343 Y95.366 E2.17606
G1 X57.191 Y95.391 E2.18079
G1 X57.096 Y95.454 E2.18432
G1 X57.034 Y95.559 E2.18807
G1 X57.009 Y95.722 E2.19315
G1 X57.033 Y95.881 E2.19812
G1 X57.098 Y95.998 E2.20224
G1 X57.199 Y96.078 E2.20620
G1 X57.504 Y96.164 E2.21595
G1 X57.438 Y96.876 E2.23799
G1 X56.904 Y96.715 E2.25519
G1 X56.614 Y96.474 E2.26678
G1 X56.433 Y96.132 E2.27869
G1 X56.375 Y95.722 E2.29145
G1 X56.433 Y95.287 E2.30500
G1 X56.619 Y94.943 E2.31704
G1 X56.928 Y94.725 E2.32870
G1 X57.322 Y94.656 E2.34100
G1 X57.530 Y94.680 E2.34746
G1 X57.727 Y94.748 E2.35389
G1 X57.916 Y94.857 E2.36062
G1 X58.100 Y95.004 E2.36784
G1 X58.320 Y95.234 E2.37768
G1 X58.802 Y95.799 E2.40055
G1 X58.974 Y95.967 E2.40797
G1 X58.974 Y94.673 E2.44784
G1 E0.44784 F2400.00000
G92 E0
G1 X61.829 Y95.911 F7800.000
G1 E2.00000 F2400.00000
G1 F1800
G1 X62.582 Y95.911 E2.02321
G1 X62.582 Y97.224 E2.06365
G1 X65.981 Y97.224 E2.16837
G1 X65.981 Y98.069 E2.19442
G1 X62.582 Y98.069 E2.29913
G1 X62.582 Y99.382 E2.33958
G1 X61.829 Y99.382 E2.36279
G1 X61.829 Y95.971 E2.46789
G1 X61.829 Y95.737 F7800.000
G1 F1800
G1 X61.829 Y92.692 E2.56171
G1 X62.582 Y92.692 E2.58492
G1 X62.582 Y94.889 E2.65261
G1 X63.674 Y94.889 E2.68624
G1 X63.674 Y92.757 E2.75192
G1 X64.432 Y92.757 E2.77529
G1 X64.432 Y94.889 E2.84098
G1 X65.981 Y94.889 E2.88870
G1 X65.981 Y95.737 E2.91483
G1 X61.889 Y95.737 E3.04091
G1 E1.04091 F2400.00000
G92 E0
G1 X59.616 Y97.078 F7800.000
G1 E2.00000 F2400.00000
G1 F1800
G1 X59.616 Y97.797 E2.02214
G1 X56.419 Y97.797 E2.12062
G1 X56.419 Y97.078 E2.14276
G1 X59.556 Y97.078 E2.23940
G1 E0.23940 F2400.00000
G92 E0
G1 X75.897 Y96.991 F7800.000
G1 E2.00000 F2400.00000
G1 F1800
G1 X75.999 Y96.592 E2.01271
G1 X76.093 Y96.393 E2.01947
G1 X76.332 Y96.064 E2.03202
G1 X76.492 Y95.913 E2.03879
G1 X76.836 Y95.695 E2.05133
G1 X77.040 Y95.614 E2.05810
G1 X77.440 Y95.538 E2.07064
G1 X77.660 Y95.538 E2.07741
G1 X78.064 Y95.615 E2.09007
G1 X78.373 Y95.755 E2.10052
G1 X78.609 Y95.915 E2.10933
G1 X78.768 Y96.064 E2.11602
G1 X79.007 Y96.393 E2.12857
G1 X79.101 Y96.592 E2.13533
G1 X79.203 Y96.991 E2.14804
G1 X79.203 Y97.409 E2.16091
G1 X79.101 Y97.808 E2.17362
G1 X79.007 Y98.007 E2.18038
G1 X78.768 Y98.336 E2.19293
G1 X78.608 Y98.487 E2.19969
G1 X78.264 Y98.705 E2.21224
G1 X78.060 Y98.786 E2.21900
G1 X77.660 Y98.862 E2.23155
