; generated by Slic3r 1.3.0 on 2020-12-15 at 19:44:51

; external perimeters extrusion width = 0.44mm (2.86mm^3/s)
; perimeters extrusion width = 0.56mm (4.14mm^3/s)
; infill extrusion width = 0.50mm (3.66mm^3/s)
; solid infill extrusion width = 0.56mm (3.10mm^3/s)
; top infill extrusion width = 0.56mm (3.10mm^3/s)

M107
;D3D:START:START
T0
M104 S215 T0

G21
G90
M107
T0
G28
G29
M109 T0 S215 T0
G0 F3000
M107
T0
G92 E0
G0 X0 Y149 Z0.1 F3600
G1 Y49 E6.5 F1200
G0 Z1
G92 E0
; Filament gcode

G21 ; set units to millimeters
G90 ; use absolute coordinates
M82 ; use absolute distances for extrusion
G92 E0
G1 Z0.300 F7800.000
G1 E-2.00000 F2400.00000
G92 E0
G1 X56.977 Y70.415 F7800.000
G1 E2.00000 F2400.00000
G1 F1800
G1 X60.000 Y68.669 E2.10755
G1 X63.023 Y70.415 E2.21509
G1 X63.023 Y73.905 E2.32263
G1 X60.000 Y75.651 E2.43018
G1 X56.977 Y73.905 E2.53773
G1 X56.977 Y70.475 E2.64342
G1 E0.64342 F2400.00000
G92 E0
G1 X49.416 Y56.000 F7800.000
G1 E2.00000 F2400.00000
G1 F1800
G1 X49.460 Y55.772 E2.00715
G1 X49.497 Y55.678 E2.01026
G1 X49.619 Y55.486 E2.01725
G1 X49.780 Y55.335 E2.02408
G1 X49.974 Y55.228 E2.03091
G1 X50.194 Y55.171 E2.03790
G1 X50.305 Y55.164 E2.04132
G1 X69.737 Y55.167 E2.64001
G1 X70.021 Y55.225 E2.64896
G1 X70.224 Y55.337 E2.65611
G1 X70.302 Y55.401 E2.65921
G1 X70.450 Y55.580 E2.66636
G1 X70.501 Y55.673 E2.66963
G1 X70.540 Y55.772 E2.67289
G1 X70.584 Y56.000 E2.68005
G1 X70.584 Y94.000 E3.85087
G1 X70.540 Y94.228 E3.85802
G1 X70.503 Y94.322 E3.86112
G1 X70.381 Y94.514 E3.86812
G1 X70.220 Y94.665 E3.87495
G1 X70.026 Y94.772 E3.88177
G1 X69.806 Y94.829 E3.88877
G1 X69.695 Y94.836 E3.89219
G1 X50.310 Y94.836 E4.48943
G1 X50.080 Y94.807 E4.49659
G1 X49.874 Y94.725 E4.50342
G1 X49.695 Y94.595 E4.51025
G1 X49.553 Y94.424 E4.51708
G1 X49.459 Y94.223 E4.52391
G1 X49.416 Y94.000 E4.53090
G1 X49.416 Y56.060 E5.69987
G1 X49.725 Y55.757 F7800.000
G1 F1800
G1 X50.041 Y55.448 E5.71351
G1 X50.176 Y55.373 E5.71828
G1 X50.339 Y55.332 E5.72347
G1 X50.531 Y55.327 E5.72940
G1 X49.579 Y56.279 E5.77095
G1 X49.579 Y56.655 E5.78255
G1 X50.907 Y55.327 E5.84050
G1 X51.283 Y55.327 E5.85209
G1 X49.579 Y57.031 E5.92644
G1 X49.579 Y57.407 E5.93804
G1 X51.659 Y55.327 E6.02879
G1 X52.035 Y55.327 E6.04038
G1 X49.579 Y57.783 E6.14753
G1 X49.579 Y58.159 E6.15912
G1 X52.411 Y55.327 E6.28267
G1 X52.787 Y55.327 E6.29426
G1 X49.579 Y58.535 E6.43421
G1 X49.579 Y58.912 E6.44580
G1 X53.163 Y55.327 E6.60215
G1 X53.539 Y55.327 E6.61374
G1 X49.579 Y59.288 E6.78648
G1 X49.579 Y59.664 E6.79808
G1 X53.915 Y55.327 E6.98722
G1 X54.291 Y55.327 E6.99881
G1 X49.579 Y60.040 E7.20435
G1 X49.579 Y60.416 E7.21595
G1 X54.667 Y55.327 E7.43788
G1 X55.043 Y55.327 E7.44948
G1 X49.579 Y60.792 E7.68781
G1 X49.579 Y61.168 E7.69941
G1 X55.419 Y55.327 E7.95414
G1 X55.795 Y55.328 E7.96574
G1 X49.579 Y61.544 E8.23687
G1 X49.579 Y61.920 E8.24847
G1 X56.171 Y55.328 E8.53600
G1 X56.547 Y55.328 E8.54759
G1 X49.579 Y62.296 E8.85152
G1 X49.579 Y62.672 E8.86312
G1 X56.923 Y55.328 E9.18344
G1 X57.299 Y55.328 E9.19504
G1 X49.579 Y63.048 E9.53176
G1 X49.579 Y63.424 E9.54336
G1 X57.675 Y55.328 E9.89648
G1 X58.051 Y55.328 E9.90808
G1 X49.579 Y63.800 E10.27760
G1 X49.579 Y64.176 E10.28920
G1 X58.427 Y55.328 E10.67512
G1 X58.803 Y55.328 E10.68672
G1 X49.579 Y64.552 E11.08903
G1 X49.579 Y64.928 E11.10063
G1 X59.179 Y55.328 E11.51935
G1 X59.555 Y55.328 E11.53095
G1 X49.579 Y65.304 E11.96606
G1 X49.579 Y65.680 E11.97766
G1 X59.931 Y55.328 E12.42917
G1 X60.307 Y55.328 E12.44077
G1 X49.579 Y66.056 E12.90868
G1 X49.579 Y66.432 E12.92028
G1 X60.682 Y55.328 E13.40459
G1 X61.058 Y55.328 E13.41619
G1 X49.579 Y66.808 E13.91690
G1 X49.579 Y67.184 E13.92849
G1 X61.434 Y55.328 E14.44560
G1 X61.810 Y55.328 E14.45720
G1 X49.579 Y67.560 E14.99071
G1 X49.579 Y67.936 E15.00230
G1 X62.186 Y55.329 E15.55221
G1 X62.562 Y55.329 E15.56380
G1 X49.579 Y68.312 E16.13011
G1 X49.579 Y68.688 E16.14171
G1 X62.938 Y55.329 E16.72441
G1 X63.314 Y55.329 E16.73600
G1 X49.579 Y69.064 E17.33511
G1 X49.579 Y69.440 E17.34670
G1 X63.690 Y55.329 E17.96220
G1 X64.066 Y55.329 E17.97380
G1 X49.579 Y69.816 E18.60570
G1 X49.579 Y70.192 E18.61729
G1 X64.442 Y55.329 E19.26559
G1 X64.818 Y55.329 E19.27719
G1 X49.579 Y70.568 E19.94188
G1 X49.579 Y70.944 E19.95348
G1 X65.194 Y55.329 E20.63457
G1 X65.570 Y55.329 E20.64617
G1 X49.579 Y71.320 E21.34366
G1 X49.579 Y71.696 E21.35526
G1 X65.946 Y55.329 E22.06915
G1 X66.322 Y55.329 E22.08074
G1 X49.579 Y72.072 E22.81103
G1 X49.579 Y72.448 E22.82263
G1 X66.698 Y55.329 E23.56932
G1 X67.074 Y55.329 E23.58091
G1 X49.579 Y72.824 E24.34400
G1 X49.579 Y73.200 E24.35560
G1 X67.450 Y55.329 E25.13508
G1 X67.826 Y55.329 E25.14668
G1 X49.579 Y73.576 E25.94256
G1 X49.579 Y73.953 E25.95416
G1 X68.202 Y55.329 E26.76644
G1 X68.578 Y55.330 E26.77804
G1 X49.579 Y74.329 E27.60672
G1 X49.579 Y74.705 E27.61831
G1 X68.954 Y55.330 E28.46339
G1 X69.330 Y55.330 E28.47499
G1 X49.579 Y75.081 E29.33647
G1 X49.579 Y75.457 E29.34806
G1 X69.706 Y55.330 E30.22594
G1 X69.813 Y55.330 E30.22925
G1 X70.035 Y55.376 E30.23625
G1 X49.579 Y75.833 E31.12850
G1 X49.579 Y76.209 E31.14010
G1 X70.255 Y55.533 E32.04192
G1 X70.364 Y55.683 E32.04765
G1 X70.393 Y55.771 E32.05050
G1 X49.579 Y76.585 E32.95834
G1 X49.579 Y76.961 E32.96993
G1 X70.421 Y56.118 E33.87902
G1 X70.421 Y56.494 E33.89062
G1 X49.579 Y77.337 E34.79971
G1 X49.579 Y77.713 E34.81130
G1 X56.608 Y70.683 E35.11791
G1 X56.608 Y70.365 E35.12774
G1 X57.362 Y69.929 E35.15458
G1 X70.421 Y56.870 E35.72418
G1 X70.421 Y57.246 E35.73578
G1 X58.252 Y69.416 E36.26658
G1 X59.141 Y68.902 E36.29826
G1 X70.421 Y57.622 E36.79026
G1 X70.421 Y57.998 E36.80185
G1 X59.933 Y68.487 E37.25933
G1 X60.171 Y68.625 E37.26782
G1 X70.421 Y58.374 E37.71490
G1 X70.421 Y58.750 E37.72650
G1 X60.409 Y68.762 E38.16318
G1 X60.648 Y68.900 E38.17167
G1 X70.421 Y59.126 E38.59796
G1 X70.421 Y59.502 E38.60956
G1 X60.886 Y69.037 E39.02544
G1 X61.125 Y69.175 E39.03393
G1 X70.421 Y59.878 E39.43942
G1 X70.421 Y60.254 E39.45102
G1 X61.363 Y69.313 E39.84611
G1 X61.601 Y69.450 E39.85460
G1 X70.421 Y60.631 E40.23929
G1 X70.421 Y61.007 E40.25089
G1 X61.840 Y69.588 E40.62519
G1 X62.078 Y69.726 E40.63368
G1 X70.421 Y61.383 E40.99757
G1 X70.421 Y61.759 E41.00917
G1 X62.317 Y69.863 E41.36267
G1 X62.555 Y70.001 E41.37116
G1 X70.421 Y62.135 E41.71426
G1 X70.421 Y62.511 E41.72586
G1 X62.793 Y70.138 E42.05856
G1 X63.032 Y70.276 E42.06705
G1 X70.421 Y62.887 E42.38936
G1 X70.421 Y63.263 E42.40096
G1 X63.185 Y70.499 E42.71657
G1 X63.185 Y70.875 E42.72817
G1 X70.421 Y63.639 E43.04378
G1 X70.421 Y64.015 E43.05538
G1 X63.185 Y71.251 E43.37099
G1 X63.185 Y71.627 E43.38259
G1 X70.421 Y64.391 E43.69821
G1 X70.421 Y64.767 E43.70980
G1 X63.185 Y72.003 E44.02542
G1 X63.185 Y72.379 E44.03702
G1 X70.421 Y65.143 E44.35263
G1 X70.421 Y65.519 E44.36423
G1 X63.185 Y72.755 E44.67984
G1 X63.185 Y73.131 E44.69144
G1 X70.421 Y65.895 E45.00705
G1 X70.421 Y66.271 E45.01865
G1 X63.185 Y73.507 E45.33427
G1 X63.185 Y73.883 E45.34586
G1 X70.421 Y66.647 E45.66148
G1 X70.421 Y67.023 E45.67307
G1 X49.579 Y87.865 E46.58216
G1 X49.579 Y88.241 E46.59376
G1 X70.421 Y67.399 E47.50285
G1 X70.421 Y67.775 E47.51444
G1 X49.579 Y88.618 E48.42353
G1 X49.579 Y88.994 E48.43513
G1 X70.421 Y68.151 E49.34422
G1 X70.421 Y68.527 E49.35581
G1 X49.579 Y89.370 E50.26490
G1 X49.579 Y89.746 E50.27650
G1 X70.421 Y68.903 E51.18559
G1 X70.421 Y69.279 E51.19718
G1 X49.579 Y90.122 E52.10627
G1 X49.579 Y90.498 E52.11787
G1 X70.421 Y69.655 E53.02696
G1 X70.421 Y70.031 E53.03855
G1 X49.579 Y90.874 E53.94764
G1 X49.579 Y91.250 E53.95924
G1 X70.421 Y70.407 E54.86832
G1 X70.421 Y70.783 E54.87992
G1 X49.579 Y91.626 E55.78901
G1 X49.579 Y92.002 E55.80061
G1 X70.421 Y71.159 E56.70969
G1 X70.421 Y71.535 E56.72129
G1 X49.579 Y92.378 E57.63038
G1 X49.579 Y92.754 E57.64198
G1 X70.421 Y71.911 E58.55106
G1 X70.421 Y72.287 E58.56266
G1 X49.579 Y93.130 E59.47175
G1 X49.579 Y93.506 E59.48335
G1 X70.421 Y72.663 E60.39243
G1 X70.421 Y73.039 E60.40403
G1 X49.579 Y93.882 E61.31312
G1 X49.579 Y94.079 E61.31918
G1 X49.607 Y94.229 E61.32391
G1 X70.421 Y73.415 E62.23175
G1 X70.421 Y73.791 E62.24335
G1 X49.745 Y94.467 E63.14517
G1 X49.900 Y94.594 E63.15132
G1 X49.968 Y94.621 E63.15358
G1 X70.421 Y74.167 E64.04569
G1 X70.421 Y74.543 E64.05729
G1 X50.291 Y94.673 E64.93530
G1 X50.667 Y94.673 E64.94689
G1 X70.421 Y74.919 E65.80850
G1 X70.421 Y75.295 E65.82009
G1 X51.043 Y94.673 E66.66530
G1 X51.419 Y94.673 E66.67689
G1 X70.421 Y75.672 E67.50569
G1 X70.421 Y76.048 E67.51729
G1 X51.795 Y94.673 E68.32969
G1 X52.171 Y94.673 E68.34129
G1 X70.421 Y76.424 E69.13729
G1 X70.421 Y76.800 E69.14889
G1 X52.548 Y94.673 E69.92848
G1 X52.924 Y94.673 E69.94008
G1 X70.421 Y77.176 E70.70328
G1 X70.421 Y77.552 E70.71488
G1 X53.300 Y94.673 E71.46167
G1 X53.676 Y94.673 E71.47327
G1 X70.421 Y77.928 E72.20366
G1 X70.421 Y78.304 E72.21526
G1 X54.052 Y94.673 E72.92926
G1 X54.428 Y94.673 E72.94085
G1 X70.421 Y78.680 E73.63845
G1 X70.421 Y79.056 E73.65004
G1 X54.804 Y94.673 E74.33123
G1 X55.180 Y94.673 E74.34283
G1 X70.421 Y79.432 E75.00762
G1 X70.421 Y79.808 E75.01922
G1 X55.556 Y94.673 E75.66761
G1 X55.932 Y94.673 E75.67921
G1 X70.421 Y80.184 E76.31119
G1 X70.421 Y80.560 E76.32279
G1 X56.308 Y94.673 E76.93838
G1 X56.684 Y94.673 E76.94998
G1 X70.421 Y80.936 E77.54916
G1 X70.421 Y81.312 E77.56076
G1 X57.060 Y94.673 E78.14355
G1 X57.436 Y94.673 E78.15514
G1 X70.421 Y81.688 E78.72153
G1 X70.421 Y82.064 E78.73312
G1 X57.812 Y94.673 E79.28311
G1 X58.188 Y94.673 E79.29471
G1 X70.421 Y82.440 E79.82829
G1 X70.421 Y82.816 E79.83988
G1 X58.564 Y94.673 E80.35707
G1 X58.940 Y94.673 E80.36866
G1 X70.421 Y83.192 E80.86944
G1 X70.421 Y83.568 E80.88104
G1 X59.316 Y94.673 E81.36542
G1 X59.692 Y94.673 E81.37702
G1 X70.421 Y83.944 E81.84499
G1 X70.421 Y84.320 E81.85659
G1 X60.068 Y94.673 E82.30817
G1 X60.444 Y94.673 E82.31977
G1 X70.421 Y84.696 E82.75494
G1 X70.421 Y85.072 E82.76654
G1 X60.820 Y94.673 E83.18531
G1 X61.196 Y94.673 E83.19691
G1 X70.421 Y85.448 E83.59928
G1 X70.421 Y85.824 E83.61088
G1 X61.572 Y94.673 E83.99685
G1 X61.948 Y94.673 E84.00845
G1 X70.421 Y86.200 E84.37802
G1 X70.421 Y86.576 E84.38962
G1 X62.324 Y94.673 E84.74279
G1 X62.700 Y94.673 E84.75439
G1 X70.421 Y86.952 E85.09116
G1 X70.421 Y87.328 E85.10275
G1 X63.076 Y94.673 E85.42312
G1 X63.452 Y94.673 E85.43472
G1 X70.421 Y87.704 E85.73869
G1 X70.421 Y88.080 E85.75028
G1 X63.828 Y94.673 E86.03785
G1 X64.204 Y94.673 E86.04945
G1 X70.421 Y88.456 E86.32061
G1 X70.421 Y88.832 E86.33221
G1 X64.580 Y94.673 E86.58697
G1 X64.956 Y94.673 E86.59857
G1 X70.421 Y89.208 E86.83693
G1 X70.421 Y89.584 E86.84853
G1 X65.332 Y94.673 E87.07049
G1 X65.708 Y94.673 E87.08209
G1 X70.421 Y89.960 E87.28765
G1 X70.421 Y90.336 E87.29925
G1 X66.084 Y94.673 E87.48841
G1 X66.460 Y94.673 E87.50000
G1 X70.421 Y90.713 E87.67276
G1 X70.421 Y91.089 E87.68436
G1 X66.836 Y94.673 E87.84072
G1 X67.212 Y94.673 E87.85231
G1 X70.421 Y91.465 E87.99227
G1 X70.421 Y91.841 E88.00387
G1 X67.589 Y94.673 E88.12742
G1 X67.965 Y94.673 E88.13902
G1 X70.421 Y92.217 E88.24617
G1 X70.421 Y92.593 E88.25777
G1 X68.341 Y94.673 E88.34852
G1 X68.717 Y94.673 E88.36012
G1 X70.421 Y92.969 E88.43447
G1 X70.421 Y93.345 E88.44607
G1 X69.093 Y94.673 E88.50402
G1 X69.469 Y94.673 E88.51562
G1 X70.421 Y93.721 E88.55717
G1 X70.421 Y93.872 E88.56183
G1 X70.369 Y94.098 E88.56898
G1 X70.279 Y94.239 E88.57416
G1 X70.069 Y94.449 E88.58328
G1 E86.58328 F2400.00000
G92 E0
G1 X49.579 Y87.489 F7800.000
G1 E2.00000 F2400.00000
G1 F1800
G1 X62.732 Y74.336 E2.57370
G1 X61.842 Y74.850 E2.60538
G1 X49.579 Y87.113 E3.14027
G1 X49.579 Y86.737 E3.15187
G1 X60.952 Y75.364 E3.64796
G1 X60.092 Y75.848 E3.67840
G1 X49.579 Y86.361 E4.13697
G1 X49.579 Y85.985 E4.14857
G1 X59.854 Y75.710 E4.59675
G1 X59.616 Y75.572 E4.60524
G1 X49.579 Y85.609 E5.04302
G1 X49.579 Y85.233 E5.05462
G1 X59.377 Y75.435 E5.48200
G1 X59.139 Y75.297 E5.49049
G1 X49.579 Y84.857 E5.90747
G1 X49.579 Y84.481 E5.91907
G1 X58.900 Y75.159 E6.32566
G1 X58.662 Y75.022 E6.33415
G1 X49.579 Y84.105 E6.73034
G1 X49.579 Y83.729 E6.74193
G1 X58.424 Y74.884 E7.12772
G1 X58.185 Y74.747 E7.13621
G1 X49.579 Y83.353 E7.51161
G1 X49.579 Y82.977 E7.52320
G1 X57.947 Y74.609 E7.88820
G1 X57.709 Y74.471 E7.89669
G1 X49.579 Y82.601 E8.25129
G1 X49.579 Y82.225 E8.26288
G1 X57.470 Y74.334 E8.60708
G1 X57.232 Y74.196 E8.61557
G1 X49.579 Y81.849 E8.94938
G1 X49.579 Y81.473 E8.96097
G1 X56.993 Y74.058 E9.28438
G1 X56.815 Y73.955 E9.29074
G1 X56.815 Y73.861 E9.29365
G1 X49.579 Y81.097 E9.60926
G1 X49.579 Y80.721 E9.62086
G1 X56.815 Y73.485 E9.93648
G1 X56.815 Y73.109 E9.94807
G1 X49.579 Y80.345 E10.26369
G1 X49.579 Y79.969 E10.27529
G1 X56.815 Y72.733 E10.59090
G1 X56.815 Y72.357 E10.60250
G1 X49.579 Y79.593 E10.91811
G1 X49.579 Y79.217 E10.92971
G1 X56.815 Y71.981 E11.24533
G1 X56.815 Y71.605 E11.25693
G1 X49.579 Y78.841 E11.57254
G1 X49.579 Y78.465 E11.58414
G1 X56.815 Y71.229 E11.89975
G1 X56.815 Y70.853 E11.91135
G1 X49.579 Y78.089 E12.22697
G1 X49.579 Y77.713 E12.23856
G1 E10.23856 F2400.00000
G92 E0
G1 X85.903 Y64.851 F7800.000
G1 E2.00000 F2400.00000
G1 F1800
G1 X86.000 Y64.788 E2.00355
G1 X86.306 Y64.768 E2.01299
G1 X86.306 Y65.178 E2.02560
G1 X85.993 Y65.159 E2.03527
G1 X85.910 Y65.117 E2.03813
G1 X85.874 Y65.030 E2.04100
G1 X85.880 Y64.906 E2.04484
G1 E0.04484 F2400.00000
G92 E0
G1 X89.749 Y64.925 F7800.000
G1 E2.00000 F2400.00000
G1 F1800
G1 X89.682 Y64.702 E2.00719
G1 X89.682 Y64.393 E2.01670
G1 X89.707 Y64.273 E2.02049
G1 X89.804 Y64.088 E2.02693
G1 X89.952 Y63.980 E2.03256
G1 X90.053 Y63.951 E2.03578
G1 X90.450 Y63.941 E2.04803
G1 X90.450 Y65.155 E2.08543
G1 X90.053 Y65.144 E2.09768
G1 X89.871 Y65.070 E2.10371
G1 X89.783 Y64.975 E2.10772
G1 X90.081 Y64.989 F7800.000
G1 F1800
G1 X90.288 Y64.782 E2.11722
G1 X90.288 Y64.385 E2.13011
G1 X89.859 Y64.814 E2.14984
G1 X89.844 Y64.524 E2.15928
G1 X89.907 Y64.369 E2.16473
G1 X90.115 Y64.162 E2.17426
G1 E0.17426 F2400.00000
G92 E0
G1 X94.613 Y90.384 F7800.000
G1 E2.00000 F2400.00000
G1 F1800
G1 X96.841 Y90.384 E2.06865
G1 X96.841 Y90.848 E2.08292
G1 X96.702 Y91.117 E2.09226
G1 X96.551 Y91.333 E2.10038
G1 X96.222 Y91.678 E2.11506
G1 X95.609 Y92.199 E2.13984
G1 X95.423 Y92.432 E2.14904
G1 X95.380 Y92.537 E2.15253
G1 X95.366 Y92.657 E2.15627
G1 X95.391 Y92.809 E2.16100
G1 X95.454 Y92.904 E2.16453
G1 X95.559 Y92.966 E2.16828
G1 X95.722 Y92.991 E2.17336
G1 X95.881 Y92.967 E2.17833
G1 X95.998 Y92.902 E2.18245
G1 X96.078 Y92.801 E2.18641
G1 X96.164 Y92.496 E2.19616
G1 X96.876 Y92.562 E2.21820
G1 X96.715 Y93.096 E2.23540
G1 X96.474 Y93.386 E2.24699
G1 X96.132 Y93.567 E2.25890
G1 X95.722 Y93.625 E2.27166
G1 X95.287 Y93.567 E2.28521
G1 X94.943 Y93.381 E2.29725
G1 X94.725 Y93.072 E2.30891
G1 X94.656 Y92.678 E2.32121
G1 X94.680 Y92.470 E2.32767
G1 X94.748 Y92.273 E2.33410
G1 X94.857 Y92.084 E2.34083
G1 X95.004 Y91.900 E2.34805
G1 X95.234 Y91.680 E2.35789
G1 X95.799 Y91.198 E2.38076
G1 X95.967 Y91.026 E2.38818
G1 X94.613 Y91.026 E2.42990
G1 X94.613 Y90.444 E2.44781
G1 E0.44781 F2400.00000
G92 E0
G1 X92.132 Y91.630 F7800.000
G1 E2.00000 F2400.00000
G1 F1800
G1 X91.533 Y91.330 E2.02063
G1 X91.861 Y90.829 E2.03909
G1 X92.183 Y90.559 E2.05203
G1 X92.573 Y90.396 E2.06507
G1 X93.012 Y90.343 E2.07870
G1 X93.457 Y90.392 E2.09249
G1 X93.846 Y90.544 E2.10534
G1 X94.163 Y90.793 E2.11778
G1 X94.394 Y91.129 E2.13032
G1 X94.532 Y91.534 E2.14351
G1 X94.577 Y92.000 E2.15794
G1 X94.477 Y92.664 E2.17863
G1 X94.163 Y93.187 E2.19742
G1 X93.661 Y93.518 E2.21595
G1 X93.020 Y93.625 E2.23596
G1 X92.556 Y93.575 E2.25035
G1 X92.166 Y93.423 E2.26326
G1 X91.857 Y93.166 E2.27564
G1 X91.551 Y92.657 E2.29394
G1 X92.242 Y92.428 E2.31634
G1 X92.425 Y92.739 E2.32748
G1 X92.574 Y92.866 E2.33352
G1 X92.771 Y92.947 E2.34005
G1 X93.006 Y92.974 E2.34736
G1 X93.368 Y92.909 E2.35870
G1 X93.625 Y92.723 E2.36846
G1 X93.791 Y92.419 E2.37912
G1 X93.850 Y91.996 E2.39229
G1 X93.788 Y91.574 E2.40543
G1 X93.614 Y91.260 E2.41651
G1 X93.348 Y91.063 E2.42668
G1 X93.002 Y90.997 E2.43754
G1 X92.561 Y91.122 E2.45167
G1 X92.171 Y91.584 E2.47030
G1 E0.47030 F2400.00000
G92 E0
G1 X97.078 Y90.384 F7800.000
G1 E2.00000 F2400.00000
G1 F1800
