; generated by Slic3r 1.3.0 on 2020-12-10 at 20:43:50

; external perimeters extrusion width = 0.44mm (2.86mm^3/s)
; perimeters extrusion width = 0.56mm (4.14mm^3/s)
; infill extrusion width = 0.50mm (3.66mm^3/s)
; solid infill extrusion width = 0.56mm (3.10mm^3/s)
; top infill extrusion width = 0.56mm (3.10mm^3/s)

M107
;D3D:START:START
T0
M104 S215 T0

G21
G90
M107
T0
G28
G29
M109 T0 S215 T0
G0 F3000
M107
T0
G92 E0
G0 X0 Y149 Z0.1 F3600
G1 Y49 E6.5 F1200
G0 Z1
G92 E0
; Filament gcode

G21 ; set units to millimeters
G90 ; use absolute coordinates
M82 ; use absolute distances for extrusion
G92 E0
G1 Z0.300 F7800.000
G1 E-2.00000 F2400.00000
G92 E0
G1 X85.714 Y80.381 F7800.000
G1 E2.00000 F2400.00000
G1 F1800
G1 X87.144 Y81.489 E2.05992
G1 X88.191 Y81.674 E2.09514
G1 X88.191 Y83.958 E2.17080
G1 X87.261 Y83.795 E2.20206
G1 X87.261 Y84.602 E2.22880
G1 X88.191 Y84.765 E2.26005
G1 X88.191 Y85.979 E2.30028
G1 X87.393 Y86.393 E2.33004
G1 X87.393 Y86.526 E2.33446
G1 X88.191 Y86.526 E2.36087
G1 X88.191 Y88.964 E2.44162
G1 X87.611 Y88.964 E2.46083
G1 X87.574 Y89.073 E2.46463
G1 X87.858 Y89.287 E2.47642
G1 X88.040 Y89.534 E2.48659
G1 X88.110 Y89.689 E2.49222
G1 X88.182 Y89.997 E2.50268
G1 X88.191 Y91.807 E2.56267
G1 X87.268 Y92.422 E2.59940
G1 X87.303 Y92.536 E2.60331
G1 X88.191 Y92.536 E2.63273
G1 X88.191 Y93.258 E2.65667
G1 X87.551 Y93.258 E2.67786
G1 X87.525 Y93.386 E2.68217
G1 X87.753 Y93.482 E2.69037
G1 X87.923 Y93.601 E2.69724
G1 X88.061 Y93.756 E2.70413
G1 X88.159 Y93.943 E2.71113
G1 X88.216 Y94.156 E2.71841
G1 X88.234 Y94.391 E2.72622
G1 X88.216 Y94.626 E2.73403
G1 X88.159 Y94.838 E2.74132
G1 X88.061 Y95.025 E2.74831
G1 X87.923 Y95.181 E2.75520
G1 X87.753 Y95.299 E2.76208
G1 X87.525 Y95.396 E2.77027
G1 X87.551 Y95.524 E2.77459
G1 X88.191 Y95.524 E2.79578
G1 X88.191 Y96.246 E2.81972
G1 X87.261 Y96.246 E2.85050
G1 X87.261 Y96.898 E2.87208
G1 X88.191 Y96.898 E2.90286
G1 X88.191 Y97.620 E2.92680
G1 X86.424 Y97.620 E2.98532
G1 X86.424 Y98.118 E3.00180
G1 X88.191 Y98.118 E3.06032
G1 X88.191 Y98.840 E3.08426
G1 X86.424 Y98.840 E3.14278
G1 X86.424 Y99.447 E3.16290
G1 X85.714 Y99.447 E3.18643
G1 X85.714 Y96.898 E3.27089
G1 X86.563 Y96.898 E3.29904
G1 X86.563 Y96.246 E3.32062
G1 X85.714 Y96.246 E3.34876
G1 X85.714 Y94.723 E3.39924
G1 X86.996 Y94.723 E3.44170
G1 X87.334 Y94.686 E3.45299
G1 X87.418 Y94.650 E3.45600
G1 X87.473 Y94.600 E3.45848
G1 X87.510 Y94.521 E3.46134
G1 X87.525 Y94.391 E3.46570
G1 X87.510 Y94.260 E3.47006
G1 X87.473 Y94.182 E3.47292
G1 X87.418 Y94.131 E3.47540
G1 X87.334 Y94.095 E3.47841
G1 X86.996 Y94.059 E3.48970
G1 X85.714 Y94.059 E3.53216
G1 X85.714 Y92.618 E3.57991
G1 X86.545 Y92.068 E3.61292
G1 X86.511 Y91.955 E3.61685
G1 X85.714 Y91.955 E3.64326
G1 X85.722 Y89.997 E3.70813
G1 X85.794 Y89.689 E3.71859
G1 X85.864 Y89.534 E3.72422
G1 X86.046 Y89.287 E3.73440
G1 X86.330 Y89.073 E3.74618
G1 X86.294 Y88.964 E3.74998
G1 X85.714 Y88.964 E3.76919
G1 X85.724 Y86.111 E3.86371
G1 X85.820 Y85.794 E3.87466
G1 X85.916 Y85.650 E3.88039
G1 X86.037 Y85.537 E3.88589
G1 X86.183 Y85.455 E3.89143
G1 X86.348 Y85.409 E3.89712
G1 X86.532 Y85.394 E3.90322
G1 X86.776 Y85.422 E3.91137
G1 X86.986 Y85.514 E3.91895
G1 X87.193 Y85.700 E3.92818
G1 X87.577 Y85.494 E3.94262
G1 X87.559 Y85.382 E3.94638
G1 X85.714 Y85.057 E4.00845
G1 X85.714 Y82.011 E4.10937
G1 X86.404 Y81.730 E4.13405
G1 X85.714 Y81.218 E4.16252
G1 X85.714 Y80.441 E4.18825
G1 X85.530 Y81.208 F7800.000
G1 F1800
G1 X85.530 Y81.935 E4.21235
G1 X83.053 Y81.500 E4.29567
G1 X83.053 Y80.772 E4.31977
G1 X85.471 Y81.197 E4.40110
G1 X85.530 Y82.762 F7800.000
G1 F1800
G1 X85.530 Y83.490 E4.42521
G1 X83.053 Y83.055 E4.50852
G1 X83.053 Y82.327 E4.53262
G1 X85.471 Y82.752 E4.61395
G1 X85.530 Y84.300 F7800.000
G1 F1800
G1 X85.530 Y85.028 E4.63805
G1 X83.053 Y84.593 E4.72136
G1 X83.053 Y83.865 E4.74547
G1 X85.471 Y84.290 E4.82679
G1 E2.82679 F2400.00000
G92 E0
G1 X88.370 Y83.980 F7800.000
G1 E2.00000 F2400.00000
G1 F1800
G1 X88.370 Y83.252 E2.02411
G1 X90.847 Y83.688 E2.10742
G1 X90.847 Y84.415 E2.13152
G1 X88.429 Y83.990 E2.21285
G1 X88.370 Y84.791 F7800.000
G1 F1800
G1 X90.847 Y85.226 E2.29616
G1 X90.847 Y85.953 E2.32026
G1 X88.370 Y85.518 E2.40357
G1 X88.370 Y84.851 E2.42569
G1 E0.42569 F2400.00000
G92 E0
G1 X88.370 Y82.427 F7800.000
G1 E2.00000 F2400.00000
G1 F1800
G1 X88.370 Y81.700 E2.02411
G1 X90.847 Y82.135 E2.10742
G1 X90.847 Y82.863 E2.13152
G1 X88.429 Y82.438 E2.21285
G1 E0.21285 F2400.00000
G92 E0
G1 X80.444 Y87.963 F7800.000
G1 E2.00000 F2400.00000
G1 F1800
G1 X80.677 Y88.331 E2.01442
G1 X80.862 Y88.724 E2.02883
G1 X80.996 Y89.138 E2.04325
G1 X81.078 Y89.566 E2.05767
G1 X81.105 Y90.000 E2.07209
G1 X81.078 Y90.434 E2.08650
G1 X80.996 Y90.862 E2.10092
G1 X80.862 Y91.276 E2.11534
G1 X80.677 Y91.669 E2.12976
G1 X80.444 Y92.037 E2.14417
G1 X80.166 Y92.372 E2.15859
G1 X79.849 Y92.670 E2.17301
G1 X79.497 Y92.926 E2.18743
G1 X79.115 Y93.135 E2.20184
G1 X78.711 Y93.296 E2.21626
G1 X78.289 Y93.404 E2.23067
G1 X77.858 Y93.458 E2.24509
G1 X77.422 Y93.458 E2.25951
G1 X76.991 Y93.404 E2.27393
G1 X76.569 Y93.296 E2.28835
G1 X76.165 Y93.135 E2.30276
G1 X75.783 Y92.926 E2.31718
G1 X75.431 Y92.670 E2.33160
G1 X75.114 Y92.372 E2.34601
G1 X74.836 Y92.037 E2.36043
G1 X74.603 Y91.669 E2.37485
G1 X74.418 Y91.276 E2.38927
G1 X74.284 Y90.862 E2.40368
G1 X74.202 Y90.434 E2.41810
G1 X74.175 Y90.000 E2.43252
G1 X74.202 Y89.566 E2.44694
G1 X74.284 Y89.138 E2.46135
G1 X74.418 Y88.724 E2.47577
G1 X74.603 Y88.331 E2.49019
G1 X74.836 Y87.963 E2.50460
G1 X75.114 Y87.628 E2.51902
G1 X75.431 Y87.330 E2.53344
G1 X75.783 Y87.074 E2.54786
G1 X76.165 Y86.864 E2.56227
G1 X76.569 Y86.704 E2.57669
G1 X76.970 Y86.601 E2.59040
G1 X77.422 Y86.542 E2.60550
G1 X77.858 Y86.542 E2.61994
G1 X78.289 Y86.596 E2.63436
G1 X78.711 Y86.704 E2.64877
G1 X79.115 Y86.864 E2.66319
G1 X79.497 Y87.074 E2.67761
G1 X79.849 Y87.330 E2.69202
G1 X80.166 Y87.628 E2.70644
G1 X80.405 Y87.917 E2.71887
G1 E0.71887 F2400.00000
G92 E0
G1 X78.064 Y95.615 F7800.000
G1 E2.00000 F2400.00000
G1 F1800
G1 X78.373 Y95.755 E2.01124
G1 X78.609 Y95.915 E2.02070
G1 X78.768 Y96.064 E2.02790
G1 X79.007 Y96.393 E2.04139
G1 X79.101 Y96.592 E2.04866
G1 X79.203 Y96.991 E2.06233
G1 X79.203 Y97.409 E2.07617
G1 X79.101 Y97.808 E2.08983
G1 X79.007 Y98.007 E2.09710
G1 X78.768 Y98.336 E2.11059
G1 X78.608 Y98.487 E2.11787
G1 X78.264 Y98.705 E2.13136
G1 X78.060 Y98.786 E2.13863
G1 X77.660 Y98.862 E2.15212
G1 X77.440 Y98.862 E2.15940
G1 X77.035 Y98.785 E2.17306
G1 X76.662 Y98.609 E2.18672
G1 X76.489 Y98.483 E2.19382
G1 X76.332 Y98.336 E2.20093
G1 X76.093 Y98.007 E2.21442
G1 X75.999 Y97.808 E2.22169
G1 X75.897 Y97.409 E2.23536
G1 X75.897 Y96.991 E2.24919
G1 X75.999 Y96.592 E2.26286
G1 X76.093 Y96.393 E2.27013
G1 X76.332 Y96.064 E2.28362
G1 X76.492 Y95.913 E2.29090
G1 X76.836 Y95.695 E2.30439
G1 X77.040 Y95.614 E2.31166
G1 X77.440 Y95.538 E2.32515
G1 X77.660 Y95.538 E2.33243
G1 X78.005 Y95.604 E2.34406
G1 E0.34406 F2400.00000
G92 E0
G1 X67.049 Y90.858 F7800.000
G1 E2.00000 F2400.00000
G1 F1800
G1 X66.731 Y90.858 E2.01054
G1 X66.705 Y90.987 E2.01488
G1 X66.756 Y91.007 E2.01669
G1 X67.000 Y91.277 E2.02873
G1 X67.080 Y91.644 E2.04119
G1 X67.000 Y92.011 E2.05364
G1 X66.757 Y92.278 E2.06561
G1 X66.391 Y92.425 E2.07866
G1 X65.928 Y92.471 E2.09407
G1 X65.458 Y92.427 E2.10970
G1 X65.093 Y92.283 E2.12271
G1 X64.853 Y92.013 E2.13468
G1 X64.776 Y91.636 E2.14744
G1 X64.854 Y91.265 E2.16000
G1 X65.096 Y90.998 E2.17193
G1 X65.265 Y90.932 E2.17792
G1 X65.240 Y90.802 E2.18230
G1 X65.197 Y90.802 E2.18375
G1 X64.808 Y90.237 E2.20648
G1 X64.808 Y89.796 E2.22110
G1 X66.511 Y89.796 E2.27753
G1 X66.511 Y89.333 E2.29286
G1 X64.808 Y89.333 E2.34929
G1 X64.808 Y88.455 E2.37838
G1 X64.946 Y87.855 E2.39878
G1 X65.411 Y87.630 E2.41589
G1 X65.647 Y87.666 E2.42379
G1 X65.852 Y87.780 E2.43158
G1 X65.911 Y87.693 E2.43503
G1 X66.109 Y87.564 E2.44287
G1 X66.348 Y87.522 E2.45091
G1 X66.645 Y87.583 E2.46097
G1 X66.875 Y87.771 E2.47082
G1 X67.009 Y88.051 E2.48109
G1 X67.049 Y88.383 E2.49215
G1 X67.049 Y90.798 E2.57218
G1 E0.57218 F2400.00000
G92 E0
G1 X63.981 Y91.575 F7800.000
G1 E2.00000 F2400.00000
G1 F1800
G1 X63.981 Y92.423 E2.02810
G1 X59.829 Y92.423 E2.16565
G1 X59.829 Y90.450 E2.23104
G1 X59.906 Y89.839 E2.25144
G1 X60.153 Y89.355 E2.26944
G1 X60.560 Y89.045 E2.28636
G1 X61.085 Y88.944 E2.30408
G1 X61.535 Y89.016 E2.31919
G1 X61.913 Y89.232 E2.33361
G1 X62.187 Y89.575 E2.34816
G1 X62.258 Y89.789 E2.35562
G1 X63.981 Y88.654 E2.42397
G1 X63.981 Y89.648 E2.45692
G1 X62.394 Y90.641 E2.51893
G1 X62.394 Y91.575 E2.54989
G1 X63.921 Y91.575 E2.60047
G1 E0.60047 F2400.00000
G92 E0
G1 X63.981 Y88.505 F7800.000
G1 E2.00000 F2400.00000
G1 F1800
G1 X59.829 Y88.505 E2.13755
G1 X59.829 Y86.721 E2.19666
G1 X59.910 Y86.110 E2.21707
G1 X60.168 Y85.625 E2.23526
G1 X60.592 Y85.316 E2.25265
G1 X61.144 Y85.216 E2.27126
G1 X61.697 Y85.316 E2.28986
G1 X62.132 Y85.624 E2.30751
G1 X62.406 Y86.100 E2.32571
G1 X62.492 Y86.687 E2.34537
G1 X62.492 Y87.657 E2.37751
G1 X63.981 Y87.657 E2.42684
G1 X63.981 Y88.445 E2.45295
G1 E0.45295 F2400.00000
G92 E0
G1 X63.981 Y84.887 F7800.000
G1 E2.00000 F2400.00000
G1 F1800
G1 X59.829 Y84.887 E2.13755
G1 X59.829 Y83.927 E2.16933
G1 X62.649 Y82.845 E2.26939
G1 X59.829 Y81.784 E2.36920
G1 X59.829 Y80.840 E2.40047
G1 X63.981 Y80.840 E2.53802
G1 X63.981 Y81.637 E2.56441
G1 X61.916 Y81.637 E2.63282
G1 X61.892 Y81.768 E2.63722
G1 X63.981 Y82.560 E2.71124
G1 X63.981 Y83.151 E2.73081
G1 X61.862 Y83.965 E2.80604
G1 X61.886 Y84.095 E2.81043
G1 X63.981 Y84.095 E2.87984
G1 X63.981 Y84.827 E2.90407
G1 E0.90407 F2400.00000
G92 E0
G1 X62.432 Y92.757 F7800.000
G1 E2.00000 F2400.00000
G1 F1800
G1 X62.432 Y94.889 E2.07063
G1 X63.981 Y94.889 E2.12194
G1 X63.981 Y95.737 E2.15004
G1 X59.829 Y95.737 E2.28759
G1 X59.829 Y92.692 E2.38848
G1 X60.583 Y92.692 E2.41343
G1 X60.583 Y94.889 E2.48622
G1 X61.674 Y94.889 E2.52237
G1 X61.674 Y92.757 E2.59301
G1 X62.372 Y92.757 E2.61615
G1 E0.61615 F2400.00000
G92 E0
G1 X60.583 Y95.911 F7800.000
G1 E2.00000 F2400.00000
G1 F1800
G1 X60.583 Y97.224 E2.04349
G1 X63.981 Y97.224 E2.15609
G1 X63.981 Y98.069 E2.18410
G1 X60.583 Y98.069 E2.29670
G1 X60.583 Y99.382 E2.34019
G1 X59.829 Y99.382 E2.36515
G1 X59.829 Y95.911 E2.48014
G1 X60.523 Y95.911 E2.50311
G1 E0.50311 F2400.00000
G92 E0
G1 X56.000 Y100.584 F7800.000
G1 E2.00000 F2400.00000
G1 F1800
G1 X55.777 Y100.541 E2.00752
G1 X55.576 Y100.447 E2.01486
G1 X55.405 Y100.305 E2.02221
G1 X55.275 Y100.126 E2.02955
G1 X55.193 Y99.920 E2.03689
G1 X55.164 Y99.690 E2.04458
G1 X55.164 Y80.310 E2.68661
G1 X55.193 Y80.080 E2.69430
G1 X55.275 Y79.874 E2.70164
G1 X55.408 Y79.690 E2.70916
G1 X55.482 Y79.621 E2.71250
G1 X55.673 Y79.500 E2.72001
G1 X55.889 Y79.430 E2.72753
G1 X55.994 Y79.416 E2.73104
G1 X94.075 Y79.427 E3.99264
G1 X94.334 Y79.503 E4.00156
G1 X94.420 Y79.550 E4.00482
G1 X94.596 Y79.695 E4.01238
G1 X94.704 Y79.841 E4.01839
G1 X94.806 Y80.075 E4.02685
G1 X94.836 Y80.310 E4.03471
G1 X94.836 Y99.695 E4.67691
G1 X94.829 Y99.806 E4.68059
G1 X94.772 Y100.026 E4.68811
G1 X94.665 Y100.220 E4.69545
G1 X94.514 Y100.381 E4.70279
G1 X94.322 Y100.503 E4.71031
G1 X94.228 Y100.540 E4.71365
G1 X94.000 Y100.584 E4.72134
G1 X56.060 Y100.584 E5.97830
G1 E3.97830 F2400.00000
G92 E0
G1 X85.909 Y82.830 F7800.000
G1 E2.00000 F2400.00000
G1 F1800
G1 X85.896 Y82.711 E2.00395
G1 X87.094 Y82.207 E2.04703
G1 X87.480 Y82.275 E2.06000
G1 X87.480 Y83.105 E2.08753
G1 X85.968 Y82.840 E2.13839
G1 E0.13839 F2400.00000
G92 E0
G1 X87.261 Y87.478 F7800.000
G1 E2.00000 F2400.00000
G1 F1800
G1 X86.424 Y87.478 E2.02774
G1 X86.424 Y87.249 E2.03532
G1 X87.480 Y87.249 E2.07031
G1 X87.480 Y88.232 E2.10288
G1 X87.261 Y88.232 E2.11013
G1 X87.261 Y87.538 E2.13314
G1 X87.270 Y88.991 F7800.000
G1 F1800
G1 X87.256 Y88.968 E2.13403
G1 X86.896 Y88.955 E2.14639
G1 X86.649 Y88.969 E2.15487
G1 X86.627 Y89.005 E2.15632
G1 F1800
G1 X86.536 Y89.168 E2.16122
G1 X87.270 Y88.991 F7800.000
G1 F1800
G1 X87.368 Y89.170 E2.16623
G1 E0.16623 F2400.00000
G92 E0
G1 X88.026 Y91.183 F7800.000
G1 E2.00000 F2400.00000
G1 F1800
G1 X85.879 Y91.183 E2.09741
G1 E0.09741 F2400.00000
G92 E0
G1 X85.879 Y93.297 F7800.000
G1 E2.00000 F2400.00000
G1 F1800
G1 X87.373 Y93.305 E2.06647
G1 E0.06647 F2400.00000
G92 E0
G1 X87.373 Y95.477 F7800.000
G1 E2.00000 F2400.00000
G1 F1800
G1 X85.879 Y95.484 E2.06645
G1 E0.06645 F2400.00000
G92 E0
G1 X66.511 Y90.371 F7800.000
G1 E2.00000 F2400.00000
G1 F1800
G1 X66.511 Y90.907 E2.01776
G1 X66.390 Y90.858 E2.02209
G1 X65.928 Y90.811 E2.03747
G1 X65.846 Y90.819 E2.04020
G1 X65.527 Y90.371 E2.05843
G1 X66.451 Y90.371 E2.08906
G1 E0.08906 F2400.00000
G92 E0
G1 X61.712 Y84.060 F7800.000
G1 E2.00000 F2400.00000
G1 F1800
G1 X61.415 Y84.116 E2.01031
G1 F1800
G1 X61.049 Y84.180 E2.01981
G1 F1800
G1 X60.851 Y84.213 E2.02273
G1 E0.02273 F2400.00000
G92 E0
G1 X61.425 Y81.615 F7800.000
G1 E2.00000 F2400.00000
G1 F1800
G1 X61.056 Y81.550 E2.00935
G1 F1800
G1 X60.867 Y81.518 E2.01203
G1 X61.425 Y81.615 F7800.000
G1 F1800
G1 X61.742 Y81.673 E2.02310
G1 E0.02310 F2400.00000
G92 E0
G1 X76.644 Y96.702 F7800.000
G1 E2.00000 F2400.00000
G1 F1800
G1 X76.800 Y96.488 E2.00876
G1 X76.890 Y96.403 E2.01289
G1 X76.991 Y96.329 E2.01702
G1 X77.231 Y96.217 E2.02578
G1 X77.487 Y96.168 E2.03444
G1 X77.662 Y96.174 E2.04022
G1 X77.868 Y96.216 E2.04721
G1 X78.104 Y96.327 E2.05583
G1 X78.308 Y96.496 E2.06459
G1 X78.387 Y96.592 E2.06872
G1 X78.454 Y96.697 E2.07286
G1 X78.551 Y96.943 E2.08161
G1 X78.584 Y97.205 E2.09037
G1 X78.576 Y97.330 E2.09450
G1 X78.553 Y97.452 E2.09864
G1 X78.456 Y97.698 E2.10739
G1 X78.300 Y97.912 E2.11615
G1 X78.210 Y97.997 E2.12028
G1 X78.109 Y98.071 E2.12442
G1 X77.869 Y98.183 E2.13317
G1 X77.610 Y98.233 E2.14193
G1 X77.490 Y98.233 E2.14589
G1 X77.225 Y98.182 E2.15482
G1 X77.109 Y98.136 E2.15895
G1 X77.000 Y98.076 E2.16309
G1 X76.796 Y97.908 E2.17184
G1 X76.644 Y97.698 E2.18043
G1 X76.549 Y97.457 E2.18901
G1 X76.516 Y97.195 E2.19777
G1 X76.524 Y97.070 E2.20190
G1 X76.547 Y96.948 E2.20604
G1 X76.622 Y96.758 E2.21281
G1 E0.21281 F2400.00000
G92 E0
G1 X66.516 Y91.741 F7800.000
G1 E2.00000 F2400.00000
G1 F1800
G1 X66.439 Y91.811 E2.00347
G1 X66.249 Y91.870 E2.01004
G1 X65.927 Y91.893 E2.02074
G1 X65.598 Y91.870 E2.03169
G1 X65.411 Y91.813 E2.03816
G1 X65.337 Y91.744 E2.04151
G1 X65.312 Y91.637 E2.04514
G1 X65.337 Y91.536 E2.04860
G1 X65.411 Y91.468 E2.05192
G1 X65.600 Y91.413 E2.05845
G1 X65.927 Y91.391 E2.06930
G1 X66.244 Y91.414 E2.07983
G1 X66.436 Y91.473 E2.08648
G1 X66.516 Y91.544 E2.09005
G1 X66.541 Y91.642 E2.09339
G1 X66.531 Y91.683 E2.09478
G1 E0.09478 F2400.00000
G92 E0
G1 X61.655 Y91.575 F7800.000
G1 E2.00000 F2400.00000
G1 F1800
G1 X60.574 Y91.575 E2.03580
G1 X60.574 Y90.521 E2.07072
G1 X60.614 Y90.182 E2.08204
G1 X60.717 Y89.965 E2.09000
G1 X60.870 Y89.844 E2.09646
G1 X61.094 Y89.800 E2.10402
G1 X61.332 Y89.844 E2.11205
G1 X61.501 Y89.967 E2.11896
G1 X61.612 Y90.178 E2.12685
G1 X61.655 Y90.501 E2.13764
G1 X61.655 Y91.515 E2.17126
G1 E0.17126 F2400.00000
G92 E0
G1 X86.397 Y90.412 F7800.000
G1 E2.00000 F2400.00000
G1 F1800
G1 X86.405 Y90.046 E2.01211
G1 X86.430 Y89.959 E2.01511
G1 X86.528 Y89.825 E2.02062
G1 X86.603 Y89.774 E2.02363
G1 X86.811 Y89.711 E2.03082
G1 X87.003 Y89.706 E2.03717
G1 X87.212 Y89.737 E2.04417
G1 X87.377 Y89.825 E2.05036
G1 X87.475 Y89.959 E2.05586
G1 X87.500 Y90.046 E2.05887
G1 X87.507 Y90.412 E2.07098
G1 X86.457 Y90.412 E2.10577
G1 E0.10577 F2400.00000
G92 E0
G1 X66.511 Y88.744 F7800.000
G1 E2.00000 F2400.00000
G1 F1800
G1 X66.152 Y88.744 E2.01189
G1 X66.152 Y88.446 E2.02178
G1 X66.214 Y88.186 E2.03062
G1 X66.348 Y88.123 E2.03552
G1 X66.411 Y88.134 E2.03766
G1 X66.456 Y88.168 E2.03952
G1 X66.493 Y88.246 E2.04238
G1 X66.511 Y88.684 E2.05691
G1 X65.620 Y88.744 F7800.000
G1 F1800
G1 X65.345 Y88.744 E2.06601
G1 X65.359 Y88.335 E2.07958
G1 X65.394 Y88.244 E2.08279
G1 X65.469 Y88.229 E2.08533
G1 X65.539 Y88.242 E2.08769
G1 X65.574 Y88.269 E2.08915
G1 X65.604 Y88.337 E2.09160
G1 X65.620 Y88.684 E2.10312
G1 E0.10312 F2400.00000
G92 E0
G1 X61.753 Y87.657 F7800.000
G1 E2.00000 F2400.00000
G1 F1800
G1 X60.574 Y87.657 E2.03903
G1 X60.574 Y86.817 E2.06688
