; generated by Slic3r 1.3.1-dev (Build adea0d9) on 2020-01-31 at 10:58:31

; external perimeters extrusion width = 0.44mm (2.86mm^3/s)
; perimeters extrusion width = 0.56mm (4.14mm^3/s)
; infill extrusion width = 0.50mm (3.66mm^3/s)
; solid infill extrusion width = 0.56mm (3.10mm^3/s)
; top infill extrusion width = 0.56mm (3.10mm^3/s)

M107
G92 E0
;D3D:START:START
T0
M104 S215 T0

G21
G90
M107
T0
G28
G29
M109 T0 S215 T0
G0 F3000
M107
T0
G92 E0
G0 X0 Y149 Z0.1 F3600
G1 Y49 E6.5 F1200
G0 Z1
G92 E0
; Filament gcode

G21 ; set units to millimeters
G90 ; use absolute coordinates
M82 ; use absolute distances for extrusion
G92 E0
G1 Z0.300 F7800.000
G1 E-2.00000 F2400.00000
G92 E0
G1 X90.706 Y80.109 F7800.000
G1 E2.00000 F2400.00000
G1 F1800.000
G1 X93.284 Y81.118 E2.09173
G1 X93.515 Y81.245 E2.10046
G1 X93.685 Y81.381 E2.10768
G1 X93.813 Y81.541 E2.11446
G1 X93.891 Y81.726 E2.12112
G1 X93.917 Y81.927 E2.12784
G1 X93.881 Y82.331 E2.14128
G1 X93.296 Y82.331 E2.16065
G1 X93.316 Y82.035 E2.17050
G1 X93.230 Y81.834 E2.17774
G1 X92.913 Y81.643 E2.19001
G1 X91.430 Y82.238 E2.24294
G1 X91.455 Y82.367 E2.24730
G1 X93.084 Y82.367 E2.30126
G1 X93.084 Y83.040 E2.32356
G1 X91.977 Y83.040 E2.36023
G1 X91.977 Y84.610 E2.41222
G1 X93.084 Y84.610 E2.44890
G1 X93.084 Y85.304 E2.47189
G1 X91.326 Y85.304 E2.53013
G1 X91.289 Y85.660 E2.54199
G1 X91.317 Y85.775 E2.54592
G1 X91.398 Y85.855 E2.54969
G1 X91.569 Y85.919 E2.55574
G1 X91.844 Y85.944 E2.56490
G1 X93.084 Y85.944 E2.60596
G1 X93.084 Y86.616 E2.62823
G1 X92.420 Y86.620 E2.65021
G1 X93.009 Y87.104 E2.67546
G1 X93.151 Y87.729 E2.69668
G1 X93.070 Y88.201 E2.71257
G1 X92.817 Y88.558 E2.72705
G1 X92.447 Y88.750 E2.74086
G1 X92.477 Y88.872 E2.74500
G1 X93.084 Y88.853 E2.76511
G1 X93.084 Y89.507 E2.78678
G1 X93.026 Y89.512 E2.78871
G1 X93.123 Y89.774 E2.79796
G1 X93.149 Y90.032 E2.80657
G1 X93.070 Y90.438 E2.82026
G1 X92.815 Y90.737 E2.83327
G1 X92.544 Y90.848 E2.84299
G1 X92.569 Y90.977 E2.84733
G1 X93.084 Y90.977 E2.86438
G1 X93.084 Y91.652 E2.88674
G1 X91.443 Y91.661 E2.94109
G1 X91.343 Y91.683 E2.94451
G1 X91.267 Y91.739 E2.94761
G1 X91.238 Y91.903 E2.95313
G1 X91.269 Y92.065 E2.95859
G1 X91.352 Y92.174 E2.96314
G1 X91.497 Y92.251 E2.96856
G1 X91.727 Y92.281 E2.97624
G1 X93.084 Y92.281 E3.02120
G1 X93.084 Y93.740 E3.06955
G1 X93.020 Y93.744 E3.07167
G1 X93.123 Y94.015 E3.08124
G1 X93.149 Y94.268 E3.08967
G1 X93.099 Y94.616 E3.10133
G1 X92.930 Y94.887 E3.11191
G1 X92.638 Y95.039 E3.12282
G1 X92.534 Y95.052 E3.12629
G1 X92.543 Y95.202 E3.13127
G1 X93.084 Y95.202 E3.14920
G1 X93.084 Y95.877 E3.17156
G1 X91.435 Y95.886 E3.22617
G1 X91.295 Y95.933 E3.23109
G1 X91.247 Y96.027 E3.23459
G1 X91.238 Y96.128 E3.23795
G1 X91.269 Y96.286 E3.24329
G1 X91.352 Y96.398 E3.24789
G1 X91.492 Y96.475 E3.25320
G1 X91.707 Y96.506 E3.26037
G1 X93.084 Y96.506 E3.30600
G1 X93.084 Y97.179 E3.32830
G1 X90.693 Y97.179 E3.40751
G1 X90.693 Y98.067 E3.43694
G1 X93.084 Y98.067 E3.51615
G1 X93.084 Y98.760 E3.53911
G1 X90.693 Y98.760 E3.61833
G1 X90.693 Y99.682 E3.64887
G1 X90.066 Y99.682 E3.66964
G1 X90.066 Y97.179 E3.75258
G1 X89.938 Y97.179 E3.75682
G1 X89.938 Y96.503 E3.77919
G1 X90.764 Y96.515 E3.80657
G1 X90.669 Y96.279 E3.81500
G1 X90.641 Y96.018 E3.82370
G1 X90.690 Y95.671 E3.83530
G1 X90.858 Y95.401 E3.84583
G1 X91.149 Y95.246 E3.85675
G1 X91.257 Y95.233 E3.86035
G1 X91.248 Y95.083 E3.86533
G1 X90.706 Y95.083 E3.88329
G1 X90.706 Y94.408 E3.90566
G1 X92.346 Y94.399 E3.96001
G1 X92.447 Y94.377 E3.96343
G1 X92.522 Y94.322 E3.96652
G1 X92.551 Y94.157 E3.97206
G1 X92.520 Y93.996 E3.97750
G1 X92.438 Y93.887 E3.98202
G1 X92.293 Y93.811 E3.98746
G1 X92.063 Y93.780 E3.99514
G1 X90.706 Y93.780 E4.04010
G1 X90.706 Y92.320 E4.08850
G1 X90.770 Y92.316 E4.09064
G1 X90.667 Y92.046 E4.10019
G1 X90.641 Y91.793 E4.10864
G1 X90.691 Y91.444 E4.12031
G1 X90.861 Y91.175 E4.13086
G1 X91.151 Y91.021 E4.14175
G1 X91.456 Y90.985 E4.15192
G1 X91.464 Y90.851 E4.15636
G1 X90.967 Y90.737 E4.17324
G1 X90.638 Y90.054 E4.19835
G1 X90.667 Y89.772 E4.20775
G1 X90.752 Y89.545 E4.21578
G1 X89.938 Y89.548 E4.24276
G1 X89.938 Y88.875 E4.26507
G1 X91.310 Y88.873 E4.31051
G1 X91.340 Y88.753 E4.31464
G1 X90.973 Y88.558 E4.32838
G1 X90.720 Y88.206 E4.34275
G1 X90.636 Y87.728 E4.35881
G1 X90.963 Y86.927 E4.38748
G1 X91.562 Y86.764 E4.40805
G1 X91.543 Y86.625 E4.41269
G1 X90.706 Y86.630 E4.44043
G1 X90.706 Y85.912 E4.46421
G1 X90.672 Y85.854 E4.46644
G1 X90.640 Y85.628 E4.47401
G1 X90.685 Y85.304 E4.48485
G1 X90.066 Y85.304 E4.50535
G1 X90.066 Y83.040 E4.58033
G1 X89.938 Y83.040 E4.58457
G1 X89.938 Y82.367 E4.60687
G1 X90.706 Y82.367 E4.63231
G1 X90.706 Y81.805 E4.65093
G1 X92.036 Y81.294 E4.69814
G1 X90.706 Y80.830 E4.74482
G1 X90.706 Y80.169 E4.76671
G1 E2.76671 F2400.00000
G92 E0
G1 X64.256 Y80.565 F7800.000
G1 E2.00000 F2400.00000
G1 F1800.000
G1 X64.256 Y81.893 E2.04400
G1 X63.367 Y81.893 E2.07346
G1 X63.343 Y82.024 E2.07786
G1 X64.256 Y82.369 E2.11020
G1 X64.256 Y83.328 E2.14196
G1 X63.293 Y83.697 E2.17611
G1 X63.317 Y83.827 E2.18050
G1 X64.256 Y83.827 E2.21159
G1 X64.256 Y85.150 E2.25543
G1 X62.114 Y85.150 E2.32639
G1 X62.078 Y85.261 E2.33025
G1 X62.322 Y85.434 E2.34016
G1 X62.650 Y86.006 E2.36199
G1 X62.747 Y86.663 E2.38401
G1 X62.747 Y87.389 E2.40805
G1 X64.256 Y87.389 E2.45804
G1 X64.256 Y89.786 E2.53745
G1 X62.683 Y90.781 E2.59911
G1 X62.683 Y91.307 E2.61654
G1 X64.256 Y91.307 E2.66866
G1 X64.256 Y92.688 E2.71438
G1 X62.702 Y92.688 E2.76587
G1 X62.702 Y94.622 E2.82995
G1 X64.256 Y94.622 E2.88143
G1 X64.256 Y96.002 E2.92715
G1 X60.840 Y96.002 E3.04033
G1 X60.840 Y96.954 E3.07187
G1 X64.256 Y96.954 E3.18504
G1 X64.256 Y98.332 E3.23070
G1 X60.840 Y98.332 E3.34387
G1 X60.840 Y99.648 E3.38747
G1 X59.554 Y99.648 E3.43005
G1 X59.554 Y90.426 E3.73557
G1 X59.641 Y89.751 E3.75814
G1 X59.940 Y89.170 E3.77979
G1 X60.328 Y88.878 E3.79585
G1 X60.291 Y88.770 E3.79965
G1 X59.554 Y88.770 E3.82407
G1 X59.554 Y86.699 E3.89267
G1 X59.643 Y86.022 E3.91527
G1 X59.952 Y85.441 E3.93708
G1 X60.199 Y85.260 E3.94721
G1 X60.163 Y85.150 E3.95103
G1 X59.554 Y85.150 E3.97118
G1 X59.554 Y83.741 E4.01786
G1 X61.905 Y82.842 E4.10124
G1 X59.554 Y81.960 E4.18442
G1 X59.554 Y80.565 E4.23063
G1 X64.196 Y80.565 E4.38439
G1 E2.38439 F2400.00000
G92 E0
G1 X60.574 Y95.905 F7800.000
G1 E2.00000 F2400.00000
G1 F1800.000
G1 X60.574 Y97.220 E2.04357
G1 X63.990 Y97.220 E2.15674
G1 X63.990 Y98.067 E2.18480
G1 X60.574 Y98.067 E2.29797
G1 X60.574 Y99.383 E2.34156
G1 X59.820 Y99.383 E2.36654
G1 X59.820 Y95.905 E2.48177
G1 X60.514 Y95.905 E2.50476
G1 X59.820 Y95.736 F7800.000
G1 F1800.000
G1 X59.820 Y92.685 E2.60584
G1 X60.574 Y92.685 E2.63082
G1 X60.574 Y94.887 E2.70377
G1 X61.676 Y94.887 E2.74028
G1 X61.676 Y92.750 E2.81108
G1 X62.436 Y92.750 E2.83626
G1 X62.436 Y94.887 E2.90705
G1 X63.990 Y94.887 E2.95854
G1 X63.990 Y95.736 E2.98666
G1 X59.880 Y95.736 E3.12283
G1 E1.12283 F2400.00000
G92 E0
G1 X59.820 Y92.422 F7800.000
G1 E2.00000 F2400.00000
G1 F1800.000
G1 X59.820 Y90.443 E2.06555
G1 X59.898 Y89.831 E2.08601
G1 X60.149 Y89.346 E2.10409
G1 X60.560 Y89.036 E2.12115
G1 X61.091 Y88.935 E2.13907
G1 X61.547 Y89.007 E2.15435
G1 X61.930 Y89.224 E2.16892
G1 X62.208 Y89.567 E2.18357
G1 X62.280 Y89.782 E2.19107
G1 X63.990 Y88.643 E2.25915
G1 X63.990 Y89.640 E2.29218
G1 X62.417 Y90.635 E2.35384
G1 X62.417 Y91.573 E2.38492
G1 X63.990 Y91.573 E2.43704
G1 X63.990 Y92.422 E2.46516
G1 X59.880 Y92.422 E2.60133
G1 E0.60133 F2400.00000
G92 E0
G1 X59.820 Y88.504 F7800.000
G1 E2.00000 F2400.00000
G1 F1800.000
G1 X59.820 Y86.716 E2.05923
G1 X59.901 Y86.105 E2.07966
G1 X60.158 Y85.619 E2.09787
G1 X60.582 Y85.309 E2.11526
G1 X61.134 Y85.208 E2.13387
G1 X61.686 Y85.309 E2.15246
G1 X62.121 Y85.617 E2.17012
G1 X62.395 Y86.094 E2.18835
G1 X62.481 Y86.683 E2.20805
G1 X62.481 Y87.655 E2.24025
G1 X63.990 Y87.655 E2.29024
G1 X63.990 Y88.504 E2.31837
G1 X59.880 Y88.504 E2.45453
G1 E0.45453 F2400.00000
G92 E0
G1 X59.820 Y84.885 F7800.000
G1 E2.00000 F2400.00000
G1 F1800.000
G1 X59.820 Y83.924 E2.03182
G1 X62.655 Y82.840 E2.13237
G1 X59.820 Y81.776 E2.23267
G1 X59.820 Y80.831 E2.26399
G1 X63.990 Y80.831 E2.40214
G1 X63.990 Y81.628 E2.42855
G1 X61.912 Y81.628 E2.49738
G1 X61.888 Y81.759 E2.50178
G1 X63.990 Y82.553 E2.57621
G1 X63.990 Y83.145 E2.59584
G1 X61.858 Y83.962 E2.67149
G1 X61.882 Y84.093 E2.67588
G1 X63.990 Y84.093 E2.74572
G1 X63.990 Y84.885 E2.77196
G1 X59.880 Y84.885 E2.90812
G1 E0.90812 F2400.00000
G92 E0
G1 X64.715 Y87.681 F7800.000
G1 E2.00000 F2400.00000
G1 F1800.000
G1 X65.375 Y87.371 E2.02416
G1 X65.737 Y87.424 E2.03630
G1 X65.811 Y87.464 E2.03906
G1 X66.020 Y87.328 E2.04732
G1 X66.361 Y87.268 E2.05879
G1 X66.769 Y87.351 E2.07260
G1 X67.095 Y87.618 E2.08653
G1 X67.272 Y87.988 E2.10014
G1 X67.318 Y88.376 E2.11309
G1 X67.318 Y91.125 E2.20416
G1 X67.215 Y91.125 E2.20757
G1 X67.328 Y91.652 E2.22541
G1 X67.223 Y92.140 E2.24194
G1 X66.897 Y92.503 E2.25812
G1 X66.446 Y92.687 E2.27425
G1 X65.928 Y92.738 E2.29148
G1 X65.405 Y92.689 E2.30890
G1 X64.952 Y92.508 E2.32505
G1 X64.628 Y92.139 E2.34133
G1 X64.528 Y91.642 E2.35812
G1 X64.630 Y91.151 E2.37474
G1 X64.885 Y90.868 E2.38736
G1 X64.537 Y90.318 E2.40892
G1 X64.537 Y88.432 E2.47140
G1 X64.701 Y87.739 E2.49497
G1 X64.944 Y87.867 F7800.000
G1 F1800.000
G1 X65.415 Y87.646 E2.51224
G1 X65.653 Y87.680 E2.52020
G1 X65.865 Y87.794 E2.52815
G1 X65.922 Y87.708 E2.53157
G1 X66.119 Y87.580 E2.53935
G1 X66.357 Y87.538 E2.54735
G1 X66.652 Y87.599 E2.55731
G1 X66.881 Y87.786 E2.56711
G1 X67.013 Y88.063 E2.57731
G1 X67.052 Y88.392 E2.58827
G1 X67.052 Y90.860 E2.67003
G1 X66.689 Y90.860 E2.68207
G1 X66.663 Y90.988 E2.68640
G1 X66.740 Y91.020 E2.68914
G1 X66.978 Y91.287 E2.70102
G1 X67.056 Y91.652 E2.71336
G1 X66.978 Y92.015 E2.72566
G1 X66.740 Y92.280 E2.73748
G1 X66.381 Y92.426 E2.75031
G1 X65.928 Y92.471 E2.76541
G1 X65.468 Y92.428 E2.78071
G1 X65.110 Y92.285 E2.79349
G1 X64.874 Y92.017 E2.80531
G1 X64.799 Y91.643 E2.81795
G1 X64.876 Y91.275 E2.83039
G1 X65.114 Y91.011 E2.84218
G1 X65.306 Y90.934 E2.84903
G1 X65.281 Y90.805 E2.85340
G1 X65.160 Y90.805 E2.85741
G1 X64.802 Y90.241 E2.87954
G1 X64.802 Y89.805 E2.89397
G1 X66.516 Y89.805 E2.95076
G1 X66.516 Y89.335 E2.96632
G1 X64.802 Y89.335 E3.02311
G1 X64.802 Y88.463 E3.05200
G1 X64.930 Y87.925 E3.07030
G1 E1.07030 F2400.00000
G92 E0
G1 X64.271 Y90.090 F7800.000
G1 E2.00000 F2400.00000
G1 F1800.000
G1 X64.271 Y90.395 E2.01008
G1 X64.553 Y90.840 E2.02753
G1 X64.372 Y91.042 E2.03652
G1 X62.983 Y91.042 E2.08254
G1 X62.949 Y90.927 E2.08651
G1 X64.221 Y90.122 E2.13634
G1 E0.13634 F2400.00000
G92 E0
G1 X75.634 Y96.121 F7800.000
G1 E2.00000 F2400.00000
G1 F1800.000
G1 X75.932 Y95.711 E2.01682
G1 X76.165 Y95.492 E2.02742
G1 X76.594 Y95.220 E2.04423
G1 X76.891 Y95.102 E2.05484
G1 X77.390 Y95.007 E2.07166
G1 X77.710 Y95.007 E2.08226
G1 X78.230 Y95.106 E2.09981
G1 X78.710 Y95.332 E2.11736
G1 X78.951 Y95.507 E2.12723
G1 X79.168 Y95.711 E2.13710
G1 X79.466 Y96.121 E2.15392
G1 X79.603 Y96.411 E2.16452
G1 X79.734 Y96.924 E2.18207
G1 X79.734 Y97.476 E2.20036
G1 X79.603 Y97.989 E2.21791
G1 X79.466 Y98.279 E2.22851
G1 X79.168 Y98.689 E2.24533
G1 X78.935 Y98.908 E2.25593
G1 X78.506 Y99.180 E2.27275
G1 X78.209 Y99.298 E2.28335
G1 X77.710 Y99.393 E2.30017
G1 X77.390 Y99.393 E2.31077
G1 X76.870 Y99.294 E2.32832
G1 X76.390 Y99.068 E2.34587
G1 X76.149 Y98.893 E2.35574
G1 X75.932 Y98.689 E2.36562
G1 X75.634 Y98.279 E2.38243
G1 X75.497 Y97.989 E2.39303
G1 X75.366 Y97.476 E2.41059
G1 X75.366 Y96.924 E2.42887
G1 X75.497 Y96.411 E2.44642
G1 X75.608 Y96.176 E2.45503
G1 X75.863 Y96.257 F7800.000
G1 F1800.000
G1 X76.132 Y95.887 E2.47019
G1 X76.329 Y95.702 E2.47913
G1 X76.715 Y95.457 E2.49428
G1 X76.966 Y95.358 E2.50322
G1 X77.415 Y95.272 E2.51837
G1 X77.685 Y95.272 E2.52731
G1 X78.148 Y95.361 E2.54292
G1 X78.574 Y95.561 E2.55852
G1 X78.781 Y95.712 E2.56701
G1 X78.968 Y95.887 E2.57550
G1 X79.237 Y96.257 E2.59065
G1 X79.352 Y96.501 E2.59959
G1 X79.469 Y96.958 E2.61520
G1 X79.469 Y97.442 E2.63126
G1 X79.352 Y97.899 E2.64687
G1 X79.237 Y98.143 E2.65580
G1 X78.968 Y98.513 E2.67096
G1 X78.771 Y98.698 E2.67990
G1 X78.385 Y98.943 E2.69505
G1 X78.134 Y99.042 E2.70399
G1 X77.685 Y99.128 E2.71914
G1 X77.415 Y99.128 E2.72808
G1 X76.952 Y99.039 E2.74368
G1 X76.526 Y98.839 E2.75929
G1 X76.319 Y98.688 E2.76778
G1 X76.132 Y98.513 E2.77627
G1 X75.863 Y98.143 E2.79142
G1 X75.748 Y97.899 E2.80036
G1 X75.631 Y97.442 E2.81597
G1 X75.631 Y96.958 E2.83203
G1 X75.748 Y96.501 E2.84764
G1 X75.838 Y96.312 E2.85458
G1 X76.093 Y96.393 F7800.000
G1 F1800.000
G1 X76.332 Y96.064 E2.86808
G1 X76.492 Y95.913 E2.87535
G1 X76.836 Y95.695 E2.88884
G1 X77.040 Y95.614 E2.89612
G1 X77.440 Y95.538 E2.90960
G1 X77.660 Y95.538 E2.91688
G1 X78.065 Y95.615 E2.93054
G1 X78.438 Y95.791 E2.94421
G1 X78.611 Y95.917 E2.95131
G1 X78.768 Y96.064 E2.95841
G1 X79.007 Y96.393 E2.97190
G1 X79.101 Y96.592 E2.97917
G1 X79.203 Y96.991 E2.99284
G1 X79.203 Y97.409 E3.00668
G1 X79.101 Y97.808 E3.02034
G1 X79.007 Y98.007 E3.02761
G1 X78.768 Y98.336 E3.04110
G1 X78.608 Y98.487 E3.04838
G1 X78.264 Y98.705 E3.06187
G1 X78.060 Y98.786 E3.06914
G1 X77.660 Y98.862 E3.08263
G1 X77.440 Y98.862 E3.08991
G1 X77.035 Y98.785 E3.10357
G1 X76.662 Y98.609 E3.11723
G1 X76.489 Y98.483 E3.12433
G1 X76.332 Y98.336 E3.13144
G1 X76.093 Y98.007 E3.14493
G1 X75.999 Y97.808 E3.15220
G1 X75.897 Y97.409 E3.16587
G1 X75.897 Y96.991 E3.17970
G1 X75.999 Y96.592 E3.19337
G1 X76.067 Y96.447 E3.19865
G1 E1.19865 F2400.00000
G92 E0
G1 X76.919 Y93.629 F7800.000
G1 E2.00000 F2400.00000
G1 F1800.000
G1 X76.494 Y93.516 E2.01456
G1 X76.066 Y93.346 E2.02984
G1 X75.659 Y93.122 E2.04522
G1 X75.283 Y92.849 E2.06061
G1 X74.945 Y92.531 E2.07599
G1 X74.649 Y92.173 E2.09137
G1 X74.400 Y91.781 E2.10676
G1 X74.202 Y91.361 E2.12214
G1 X74.058 Y90.920 E2.13753
G1 X73.972 Y90.463 E2.15291
G1 X73.942 Y90.000 E2.16829
G1 X73.972 Y89.537 E2.18368
G1 X74.058 Y89.080 E2.19906
G1 X74.202 Y88.639 E2.21445
G1 X74.400 Y88.219 E2.22983
G1 X74.649 Y87.827 E2.24521
G1 X74.945 Y87.469 E2.26060
G1 X75.283 Y87.151 E2.27598
G1 X75.659 Y86.878 E2.29136
G1 X76.066 Y86.654 E2.30675
G1 X76.497 Y86.483 E2.32213
G1 X76.947 Y86.368 E2.33752
G1 X77.408 Y86.310 E2.35290
G1 X77.872 Y86.310 E2.36828
G1 X78.333 Y86.368 E2.38366
G1 X78.783 Y86.483 E2.39905
G1 X79.214 Y86.654 E2.41443
G1 X79.621 Y86.878 E2.42982
G1 X79.997 Y87.151 E2.44520
G1 X80.335 Y87.469 E2.46058
G1 X80.631 Y87.827 E2.47597
G1 X80.880 Y88.219 E2.49135
G1 X81.078 Y88.639 E2.50673
G1 X81.222 Y89.080 E2.52212
G1 X81.308 Y89.537 E2.53750
G1 X81.338 Y90.000 E2.55289
G1 X81.308 Y90.463 E2.56827
G1 X81.222 Y90.920 E2.58365
G1 X81.078 Y91.361 E2.59904
G1 X80.880 Y91.781 E2.61442
G1 X80.631 Y92.173 E2.62981
G1 X80.335 Y92.531 E2.64519
G1 X79.997 Y92.849 E2.66057
G1 X79.621 Y93.122 E2.67595
G1 X79.214 Y93.346 E2.69134
G1 X78.783 Y93.517 E2.70672
G1 X78.333 Y93.632 E2.72211
G1 X77.872 Y93.690 E2.73749
G1 X77.408 Y93.690 E2.75288
G1 X76.979 Y93.636 E2.76721
G1 X76.970 Y93.367 F7800.000
G1 F1800.000
G1 X76.578 Y93.263 E2.78066
G1 X76.179 Y93.105 E2.79487
G1 X75.801 Y92.897 E2.80915
G1 X75.453 Y92.644 E2.82343
G1 X75.139 Y92.349 E2.83770
G1 X74.864 Y92.017 E2.85198
G1 X74.633 Y91.653 E2.86625
G1 X74.450 Y91.263 E2.88053
G1 X74.316 Y90.853 E2.89481
G1 X74.236 Y90.430 E2.90908
G1 X74.209 Y90.000 E2.92336
G1 X74.236 Y89.570 E2.93763
G1 X74.316 Y89.147 E2.95191
G1 X74.450 Y88.737 E2.96619
G1 X74.633 Y88.347 E2.98046
G1 X74.864 Y87.983 E2.99474
G1 X75.139 Y87.651 E3.00902
G1 X75.453 Y87.356 E3.02329
G1 X75.801 Y87.103 E3.03757
G1 X76.179 Y86.895 E3.05185
G1 X76.580 Y86.736 E3.06612
G1 X76.997 Y86.629 E3.08040
G1 X77.425 Y86.575 E3.09467
G1 X77.855 Y86.575 E3.10895
G1 X78.283 Y86.629 E3.12323
G1 X78.700 Y86.736 E3.13751
G1 X79.101 Y86.895 E3.15178
G1 X79.479 Y87.103 E3.16606
G1 X79.827 Y87.356 E3.18034
G1 X80.141 Y87.651 E3.19461
G1 X80.416 Y87.983 E3.20889
G1 X80.647 Y88.347 E3.22316
G1 X80.830 Y88.737 E3.23744
G1 X80.964 Y89.147 E3.25172
G1 X81.044 Y89.570 E3.26599
G1 X81.071 Y90.000 E3.28027
G1 X81.044 Y90.430 E3.29454
G1 X80.964 Y90.853 E3.30882
G1 X80.830 Y91.263 E3.32310
G1 X80.647 Y91.653 E3.33737
G1 X80.416 Y92.017 E3.35165
