; generated by Slic3r 1.3.0 on 2020-12-15 at 19:02:47

; external perimeters extrusion width = 0.44mm (2.86mm^3/s)
; perimeters extrusion width = 0.56mm (4.14mm^3/s)
; infill extrusion width = 0.50mm (3.66mm^3/s)
; solid infill extrusion width = 0.56mm (3.10mm^3/s)
; top infill extrusion width = 0.56mm (3.10mm^3/s)

M107
;D3D:START:START
T0
M104 S215 T0

G21
G90
M107
T0
G28
G29
M109 T0 S215 T0
G0 F3000
M107
T0
G92 E0
G0 X0 Y149 Z0.1 F3600
G1 Y49 E6.5 F1200
G0 Z1
G92 E0
; Filament gcode

G21 ; set units to millimeters
G90 ; use absolute coordinates
M82 ; use absolute distances for extrusion
G92 E0
G1 Z0.300 F7800.000
G1 E-2.00000 F2400.00000
G92 E0
G1 X84.142 Y95.903 F7800.000
G1 E2.00000 F2400.00000
G1 F1800
G1 X86.762 Y95.903 E2.08679
G1 X86.762 Y96.652 E2.11160
G1 X85.771 Y96.652 E2.14443
G1 X85.771 Y97.369 E2.16818
G1 X86.762 Y97.369 E2.20102
G1 X86.762 Y98.117 E2.22582
G1 X84.878 Y98.117 E2.28824
G1 X84.878 Y98.670 E2.30655
G1 X86.762 Y98.670 E2.36897
G1 X86.762 Y99.418 E2.39378
G1 X84.878 Y99.418 E2.45620
G1 X84.878 Y100.066 E2.47766
G1 X84.142 Y100.066 E2.50203
G1 X84.142 Y97.369 E2.59140
G1 X85.049 Y97.369 E2.62142
G1 X85.049 Y96.652 E2.64516
G1 X84.142 Y96.652 E2.67518
G1 X84.142 Y95.963 E2.69800
G1 X84.142 Y95.797 F7800.000
G1 F1800
G1 X84.142 Y95.049 E2.72280
G1 X85.504 Y95.049 E2.76791
G1 X85.858 Y95.012 E2.77969
G1 X85.955 Y94.970 E2.78321
G1 X86.017 Y94.913 E2.78599
G1 X86.058 Y94.826 E2.78917
G1 X86.075 Y94.684 E2.79392
G1 X86.058 Y94.541 E2.79867
G1 X86.017 Y94.454 E2.80185
G1 X85.955 Y94.397 E2.80463
G1 X85.858 Y94.355 E2.80816
G1 X85.504 Y94.319 E2.81993
G1 X84.142 Y94.319 E2.86504
G1 X84.142 Y93.570 E2.88984
G1 X85.621 Y93.570 E2.93884
G1 X85.867 Y93.586 E2.94699
G1 X86.095 Y93.637 E2.95475
G1 X86.301 Y93.724 E2.96214
G1 X86.480 Y93.849 E2.96939
G1 X86.626 Y94.013 E2.97665
G1 X86.729 Y94.210 E2.98403
G1 X86.789 Y94.435 E2.99172
G1 X86.809 Y94.684 E2.99999
G1 X86.789 Y94.932 E3.00826
G1 X86.729 Y95.157 E3.01596
G1 X86.626 Y95.354 E3.02333
G1 X86.480 Y95.518 E3.03059
G1 X86.301 Y95.643 E3.03785
G1 X86.096 Y95.730 E3.04524
G1 X85.867 Y95.781 E3.05300
G1 X85.621 Y95.797 E3.06115
G1 X84.202 Y95.797 E3.10815
G1 E1.10815 F2400.00000
G92 E0
G1 X84.142 Y93.464 F7800.000
G1 E2.00000 F2400.00000
G1 F1800
G1 X84.142 Y92.798 E2.02206
G1 X85.238 Y92.074 E2.06556
G1 X84.142 Y92.074 E2.10184
G1 X84.142 Y91.325 E2.12664
G1 X86.762 Y91.325 E2.21343
G1 X86.762 Y91.922 E2.23320
G1 X85.572 Y92.716 E2.28059
G1 X86.762 Y92.716 E2.32002
G1 X86.762 Y93.464 E2.34483
G1 X84.202 Y93.464 E2.42963
G1 E0.42963 F2400.00000
G92 E0
G1 X84.141 Y91.199 F7800.000
G1 E2.00000 F2400.00000
G1 F1800
G1 X84.151 Y90.003 E2.03962
G1 X84.182 Y89.824 E2.04563
G1 X84.298 Y89.513 E2.05662
G1 X84.494 Y89.247 E2.06756
G1 X84.760 Y89.046 E2.07861
G1 X85.084 Y88.922 E2.09009
G1 X85.432 Y88.884 E2.10170
G1 X84.142 Y88.884 E2.14441
G1 X84.142 Y87.088 E2.20390
G1 X84.878 Y87.088 E2.22827
G1 X84.878 Y88.125 E2.26262
G1 X85.035 Y88.125 E2.26783
G1 X85.035 Y87.320 E2.29449
G1 X85.771 Y87.320 E2.31886
G1 X85.771 Y88.125 E2.34552
G1 X86.027 Y88.125 E2.35399
G1 X86.027 Y87.055 E2.38943
G1 X86.762 Y87.055 E2.41380
G1 X86.762 Y88.884 E2.47437
G1 X85.449 Y88.884 E2.51787
G1 X85.821 Y88.922 E2.53023
G1 X86.145 Y89.046 E2.54173
G1 X86.411 Y89.247 E2.55278
G1 X86.606 Y89.513 E2.56372
G1 X86.723 Y89.824 E2.57471
G1 X86.754 Y90.003 E2.58072
G1 X86.764 Y91.199 E2.62034
G1 X84.201 Y91.199 E2.70524
G1 E0.70524 F2400.00000
G92 E0
G1 X84.141 Y87.054 F7800.000
G1 E2.00000 F2400.00000
G1 F1800
G1 X84.154 Y85.860 E2.03956
G1 X84.193 Y85.676 E2.04581
G1 X84.259 Y85.512 E2.05166
G1 X84.356 Y85.368 E2.05742
G1 X84.482 Y85.248 E2.06319
G1 X84.671 Y85.144 E2.07033
G1 X84.816 Y85.113 E2.07524
G1 X85.004 Y85.098 E2.08149
G1 X85.262 Y85.128 E2.09009
G1 X85.482 Y85.225 E2.09807
G1 X85.655 Y85.380 E2.10577
G1 X85.692 Y85.436 E2.10797
G1 X86.315 Y85.100 E2.13142
G1 X84.142 Y84.719 E2.20451
G1 X84.142 Y82.328 E2.28369
G1 X86.027 Y82.659 E2.34707
G1 X86.027 Y81.868 E2.37326
G1 X86.762 Y81.999 E2.39801
G1 X86.762 Y83.543 E2.44916
G1 X84.878 Y83.211 E2.51254
G1 X84.878 Y84.092 E2.54172
G1 X85.035 Y84.121 E2.54702
G1 X85.035 Y83.395 E2.57106
G1 X85.771 Y83.526 E2.59581
G1 X85.771 Y84.252 E2.61986
G1 X86.762 Y84.425 E2.65320
G1 X86.762 Y85.704 E2.69557
G1 X85.912 Y86.146 E2.72732
G1 X85.912 Y86.306 E2.73262
G1 X86.762 Y86.306 E2.76080
G1 X86.762 Y87.054 E2.78560
G1 X84.201 Y87.054 E2.87047
G1 E0.87047 F2400.00000
G92 E0
G1 X86.975 Y85.210 F7800.000
G1 E2.00000 F2400.00000
G1 F1800
G1 X86.975 Y84.457 E2.02497
G1 X89.595 Y84.917 E2.11309
G1 X89.595 Y85.671 E2.13806
G1 X87.035 Y85.221 E2.22420
G1 X86.975 Y83.570 F7800.000
G1 F1800
G1 X86.975 Y82.816 E2.24917
G1 X89.595 Y83.276 E2.33729
G1 X89.595 Y84.030 E2.36226
G1 X87.035 Y83.580 E2.44840
G1 X86.975 Y81.913 F7800.000
G1 F1800
G1 X86.975 Y81.160 E2.47337
G1 X89.595 Y81.620 E2.56149
G1 X89.595 Y82.374 E2.58646
G1 X87.035 Y81.924 E2.67260
G1 X86.762 Y81.878 F7800.000
G1 F1800
G1 X85.603 Y81.676 E2.71160
G1 X84.142 Y82.290 E2.76407
G1 X84.142 Y81.486 E2.79072
G1 X84.890 Y81.182 E2.81745
G1 X84.142 Y80.627 E2.84829
G1 X84.142 Y79.762 E2.87692
G1 X85.652 Y80.931 E2.94018
G1 X86.762 Y81.129 E2.97753
G1 X86.762 Y81.818 E3.00039
G1 E1.00039 F2400.00000
G92 E0
G1 X83.924 Y81.385 F7800.000
G1 E2.00000 F2400.00000
G1 F1800
G1 X81.305 Y80.924 E2.08812
G1 X81.305 Y80.170 E2.11310
G1 X83.924 Y80.631 E2.20122
G1 X83.924 Y81.325 E2.22421
G1 X83.924 Y82.289 F7800.000
G1 F1800
G1 X83.924 Y83.043 E2.24918
G1 X81.305 Y82.582 E2.33730
G1 X81.305 Y81.829 E2.36227
G1 X83.865 Y82.279 E2.44841
G1 X83.924 Y83.929 F7800.000
G1 F1800
G1 X83.924 Y84.683 E2.47338
G1 X81.305 Y84.223 E2.56150
G1 X81.305 Y83.469 E2.58647
G1 X83.865 Y83.919 E2.67261
G1 E0.67261 F2400.00000
G92 E0
G1 X80.166 Y87.628 F7800.000
G1 E2.00000 F2400.00000
G1 F1800
G1 X80.444 Y87.963 E2.01442
G1 X80.677 Y88.331 E2.02883
G1 X80.862 Y88.724 E2.04325
G1 X80.996 Y89.138 E2.05767
G1 X81.078 Y89.566 E2.07209
G1 X81.105 Y90.000 E2.08650
G1 X81.078 Y90.434 E2.10092
G1 X80.996 Y90.862 E2.11534
G1 X80.862 Y91.276 E2.12976
G1 X80.677 Y91.669 E2.14417
G1 X80.444 Y92.037 E2.15859
G1 X80.166 Y92.372 E2.17301
G1 X79.849 Y92.670 E2.18743
G1 X79.497 Y92.926 E2.20184
G1 X79.115 Y93.135 E2.21626
G1 X78.711 Y93.296 E2.23068
G1 X78.289 Y93.404 E2.24509
G1 X77.858 Y93.458 E2.25951
G1 X77.422 Y93.458 E2.27393
G1 X76.991 Y93.404 E2.28835
G1 X76.569 Y93.296 E2.30276
G1 X76.165 Y93.135 E2.31718
G1 X75.783 Y92.926 E2.33160
G1 X75.431 Y92.670 E2.34602
G1 X75.114 Y92.372 E2.36043
G1 X74.836 Y92.037 E2.37485
G1 X74.603 Y91.669 E2.38927
G1 X74.418 Y91.276 E2.40369
G1 X74.284 Y90.862 E2.41810
G1 X74.202 Y90.434 E2.43252
G1 X74.175 Y90.000 E2.44694
G1 X74.202 Y89.566 E2.46135
G1 X74.284 Y89.138 E2.47577
G1 X74.418 Y88.724 E2.49019
G1 X74.604 Y88.330 E2.50462
G1 X74.851 Y87.946 E2.51977
G1 X75.114 Y87.628 E2.53344
G1 X75.431 Y87.330 E2.54785
G1 X75.783 Y87.074 E2.56227
G1 X76.165 Y86.864 E2.57669
G1 X76.569 Y86.704 E2.59110
G1 X76.969 Y86.602 E2.60477
G1 X77.422 Y86.542 E2.61992
G1 X77.858 Y86.542 E2.63435
G1 X78.267 Y86.593 E2.64802
G1 X78.710 Y86.704 E2.66316
G1 X79.115 Y86.864 E2.67760
G1 X79.497 Y87.074 E2.69201
G1 X79.849 Y87.330 E2.70643
G1 X80.122 Y87.587 E2.71886
G1 E0.71886 F2400.00000
G92 E0
G1 X69.049 Y90.858 F7800.000
G1 E2.00000 F2400.00000
G1 F1800
G1 X68.511 Y90.858 E2.01781
G1 X68.511 Y90.371 E2.03394
G1 X67.527 Y90.371 E2.06656
G1 X67.834 Y90.802 E2.08411
G1 X67.197 Y90.802 E2.10524
G1 X66.808 Y90.237 E2.12797
G1 X66.808 Y89.796 E2.14260
G1 X68.511 Y89.796 E2.19903
G1 X68.511 Y89.333 E2.21435
G1 X66.808 Y89.333 E2.27079
G1 X66.808 Y88.455 E2.29988
G1 X66.946 Y87.855 E2.32027
G1 X67.411 Y87.630 E2.33739
G1 X67.647 Y87.666 E2.34529
G1 X67.846 Y87.788 E2.35305
G1 X67.910 Y87.693 E2.35684
G1 X68.109 Y87.564 E2.36468
G1 X68.348 Y87.522 E2.37272
G1 X68.645 Y87.583 E2.38278
G1 X68.875 Y87.771 E2.39263
G1 X69.009 Y88.051 E2.40290
G1 X69.049 Y88.383 E2.41396
G1 X69.049 Y90.798 E2.49399
G1 X69.000 Y91.277 F7800.000
G1 F1800
G1 X69.080 Y91.644 E2.50645
G1 X69.000 Y92.011 E2.51889
G1 X68.757 Y92.278 E2.53086
G1 X68.391 Y92.425 E2.54392
G1 X67.928 Y92.471 E2.55933
G1 X67.458 Y92.427 E2.57495
G1 X67.093 Y92.283 E2.58797
G1 X66.853 Y92.013 E2.59993
G1 X66.776 Y91.636 E2.61270
G1 X66.854 Y91.265 E2.62526
G1 X67.096 Y90.998 E2.63719
G1 X67.462 Y90.855 E2.65019
G1 X67.928 Y90.811 E2.66571
G1 X68.390 Y90.858 E2.68109
G1 X68.756 Y91.007 E2.69418
G1 X68.959 Y91.232 E2.70423
G1 E0.70423 F2400.00000
G92 E0
G1 X65.981 Y91.575 F7800.000
G1 E2.00000 F2400.00000
G1 F1800
G1 X65.981 Y92.423 E2.02810
G1 X61.829 Y92.423 E2.16565
G1 X61.829 Y90.450 E2.23104
G1 X61.906 Y89.839 E2.25144
G1 X62.153 Y89.355 E2.26944
G1 X62.560 Y89.045 E2.28636
G1 X63.085 Y88.944 E2.30408
G1 X63.535 Y89.016 E2.31919
G1 X63.913 Y89.232 E2.33361
G1 X64.187 Y89.575 E2.34816
G1 X64.258 Y89.789 E2.35562
G1 X65.981 Y88.654 E2.42397
G1 X65.981 Y89.648 E2.45692
G1 X64.394 Y90.641 E2.51893
G1 X64.394 Y91.575 E2.54989
G1 X65.921 Y91.575 E2.60047
G1 E0.60047 F2400.00000
G92 E0
G1 X65.981 Y88.505 F7800.000
G1 E2.00000 F2400.00000
G1 F1800
G1 X61.829 Y88.505 E2.13755
G1 X61.829 Y86.721 E2.19666
G1 X61.910 Y86.110 E2.21707
G1 X62.168 Y85.625 E2.23526
G1 X62.592 Y85.316 E2.25265
G1 X63.144 Y85.216 E2.27126
G1 X63.697 Y85.316 E2.28986
G1 X64.132 Y85.624 E2.30751
G1 X64.406 Y86.100 E2.32571
G1 X64.492 Y86.687 E2.34537
G1 X64.492 Y87.657 E2.37751
G1 X65.981 Y87.657 E2.42684
G1 X65.981 Y88.445 E2.45295
G1 E0.45295 F2400.00000
G92 E0
G1 X59.616 Y87.141 F7800.000
G1 E2.00000 F2400.00000
G1 F1800
G1 X59.152 Y87.141 E2.01535
G1 X58.883 Y87.002 E2.02540
G1 X58.670 Y86.852 E2.03402
G1 X58.485 Y86.689 E2.04221
G1 X58.320 Y86.519 E2.05005
G1 X57.921 Y86.039 E2.07072
G1 X57.682 Y85.800 E2.08194
G1 X57.573 Y85.725 E2.08628
G1 X57.463 Y85.680 E2.09024
G1 X57.343 Y85.666 E2.09425
G1 X57.191 Y85.691 E2.09934
G1 X57.096 Y85.754 E2.10314
G1 X57.034 Y85.859 E2.10717
G1 X57.009 Y86.022 E2.11263
G1 X57.033 Y86.181 E2.11797
G1 X57.098 Y86.298 E2.12240
G1 X57.199 Y86.378 E2.12666
G1 X57.504 Y86.464 E2.13715
G1 X57.438 Y87.176 E2.16085
G1 X56.904 Y87.015 E2.17934
G1 X56.614 Y86.774 E2.19181
G1 X56.433 Y86.432 E2.20461
G1 X56.375 Y86.022 E2.21833
G1 X56.433 Y85.587 E2.23290
G1 X56.619 Y85.243 E2.24584
G1 X56.928 Y85.025 E2.25839
G1 X57.322 Y84.956 E2.27162
G1 X57.530 Y84.980 E2.27855
G1 X57.727 Y85.048 E2.28547
G1 X57.916 Y85.157 E2.29270
G1 X58.100 Y85.304 E2.30048
G1 X58.320 Y85.534 E2.31106
G1 X58.802 Y86.099 E2.33564
G1 X58.974 Y86.267 E2.34362
G1 X58.974 Y84.913 E2.38848
G1 X59.616 Y84.913 E2.40972
G1 X59.616 Y87.081 E2.48155
G1 E0.48155 F2400.00000
G92 E0
G1 X57.572 Y82.542 F7800.000
G1 E2.00000 F2400.00000
G1 F1800
G1 X57.261 Y82.725 E2.01198
G1 X57.134 Y82.874 E2.01847
G1 X57.053 Y83.070 E2.02549
G1 X57.026 Y83.306 E2.03335
G1 X57.091 Y83.668 E2.04554
G1 X57.277 Y83.925 E2.05604
G1 X57.581 Y84.091 E2.06750
G1 X58.004 Y84.150 E2.08166
G1 X58.426 Y84.088 E2.09579
G1 X58.740 Y83.914 E2.10770
G1 X58.937 Y83.648 E2.11864
G1 X59.003 Y83.302 E2.13031
G1 X58.878 Y82.861 E2.14551
G1 X58.370 Y82.432 E2.16753
G1 X58.670 Y81.833 E2.18971
G1 X59.171 Y82.161 E2.20956
G1 X59.441 Y82.483 E2.22348
G1 X59.604 Y82.873 E2.23749
G1 X59.657 Y83.312 E2.25215
G1 X59.608 Y83.757 E2.26698
G1 X59.456 Y84.146 E2.28080
G1 X59.207 Y84.463 E2.29417
G1 X58.871 Y84.694 E2.30766
G1 X58.466 Y84.832 E2.32184
G1 X58.000 Y84.877 E2.33736
G1 X57.336 Y84.777 E2.35961
G1 X56.813 Y84.463 E2.37981
G1 X56.482 Y83.961 E2.39974
G1 X56.375 Y83.320 E2.42125
G1 X56.424 Y82.856 E2.43673
G1 X56.577 Y82.465 E2.45061
G1 X56.834 Y82.157 E2.46392
G1 X57.343 Y81.851 E2.48360
G1 X57.553 Y82.485 E2.50570
G1 E0.50570 F2400.00000
G92 E0
G1 X61.829 Y81.784 F7800.000
G1 E2.00000 F2400.00000
G1 F1800
G1 X61.829 Y80.840 E2.03127
G1 X65.981 Y80.840 E2.16882
G1 X65.981 Y81.637 E2.19521
G1 X63.548 Y81.637 E2.27583
G1 X65.981 Y82.560 E2.36205
G1 X65.981 Y83.151 E2.38162
G1 X63.523 Y84.095 E2.46888
G1 X65.981 Y84.095 E2.55033
G1 X65.981 Y84.887 E2.57654
G1 X61.829 Y84.887 E2.71409
G1 X61.829 Y83.927 E2.74587
G1 X64.658 Y82.848 E2.84616
G1 X61.885 Y81.805 E2.94430
G1 E0.94430 F2400.00000
G92 E0
G1 X59.616 Y87.378 F7800.000
G1 E2.00000 F2400.00000
G1 F1800
G1 X59.616 Y88.096 E2.02381
G1 X56.419 Y88.096 E2.12970
G1 X56.419 Y87.378 E2.15351
G1 X59.556 Y87.378 E2.25742
G1 E0.25742 F2400.00000
G92 E0
G1 X58.670 Y91.533 F7800.000
G1 E2.00000 F2400.00000
G1 F1800
G1 X59.171 Y91.861 E2.01985
G1 X59.441 Y92.183 E2.03377
G1 X59.604 Y92.573 E2.04778
G1 X59.657 Y93.012 E2.06244
G1 X59.608 Y93.457 E2.07726
G1 X59.456 Y93.846 E2.09108
G1 X59.207 Y94.163 E2.10446
G1 X58.871 Y94.394 E2.11795
G1 X58.466 Y94.532 E2.13213
G1 X58.000 Y94.577 E2.14765
G1 X57.336 Y94.477 E2.16989
G1 X56.813 Y94.163 E2.19010
G1 X56.482 Y93.661 E2.21003
G1 X56.375 Y93.020 E2.23154
G1 X56.424 Y92.556 E2.24701
G1 X56.577 Y92.166 E2.26089
G1 X56.834 Y91.857 E2.27421
G1 X57.343 Y91.551 E2.29388
G1 X57.572 Y92.242 E2.31797
G1 X57.261 Y92.425 E2.32995
G1 X57.134 Y92.574 E2.33644
G1 X57.053 Y92.771 E2.34347
G1 X57.026 Y93.006 E2.35132
G1 X57.091 Y93.368 E2.36351
G1 X57.277 Y93.625 E2.37401
G1 X57.581 Y93.791 E2.38548
G1 X58.004 Y93.850 E2.39963
G1 X58.426 Y93.788 E2.41376
G1 X58.740 Y93.614 E2.42568
G1 X58.937 Y93.348 E2.43661
G1 X59.003 Y93.002 E2.44829
G1 X58.878 Y92.561 E2.46348
G1 X58.370 Y92.132 E2.48550
G1 X58.643 Y91.587 E2.50570
G1 E0.50570 F2400.00000
G92 E0
G1 X58.974 Y94.613 F7800.000
G1 E2.00000 F2400.00000
G1 F1800
G1 X59.616 Y94.613 E2.02124
G1 X59.616 Y96.841 E2.09506
G1 X59.152 Y96.841 E2.11041
G1 X58.883 Y96.702 E2.12045
G1 X58.670 Y96.552 E2.12908
G1 X58.485 Y96.389 E2.13726
G1 X58.320 Y96.219 E2.14511
G1 X57.921 Y95.739 E2.16577
G1 X57.682 Y95.500 E2.17699
G1 X57.573 Y95.425 E2.18134
G1 X57.463 Y95.380 E2.18529
G1 X57.343 Y95.366 E2.18931
G1 X57.191 Y95.391 E2.19439
G1 X57.096 Y95.454 E2.19819
G1 X57.034 Y95.559 E2.20223
G1 X57.009 Y95.722 E2.20769
G1 X57.033 Y95.881 E2.21303
G1 X57.098 Y95.998 E2.21746
G1 X57.199 Y96.078 E2.22172
G1 X57.504 Y96.164 E2.23221
G1 X57.438 Y96.876 E2.25591
G1 X56.904 Y96.715 E2.27440
G1 X56.614 Y96.474 E2.28686
G1 X56.433 Y96.132 E2.29967
G1 X56.375 Y95.722 E2.31339
G1 X56.433 Y95.287 E2.32795
G1 X56.619 Y94.943 E2.34090
G1 X56.928 Y94.725 E2.35344
G1 X57.322 Y94.656 E2.36667
G1 X57.530 Y94.680 E2.37361
G1 X57.727 Y94.748 E2.38052
G1 X57.916 Y94.857 E2.38776
G1 X58.100 Y95.004 E2.39553
G1 X58.320 Y95.234 E2.40611
G1 X58.802 Y95.799 E2.43070
G1 X58.974 Y95.967 E2.43867
G1 X58.974 Y94.673 E2.48155
G1 E0.48155 F2400.00000
G92 E0
G1 X61.829 Y95.911 F7800.000
G1 E2.00000 F2400.00000
G1 F1800
G1 X62.582 Y95.911 E2.02495
G1 X62.582 Y97.224 E2.06844
G1 X65.981 Y97.224 E2.18104
G1 X65.981 Y98.069 E2.20905
G1 X62.582 Y98.069 E2.32165
G1 X62.582 Y99.382 E2.36514
G1 X61.829 Y99.382 E2.39010
G1 X61.829 Y95.971 E2.50310
G1 X61.829 Y95.737 F7800.000
G1 F1800
G1 X61.829 Y92.692 E2.60399
G1 X62.582 Y92.692 E2.62894
G1 X62.582 Y94.889 E2.70173
G1 X63.674 Y94.889 E2.73789
G1 X63.674 Y92.757 E2.80852
G1 X64.432 Y92.757 E2.83365
G1 X64.432 Y94.889 E2.90428
G1 X65.981 Y94.889 E2.95559
G1 X65.981 Y95.737 E2.98369
G1 X61.889 Y95.737 E3.11925
G1 E1.11925 F2400.00000
G92 E0
G1 X59.616 Y97.078 F7800.000
G1 E2.00000 F2400.00000
G1 F1800
G1 X59.616 Y97.797 E2.02381
G1 X56.419 Y97.797 E2.12970
G1 X56.419 Y97.078 E2.15351
G1 X59.556 Y97.078 E2.25742
G1 E0.25742 F2400.00000
G92 E0
G1 X75.897 Y96.991 F7800.000
G1 E2.00000 F2400.00000
G1 F1800
G1 X75.999 Y96.592 E2.01366
G1 X76.093 Y96.393 E2.02094
G1 X76.332 Y96.064 E2.03443
G1 X76.492 Y95.913 E2.04171
G1 X76.836 Y95.695 E2.05519
G1 X77.040 Y95.614 E2.06247
G1 X77.440 Y95.538 E2.07596
G1 X77.660 Y95.538 E2.08323
G1 X78.064 Y95.615 E2.09685
G1 X78.373 Y95.755 E2.10809
G1 X78.609 Y95.915 E2.11756
G1 X78.768 Y96.064 E2.12475
G1 X79.007 Y96.393 E2.13824
G1 X79.101 Y96.592 E2.14552
G1 X79.203 Y96.991 E2.15918
G1 X79.203 Y97.409 E2.17302
G1 X79.101 Y97.808 E2.18668
G1 X79.007 Y98.007 E2.19396
G1 X78.768 Y98.336 E2.20745
G1 X78.608 Y98.487 E2.21472
G1 X78.264 Y98.705 E2.22821
G1 X78.060 Y98.786 E2.23549
G1 X77.660 Y98.862 E2.24898
