; generated by Slic3r 1.3.0 on 2020-12-15 at 01:03:37

; external perimeters extrusion width = 0.44mm (2.86mm^3/s)
; perimeters extrusion width = 0.56mm (4.14mm^3/s)
; infill extrusion width = 0.50mm (3.66mm^3/s)
; solid infill extrusion width = 0.56mm (3.10mm^3/s)
; top infill extrusion width = 0.56mm (3.10mm^3/s)

M107
;D3D:START:START
T0
M104 S215 T0

G21
G90
M107
T0
G28
G29
M109 T0 S215 T0
G0 F3000
M107
T0
G92 E0
G0 X0 Y149 Z0.1 F3600
G1 Y49 E6.5 F1200
G0 Z1
G92 E0
; Filament gcode

G21 ; set units to millimeters
G90 ; use absolute coordinates
M82 ; use absolute distances for extrusion
G92 E0
G1 Z0.300 F7800.000
G1 E-2.00000 F2400.00000
G92 E0
G1 X84.214 Y80.381 F7800.000
G1 E2.00000 F2400.00000
G1 F1800
G1 X85.644 Y81.489 E2.05992
G1 X86.691 Y81.674 E2.09513
G1 X86.691 Y83.958 E2.17080
G1 X85.761 Y83.795 E2.20206
G1 X85.761 Y84.602 E2.22880
G1 X86.691 Y84.765 E2.26005
G1 X86.691 Y85.979 E2.30028
G1 X85.893 Y86.393 E2.33004
G1 X85.893 Y86.526 E2.33446
G1 X86.691 Y86.526 E2.36087
G1 X86.691 Y88.964 E2.44162
G1 X86.111 Y88.964 E2.46083
G1 X86.074 Y89.073 E2.46463
G1 X86.358 Y89.287 E2.47642
G1 X86.540 Y89.534 E2.48659
G1 X86.610 Y89.689 E2.49222
G1 X86.682 Y89.997 E2.50268
G1 X86.691 Y91.807 E2.56267
G1 X85.768 Y92.422 E2.59940
G1 X85.803 Y92.536 E2.60331
G1 X86.691 Y92.536 E2.63273
G1 X86.691 Y93.258 E2.65667
G1 X86.051 Y93.258 E2.67786
G1 X86.025 Y93.386 E2.68217
G1 X86.253 Y93.482 E2.69037
G1 X86.423 Y93.601 E2.69724
G1 X86.561 Y93.756 E2.70413
G1 X86.659 Y93.943 E2.71113
G1 X86.716 Y94.156 E2.71841
G1 X86.734 Y94.391 E2.72622
G1 X86.716 Y94.626 E2.73403
G1 X86.659 Y94.838 E2.74131
G1 X86.561 Y95.025 E2.74831
G1 X86.423 Y95.181 E2.75520
G1 X86.253 Y95.299 E2.76208
G1 X86.025 Y95.396 E2.77027
G1 X86.051 Y95.524 E2.77459
G1 X86.691 Y95.524 E2.79578
G1 X86.691 Y96.246 E2.81972
G1 X85.761 Y96.246 E2.85050
G1 X85.761 Y96.898 E2.87208
G1 X86.691 Y96.898 E2.90286
G1 X86.691 Y97.620 E2.92680
G1 X84.924 Y97.620 E2.98532
G1 X84.924 Y98.118 E3.00180
G1 X86.691 Y98.118 E3.06032
G1 X86.691 Y98.840 E3.08426
G1 X84.924 Y98.840 E3.14278
G1 X84.924 Y99.447 E3.16290
G1 X84.214 Y99.447 E3.18643
G1 X84.214 Y96.898 E3.27089
G1 X85.063 Y96.898 E3.29904
G1 X85.063 Y96.246 E3.32061
G1 X84.214 Y96.246 E3.34876
G1 X84.214 Y94.723 E3.39923
G1 X85.496 Y94.723 E3.44170
G1 X85.834 Y94.686 E3.45299
G1 X85.918 Y94.650 E3.45600
G1 X85.973 Y94.600 E3.45848
G1 X86.010 Y94.521 E3.46134
G1 X86.025 Y94.391 E3.46570
G1 X86.010 Y94.260 E3.47006
G1 X85.973 Y94.182 E3.47292
G1 X85.918 Y94.131 E3.47540
G1 X85.834 Y94.095 E3.47841
G1 X85.496 Y94.059 E3.48970
G1 X84.214 Y94.059 E3.53216
G1 X84.214 Y92.618 E3.57991
G1 X85.045 Y92.068 E3.61292
G1 X85.011 Y91.955 E3.61685
G1 X84.214 Y91.955 E3.64325
G1 X84.222 Y89.997 E3.70813
G1 X84.294 Y89.689 E3.71858
G1 X84.364 Y89.534 E3.72421
G1 X84.546 Y89.287 E3.73439
G1 X84.830 Y89.073 E3.74618
G1 X84.794 Y88.964 E3.74998
G1 X84.214 Y88.964 E3.76919
G1 X84.224 Y86.111 E3.86371
G1 X84.320 Y85.794 E3.87466
G1 X84.416 Y85.650 E3.88039
G1 X84.537 Y85.537 E3.88589
G1 X84.683 Y85.455 E3.89143
G1 X84.848 Y85.409 E3.89712
G1 X85.032 Y85.394 E3.90322
G1 X85.276 Y85.422 E3.91137
G1 X85.486 Y85.514 E3.91895
G1 X85.693 Y85.700 E3.92818
G1 X86.077 Y85.494 E3.94262
G1 X86.059 Y85.382 E3.94638
G1 X84.214 Y85.057 E4.00845
G1 X84.214 Y82.011 E4.10937
G1 X84.904 Y81.730 E4.13404
G1 X84.214 Y81.218 E4.16252
G1 X84.214 Y80.441 E4.18825
G1 X84.030 Y81.208 F7800.000
G1 F1800
G1 X84.030 Y81.935 E4.21235
G1 X81.553 Y81.500 E4.29566
G1 X81.553 Y80.772 E4.31977
G1 X83.971 Y81.197 E4.40110
G1 X84.030 Y82.762 F7800.000
G1 F1800
G1 X84.030 Y83.490 E4.42520
G1 X81.553 Y83.055 E4.50852
G1 X81.553 Y82.327 E4.53262
G1 X83.971 Y82.752 E4.61394
G1 X84.030 Y84.300 F7800.000
G1 F1800
G1 X84.030 Y85.028 E4.63805
G1 X81.553 Y84.593 E4.72136
G1 X81.553 Y83.865 E4.74547
G1 X83.971 Y84.290 E4.82679
G1 E2.82679 F2400.00000
G92 E0
G1 X80.166 Y87.628 F7800.000
G1 E2.00000 F2400.00000
G1 F1800
G1 X80.444 Y87.963 E2.01442
G1 X80.677 Y88.331 E2.02883
G1 X80.862 Y88.724 E2.04325
G1 X80.996 Y89.138 E2.05767
G1 X81.078 Y89.566 E2.07209
G1 X81.105 Y90.000 E2.08650
G1 X81.078 Y90.434 E2.10092
G1 X80.996 Y90.862 E2.11534
G1 X80.862 Y91.276 E2.12976
G1 X80.677 Y91.669 E2.14417
G1 X80.444 Y92.037 E2.15859
G1 X80.166 Y92.372 E2.17301
G1 X79.849 Y92.670 E2.18743
G1 X79.497 Y92.926 E2.20184
G1 X79.115 Y93.135 E2.21626
G1 X78.711 Y93.296 E2.23068
G1 X78.289 Y93.404 E2.24509
G1 X77.858 Y93.458 E2.25951
G1 X77.422 Y93.458 E2.27393
G1 X76.991 Y93.404 E2.28835
G1 X76.569 Y93.296 E2.30276
G1 X76.165 Y93.135 E2.31718
G1 X75.783 Y92.926 E2.33160
G1 X75.431 Y92.670 E2.34602
G1 X75.114 Y92.372 E2.36043
G1 X74.836 Y92.037 E2.37485
G1 X74.603 Y91.669 E2.38927
G1 X74.418 Y91.276 E2.40369
G1 X74.284 Y90.862 E2.41810
G1 X74.202 Y90.434 E2.43252
G1 X74.175 Y90.000 E2.44694
G1 X74.202 Y89.566 E2.46135
G1 X74.284 Y89.138 E2.47577
G1 X74.418 Y88.724 E2.49019
G1 X74.603 Y88.331 E2.50461
G1 X74.836 Y87.963 E2.51902
G1 X75.114 Y87.628 E2.53344
G1 X75.431 Y87.330 E2.54786
G1 X75.783 Y87.074 E2.56228
G1 X76.165 Y86.864 E2.57669
G1 X76.569 Y86.704 E2.59111
G1 X76.970 Y86.601 E2.60482
G1 X77.422 Y86.542 E2.61992
G1 X77.858 Y86.542 E2.63436
G1 X78.289 Y86.596 E2.64878
G1 X78.711 Y86.704 E2.66319
G1 X79.115 Y86.864 E2.67761
G1 X79.497 Y87.074 E2.69203
G1 X79.849 Y87.330 E2.70644
G1 X80.122 Y87.587 E2.71887
G1 E0.71887 F2400.00000
G92 E0
G1 X78.064 Y95.615 F7800.000
G1 E2.00000 F2400.00000
G1 F1800
G1 X78.373 Y95.755 E2.01124
G1 X78.609 Y95.915 E2.02070
G1 X78.768 Y96.064 E2.02790
G1 X79.007 Y96.393 E2.04139
G1 X79.101 Y96.592 E2.04866
G1 X79.203 Y96.991 E2.06233
G1 X79.203 Y97.409 E2.07617
G1 X79.101 Y97.808 E2.08983
G1 X79.007 Y98.007 E2.09710
G1 X78.768 Y98.336 E2.11059
G1 X78.608 Y98.487 E2.11787
G1 X78.264 Y98.705 E2.13136
G1 X78.060 Y98.786 E2.13863
G1 X77.660 Y98.862 E2.15212
G1 X77.440 Y98.862 E2.15940
G1 X77.035 Y98.785 E2.17306
G1 X76.662 Y98.609 E2.18672
G1 X76.489 Y98.483 E2.19382
G1 X76.332 Y98.336 E2.20093
G1 X76.093 Y98.007 E2.21442
G1 X75.999 Y97.808 E2.22169
G1 X75.897 Y97.409 E2.23536
G1 X75.897 Y96.991 E2.24919
G1 X75.999 Y96.592 E2.26286
G1 X76.093 Y96.393 E2.27013
G1 X76.332 Y96.064 E2.28362
G1 X76.492 Y95.913 E2.29090
G1 X76.836 Y95.695 E2.30439
G1 X77.040 Y95.614 E2.31166
G1 X77.440 Y95.538 E2.32515
G1 X77.660 Y95.538 E2.33243
G1 X78.005 Y95.604 E2.34406
G1 E0.34406 F2400.00000
G92 E0
G1 X69.049 Y90.858 F7800.000
G1 E2.00000 F2400.00000
G1 F1800
G1 X68.731 Y90.858 E2.01054
G1 X68.705 Y90.987 E2.01488
G1 X68.756 Y91.007 E2.01669
G1 X69.000 Y91.277 E2.02873
G1 X69.080 Y91.644 E2.04119
G1 X69.000 Y92.011 E2.05364
G1 X68.757 Y92.278 E2.06561
G1 X68.391 Y92.425 E2.07866
G1 X67.928 Y92.471 E2.09407
G1 X67.458 Y92.427 E2.10970
G1 X67.093 Y92.283 E2.12271
G1 X66.853 Y92.013 E2.13468
G1 X66.776 Y91.636 E2.14744
G1 X66.854 Y91.265 E2.16000
G1 X67.096 Y90.998 E2.17193
G1 X67.265 Y90.932 E2.17792
G1 X67.240 Y90.802 E2.18230
G1 X67.197 Y90.802 E2.18374
G1 X66.808 Y90.237 E2.20648
G1 X66.808 Y89.796 E2.22110
G1 X68.511 Y89.796 E2.27753
G1 X68.511 Y89.333 E2.29286
G1 X66.808 Y89.333 E2.34929
G1 X66.808 Y88.455 E2.37838
G1 X66.946 Y87.855 E2.39877
G1 X67.411 Y87.630 E2.41589
G1 X67.647 Y87.666 E2.42379
G1 X67.852 Y87.780 E2.43157
G1 X67.910 Y87.693 E2.43503
G1 X68.109 Y87.564 E2.44286
G1 X68.348 Y87.522 E2.45090
G1 X68.645 Y87.583 E2.46096
G1 X68.875 Y87.771 E2.47081
G1 X69.009 Y88.051 E2.48109
G1 X69.049 Y88.383 E2.49215
G1 X69.049 Y90.798 E2.57217
G1 E0.57217 F2400.00000
G92 E0
G1 X65.981 Y91.575 F7800.000
G1 E2.00000 F2400.00000
G1 F1800
G1 X65.981 Y92.423 E2.02810
G1 X61.829 Y92.423 E2.16565
G1 X61.829 Y90.450 E2.23104
G1 X61.906 Y89.839 E2.25144
G1 X62.153 Y89.355 E2.26944
G1 X62.560 Y89.045 E2.28636
G1 X63.085 Y88.944 E2.30408
G1 X63.535 Y89.016 E2.31919
G1 X63.913 Y89.232 E2.33361
G1 X64.187 Y89.575 E2.34816
G1 X64.258 Y89.789 E2.35562
G1 X65.981 Y88.654 E2.42397
G1 X65.981 Y89.648 E2.45692
G1 X64.394 Y90.641 E2.51893
G1 X64.394 Y91.575 E2.54989
G1 X65.921 Y91.575 E2.60047
G1 E0.60047 F2400.00000
G92 E0
G1 X65.981 Y88.505 F7800.000
G1 E2.00000 F2400.00000
G1 F1800
G1 X61.829 Y88.505 E2.13755
G1 X61.829 Y86.721 E2.19666
G1 X61.910 Y86.110 E2.21707
G1 X62.168 Y85.625 E2.23526
G1 X62.592 Y85.316 E2.25265
G1 X63.144 Y85.216 E2.27126
G1 X63.697 Y85.316 E2.28986
G1 X64.132 Y85.624 E2.30751
G1 X64.406 Y86.100 E2.32571
G1 X64.492 Y86.687 E2.34537
G1 X64.492 Y87.657 E2.37751
G1 X65.981 Y87.657 E2.42684
G1 X65.981 Y88.445 E2.45295
G1 E0.45295 F2400.00000
G92 E0
G1 X59.616 Y87.141 F7800.000
G1 E2.00000 F2400.00000
G1 F1800
G1 X59.152 Y87.141 E2.01535
G1 X58.883 Y87.002 E2.02540
G1 X58.670 Y86.852 E2.03402
G1 X58.485 Y86.689 E2.04221
G1 X58.320 Y86.519 E2.05005
G1 X57.921 Y86.039 E2.07072
G1 X57.682 Y85.800 E2.08194
G1 X57.573 Y85.725 E2.08628
G1 X57.463 Y85.680 E2.09024
G1 X57.343 Y85.666 E2.09425
G1 X57.191 Y85.691 E2.09934
G1 X57.096 Y85.754 E2.10314
G1 X57.034 Y85.859 E2.10717
G1 X57.009 Y86.022 E2.11263
G1 X57.033 Y86.181 E2.11797
G1 X57.098 Y86.298 E2.12240
G1 X57.199 Y86.378 E2.12666
G1 X57.504 Y86.464 E2.13715
G1 X57.438 Y87.176 E2.16085
G1 X56.904 Y87.015 E2.17934
G1 X56.614 Y86.774 E2.19181
G1 X56.433 Y86.432 E2.20461
G1 X56.375 Y86.022 E2.21833
G1 X56.433 Y85.587 E2.23290
G1 X56.619 Y85.243 E2.24584
G1 X56.928 Y85.025 E2.25839
G1 X57.322 Y84.956 E2.27162
G1 X57.530 Y84.980 E2.27855
G1 X57.727 Y85.048 E2.28547
G1 X57.916 Y85.157 E2.29270
G1 X58.100 Y85.304 E2.30048
G1 X58.320 Y85.534 E2.31106
G1 X58.802 Y86.099 E2.33564
G1 X58.974 Y86.271 E2.34372
G1 X58.974 Y84.913 E2.38873
G1 X59.616 Y84.913 E2.40997
G1 X59.616 Y87.081 E2.48180
G1 E0.48180 F2400.00000
G92 E0
G1 X57.572 Y82.542 F7800.000
G1 E2.00000 F2400.00000
G1 F1800
G1 X57.261 Y82.725 E2.01198
G1 X57.134 Y82.874 E2.01847
G1 X57.053 Y83.070 E2.02549
G1 X57.026 Y83.306 E2.03335
G1 X57.091 Y83.668 E2.04554
G1 X57.277 Y83.925 E2.05604
G1 X57.581 Y84.091 E2.06750
G1 X58.004 Y84.150 E2.08166
G1 X58.426 Y84.088 E2.09579
G1 X58.740 Y83.914 E2.10770
G1 X58.937 Y83.648 E2.11864
G1 X59.003 Y83.302 E2.13031
G1 X58.878 Y82.861 E2.14551
G1 X58.370 Y82.432 E2.16753
G1 X58.670 Y81.833 E2.18971
G1 X59.171 Y82.161 E2.20956
G1 X59.441 Y82.483 E2.22348
G1 X59.604 Y82.873 E2.23749
G1 X59.657 Y83.312 E2.25215
G1 X59.608 Y83.757 E2.26698
G1 X59.456 Y84.146 E2.28080
G1 X59.207 Y84.463 E2.29417
G1 X58.871 Y84.694 E2.30766
G1 X58.466 Y84.832 E2.32184
G1 X58.000 Y84.877 E2.33736
G1 X57.336 Y84.777 E2.35961
G1 X56.813 Y84.463 E2.37981
G1 X56.482 Y83.961 E2.39974
G1 X56.375 Y83.320 E2.42125
G1 X56.425 Y82.856 E2.43673
G1 X56.577 Y82.465 E2.45061
G1 X56.834 Y82.157 E2.46392
G1 X57.343 Y81.851 E2.48360
G1 X57.553 Y82.485 E2.50570
G1 E0.50570 F2400.00000
G92 E0
G1 X61.829 Y81.784 F7800.000
G1 E2.00000 F2400.00000
G1 F1800
G1 X61.829 Y80.840 E2.03127
G1 X65.981 Y80.840 E2.16882
G1 X65.981 Y81.637 E2.19521
G1 X63.916 Y81.637 E2.26362
G1 X63.892 Y81.768 E2.26802
G1 X65.981 Y82.560 E2.34204
G1 X65.981 Y83.151 E2.36161
G1 X63.862 Y83.965 E2.43683
G1 X63.886 Y84.095 E2.44122
G1 X65.981 Y84.095 E2.51064
G1 X65.981 Y84.887 E2.53685
G1 X61.829 Y84.887 E2.67440
G1 X61.829 Y83.927 E2.70618
G1 X64.649 Y82.845 E2.80624
G1 X61.885 Y81.805 E2.90407
G1 E0.90407 F2400.00000
G92 E0
G1 X59.616 Y87.378 F7800.000
G1 E2.00000 F2400.00000
G1 F1800
G1 X59.616 Y88.096 E2.02381
G1 X56.419 Y88.096 E2.12970
G1 X56.419 Y87.378 E2.15351
G1 X59.556 Y87.378 E2.25742
G1 E0.25742 F2400.00000
G92 E0
G1 X58.670 Y91.533 F7800.000
G1 E2.00000 F2400.00000
G1 F1800
G1 X59.171 Y91.861 E2.01985
G1 X59.441 Y92.183 E2.03377
G1 X59.604 Y92.573 E2.04778
G1 X59.657 Y93.012 E2.06244
G1 X59.608 Y93.457 E2.07726
G1 X59.456 Y93.846 E2.09108
G1 X59.207 Y94.163 E2.10446
G1 X58.871 Y94.394 E2.11795
G1 X58.466 Y94.532 E2.13213
G1 X58.000 Y94.577 E2.14765
G1 X57.336 Y94.477 E2.16989
G1 X56.813 Y94.163 E2.19010
G1 X56.482 Y93.661 E2.21003
G1 X56.375 Y93.020 E2.23154
G1 X56.425 Y92.556 E2.24701
G1 X56.577 Y92.166 E2.26089
G1 X56.834 Y91.857 E2.27421
G1 X57.343 Y91.551 E2.29388
G1 X57.572 Y92.242 E2.31797
G1 X57.261 Y92.425 E2.32995
G1 X57.134 Y92.574 E2.33644
G1 X57.053 Y92.771 E2.34347
G1 X57.026 Y93.006 E2.35132
G1 X57.091 Y93.368 E2.36351
G1 X57.277 Y93.625 E2.37401
G1 X57.581 Y93.791 E2.38548
G1 X58.004 Y93.850 E2.39963
G1 X58.426 Y93.788 E2.41376
G1 X58.740 Y93.614 E2.42568
G1 X58.937 Y93.348 E2.43661
G1 X59.003 Y93.002 E2.44829
G1 X58.878 Y92.561 E2.46348
G1 X58.370 Y92.132 E2.48550
G1 X58.643 Y91.587 E2.50570
G1 E0.50570 F2400.00000
G92 E0
G1 X58.974 Y94.613 F7800.000
G1 E2.00000 F2400.00000
G1 F1800
G1 X59.616 Y94.613 E2.02124
G1 X59.616 Y96.841 E2.09506
G1 X59.152 Y96.841 E2.11041
G1 X58.883 Y96.702 E2.12045
G1 X58.670 Y96.552 E2.12908
G1 X58.485 Y96.389 E2.13726
G1 X58.320 Y96.219 E2.14511
G1 X57.921 Y95.739 E2.16577
G1 X57.682 Y95.500 E2.17699
G1 X57.573 Y95.425 E2.18134
G1 X57.463 Y95.380 E2.18529
G1 X57.343 Y95.366 E2.18931
G1 X57.191 Y95.391 E2.19439
G1 X57.096 Y95.454 E2.19819
G1 X57.034 Y95.559 E2.20223
G1 X57.009 Y95.722 E2.20769
G1 X57.033 Y95.881 E2.21303
G1 X57.098 Y95.998 E2.21746
G1 X57.199 Y96.078 E2.22172
G1 X57.504 Y96.164 E2.23221
G1 X57.438 Y96.876 E2.25591
G1 X56.904 Y96.715 E2.27440
G1 X56.614 Y96.474 E2.28686
G1 X56.433 Y96.132 E2.29967
G1 X56.375 Y95.722 E2.31339
G1 X56.433 Y95.287 E2.32795
G1 X56.619 Y94.943 E2.34090
G1 X56.928 Y94.725 E2.35344
G1 X57.322 Y94.656 E2.36667
G1 X57.530 Y94.680 E2.37361
G1 X57.727 Y94.748 E2.38052
G1 X57.916 Y94.857 E2.38776
G1 X58.100 Y95.004 E2.39553
G1 X58.320 Y95.234 E2.40611
G1 X58.802 Y95.799 E2.43070
G1 X58.974 Y95.971 E2.43878
G1 X58.974 Y94.673 E2.48180
G1 E0.48180 F2400.00000
G92 E0
G1 X61.829 Y95.911 F7800.000
G1 E2.00000 F2400.00000
G1 F1800
G1 X62.583 Y95.911 E2.02495
G1 X62.583 Y97.224 E2.06844
G1 X65.981 Y97.224 E2.18104
G1 X65.981 Y98.069 E2.20905
G1 X62.583 Y98.069 E2.32165
G1 X62.583 Y99.382 E2.36515
G1 X61.829 Y99.382 E2.39010
G1 X61.829 Y95.971 E2.50311
G1 X61.829 Y95.737 F7800.000
G1 F1800
G1 X61.829 Y92.692 E2.60399
G1 X62.583 Y92.692 E2.62894
G1 X62.583 Y94.889 E2.70173
G1 X63.674 Y94.889 E2.73789
G1 X63.674 Y92.757 E2.80852
G1 X64.432 Y92.757 E2.83365
G1 X64.432 Y94.889 E2.90428
G1 X65.981 Y94.889 E2.95559
G1 X65.981 Y95.737 E2.98369
G1 X61.889 Y95.737 E3.11925
G1 E1.11925 F2400.00000
G92 E0
G1 X59.616 Y97.078 F7800.000
G1 E2.00000 F2400.00000
G1 F1800
G1 X59.616 Y97.797 E2.02381
G1 X56.419 Y97.797 E2.12970
G1 X56.419 Y97.078 E2.15351
G1 X59.556 Y97.078 E2.25742
G1 E0.25742 F2400.00000
G92 E0
G1 X86.870 Y85.518 F7800.000
G1 E2.00000 F2400.00000
G1 F1800
G1 X86.870 Y84.791 E2.02410
G1 X89.347 Y85.226 E2.10742
G1 X89.347 Y85.953 E2.13152
G1 X86.929 Y85.529 E2.21284
G1 X86.870 Y83.980 F7800.000
G1 F1800
G1 X86.870 Y83.252 E2.23695
G1 X89.347 Y83.688 E2.32026
G1 X89.347 Y84.415 E2.34437
G1 X86.929 Y83.990 E2.42569
G1 X86.870 Y82.427 F7800.000
G1 F1800
G1 X86.870 Y81.700 E2.44980
G1 X89.347 Y82.135 E2.53311
G1 X89.347 Y82.863 E2.55721
G1 X86.929 Y82.438 E2.63854
G1 E0.63854 F2400.00000
G92 E0
G1 X91.916 Y85.635 F7800.000
G1 E2.00000 F2400.00000
G1 F1800
G1 X92.572 Y85.635 E2.02172
G1 X92.572 Y86.982 E2.06635
G1 X91.916 Y86.982 E2.08806
G1 X91.916 Y85.695 E2.13071
G1 E0.13071 F2400.00000
G92 E0
G1 X91.652 Y88.116 F7800.000
G1 E2.00000 F2400.00000
G1 F1800
G1 X92.279 Y88.116 E2.02077
G1 X92.279 Y88.979 E2.04935
G1 X93.149 Y88.979 E2.07820
G1 X93.149 Y89.608 E2.09904
G1 X92.279 Y89.608 E2.12788
G1 X92.279 Y90.470 E2.15646
G1 X91.652 Y90.470 E2.17723
G1 X91.652 Y89.608 E2.20581
G1 X90.781 Y89.608 E2.23465
G1 X90.781 Y88.979 E2.25549
G1 X91.652 Y88.979 E2.28434
G1 X91.652 Y88.176 E2.31093
G1 E0.31093 F2400.00000
G92 E0
G1 X91.226 Y91.593 F7800.000
G1 E2.00000 F2400.00000
G1 F1800
G1 X91.352 Y92.311 E2.02417
G1 X91.071 Y92.442 E2.03443
G1 X90.981 Y92.542 E2.03889
G1 X90.922 Y92.703 E2.04456
G1 X90.900 Y92.945 E2.05263
G1 X90.925 Y93.210 E2.06146
G1 X90.989 Y93.376 E2.06735
G1 X91.072 Y93.455 E2.07113
G1 X91.195 Y93.484 E2.07532
G1 X91.305 Y93.449 E2.07914
G1 X91.402 Y93.311 E2.08474
G1 X91.462 Y93.135 E2.09089
G1 X91.640 Y92.408 E2.11567
G1 X91.797 Y92.028 E2.12931
G1 X91.970 Y91.811 E2.13850
G1 X92.093 Y91.719 E2.14357
