; generated by PrusaSlicer 2.6.0-alpha6+linux-x64-GTK3 on 2023-05-05 at 11:54:06 UTC


;
;

;
;
; 

; external perimeters extrusion width = 0.45mm
; perimeters extrusion width = 0.45mm
; infill extrusion width = 0.45mm
; solid infill extrusion width = 0.45mm
; top infill extrusion width = 0.40mm
; first layer extrusion width = 0.42mm

M73 P0 R47
M201 X1250 Y1250 Z400 E5000 ; sets maximum accelerations, mm/sec^2
M203 X180 Y180 Z12 E80 ; sets maximum feedrates, mm / sec
M204 S1250 T1250 ; sets acceleration (S) and retract acceleration (R), mm/sec^2
M205 X8.00 Y8.00 Z2.00 E10.00 ; sets the jerk limits, mm/sec
M205 S0 T0 ; sets the minimum extruding and travel feed rate, mm/sec
;TYPE:Custom
G90 ; use absolute coordinates
M83 ; extruder relative mode
M104 S170 ; set extruder temp for bed leveling
M140 S60 ; set bed temp
M109 R170 ; wait for bed leveling temp
M190 S60 ; wait for bed temp
G28 ; home all without mesh bed level
G29 ; mesh bed leveling 
M104 S215 ; set extruder temp
G92 E0.0
G1 Y-2.0 X179 F2400
G1 Z3 F720
M109 S215 ; wait for extruder temp

; intro line
G1 X170 F1000
G1 Z0.2 F720
G1 X110.0 E8.0 F900
G1 X40.0 E10.0 F700
G92 E0.0

M221 S95 ; set flow
G21 ; set units to millimeters
G90 ; use absolute coordinates
M83 ; use relative distances for extrusion
M900 K0.2 ; Filament gcode LA 1.5
; ; Filament gcode LA 1.0
M107
;LAYER_CHANGE
;Z:0.2
;HEIGHT:0.2
;BEFORE_LAYER_CHANGE
G92 E0.0
;0.2


G1 E-3.2 F4200
G1 Z.2 F720
;AFTER_LAYER_CHANGE
;0.2
G1 Z.4
G1 X68.672 Y67.65 F9000
G1 Z.2 F720
G1 E3.2 F2400
M204 S600
;TYPE:Skirt/Brim
;WIDTH:0.42
G1 F1200
G1 X69.42 Y67.131 E.02855
G1 X70.121 Y66.853 E.02364
G1 X71.021 Y66.72 E.02853
G1 X109.277 Y66.739 E1.19949
G1 X109.879 Y66.853 E.01921
G1 X110.58 Y67.131 E.02364
G1 X111.443 Y67.758 E.03345
G1 X111.923 Y68.338 E.02361
G1 X112.218 Y68.876 E.01924
G1 X112.451 Y69.592 E.02361
G1 X112.528 Y70.201 E.01925
G1 X112.533 Y114.65 E1.39367
G1 X112.481 Y115.253 E.01898
G1 X112.328 Y115.847 E.01923
G1 X111.747 Y116.903 E.03779
G1 X111.098 Y117.541 E.02853
G1 X110.58 Y117.869 E.01922
G1 X109.726 Y118.186 E.02856
G1 X108.979 Y118.28 E.02361
G1 X71.021 Y118.28 E1.19015
G1 X69.837 Y118.054 E.03779
G1 X68.902 Y117.541 E.03344
G1 X68.295 Y116.954 E.02648
G1 X67.849 Y116.267 E.02568
G1 X67.549 Y115.408 E.02853
G1 X67.467 Y114.65 E.02391
G1 X67.467 Y70.35 E1.389
G1 X67.519 Y69.747 E.01898
G1 X67.672 Y69.153 E.01923
G1 X68.253 Y68.097 E.03779
G1 X68.631 Y67.693 E.01735
M204 S1000
; printing object RPM_case.stl id:0 copy 0
G1 E-2.24 F4200
;WIPE_START
G1 F7200
G1 X69.42 Y67.131 E-.53682
G1 X70.121 Y66.853 E-.4179
G1 X70.13 Y66.852 E-.00528
;WIPE_END
G1 Z.4 F720
G1 X71.003 Y95.275 F9000
G1 Z.2 F720
G1 E3.2 F2400
M204 S600
;TYPE:Perimeter
;WIDTH:0.419999
G1 F1200
G1 X71.129 Y95.216 E.00436
G1 X108.832 Y95.227 E1.18215
G1 X108.971 Y95.25 E.00442
G1 X109.035 Y95.411 E.00543
G1 X109.035 Y114.542 E.59984
G1 X108.995 Y114.732 E.00609
M73 P1 R47
G1 X108.871 Y114.784 E.00422
G1 X94.214 Y114.784 E.45956
;WIDTH:0.420177
G1 X93.491 Y114.784 E.02268
;WIDTH:0.425246
G1 X92.126 Y114.784 E.04339
;WIDTH:0.419999
G1 X84.214 Y114.784 E.24807
;WIDTH:0.420112
G1 X83.491 Y114.784 E.02268
;WIDTH:0.425246
G1 X82.126 Y114.784 E.04339
;WIDTH:0.419999
G1 X71.206 Y114.784 E.34239
G1 X71.038 Y114.748 E.00539
G1 X70.965 Y114.572 E.00597
G1 X70.965 Y95.428 E.60025
G1 X70.988 Y95.334 E.00303
M204 S1000
G1 X70.78 Y94.953 F9000
M204 S600
;TYPE:External perimeter
G1 F1200
G1 X71.081 Y94.839 E.01009
G1 X108.832 Y94.85 E1.18365
G1 X109.112 Y94.887 E.00886
G1 X109.321 Y95.082 E.00896
G1 X109.413 Y95.376 E.00966
G1 X109.413 Y114.542 E.60094
G1 X109.34 Y114.906 E.01164
G1 X109.189 Y115.057 E.0067
G1 X108.919 Y115.161 E.00907
G1 X71.179 Y115.161 E1.18331
G1 X70.829 Y115.077 E.01129
G1 X70.657 Y114.894 E.00787
G1 X70.588 Y114.619 E.00889
G1 X70.588 Y95.381 E.60319
G1 X70.658 Y95.101 E.00905
G1 X70.742 Y94.999 E.00414
M204 S1000
G1 X71.074 Y95.085 F9000
G1 E-2.24 F4200
;WIPE_START
G1 F7200
G1 X71.081 Y94.839 E-.20774
G1 X72.438 Y94.839 E-.75226
;WIPE_END
G1 Z.4 F720
G1 X80.532 Y112.594 F9000
G1 Z.2 F720
G1 E3.2 F2400
M204 S600
;TYPE:Perimeter
G1 F1200
G1 X80.508 Y112.528 E.0022
G1 X80.45 Y112.071 E.01444
G1 X80.508 Y111.472 E.01887
G1 X80.713 Y110.906 E.01887
G1 X81.004 Y110.468 E.01649
G1 X81.494 Y110.021 E.0208
G1 X82.118 Y109.717 E.02176
G1 X82.634 Y109.608 E.01654
G1 X83.071 Y109.609 E.0137
G1 X83.59 Y109.712 E.01659
G1 X84.076 Y109.936 E.01678
G1 X84.551 Y110.306 E.01888
G1 X84.919 Y110.782 E.01886
G1 X85.157 Y111.335 E.01888
G1 X85.25 Y111.929 E.01885
G1 X85.192 Y112.528 E.01887
G1 X84.987 Y113.094 E.01887
G1 X84.648 Y113.591 E.01886
G1 X84.196 Y113.988 E.01886
G1 X83.578 Y114.284 E.02148
;WIDTH:0.428643
G1 X83.066 Y114.396 E.01681
;WIDTH:0.432359
G1 X82.59 Y114.392 E.01541
G1 X82.041 Y114.26 E.01828
;WIDTH:0.419999
G1 X81.504 Y113.988 E.01887
G1 X81.052 Y113.591 E.01886
G1 X80.713 Y113.094 E.01886
G1 X80.552 Y112.65 E.01481
M204 S1000
G1 X80.869 Y112.377 F9000
M204 S600
;TYPE:External perimeter
G1 F1200
G1 X80.824 Y112.024 E.01116
G1 X80.882 Y111.519 E.01594
G1 X81.064 Y111.044 E.01595
G1 X81.341 Y110.653 E.01502
G1 X81.741 Y110.305 E.01662
G1 X82.27 Y110.062 E.01825
G1 X82.734 Y109.977 E.01479
G1 X83.001 Y109.98 E.00837
G1 X83.498 Y110.081 E.0159
G1 X83.955 Y110.302 E.01592
G1 X84.343 Y110.631 E.01595
G1 X84.636 Y111.045 E.0159
G1 X84.818 Y111.519 E.01592
G1 X84.876 Y112.024 E.01594
G1 X84.806 Y112.527 E.01592
G1 X84.614 Y112.997 E.01592
G1 X84.31 Y113.404 E.01593
G1 X83.911 Y113.725 E.01606
G1 X83.426 Y113.939 E.01662
G1 X82.963 Y114.023 E.01475
G1 X82.663 Y114.016 E.00941
G1 X82.202 Y113.919 E.01477
G1 X81.745 Y113.698 E.01592
G1 X81.357 Y113.369 E.01595
G1 X81.064 Y112.955 E.0159
G1 X80.877 Y112.436 E.0173
M204 S1000
G1 X80.528 Y112.276 F9000
G1 E-2.24 F4200
;WIPE_START
G1 F7200
G1 X80.824 Y112.024 E-.2302
G1 X80.882 Y111.519 E-.28169
G1 X81.064 Y111.044 E-.28189
G1 X81.237 Y110.799 E-.16622
;WIPE_END
G1 Z.4 F720
G1 X95.182 Y111.457 F9000
G1 Z.2 F720
G1 E3.2 F2400
M204 S600
;TYPE:Perimeter
G1 F1200
G1 X95.247 Y111.991 E.01687
G1 X95.193 Y112.515 E.01652
G1 X94.987 Y113.094 E.01927
G1 X94.648 Y113.591 E.01886
G1 X94.196 Y113.988 E.01886
G1 X93.578 Y114.284 E.02148
;WIDTH:0.428945
G1 X93.066 Y114.396 E.01682
;WIDTH:0.432359
G1 X92.59 Y114.392 E.01541
G1 X92.041 Y114.26 E.01828
;WIDTH:0.419999
G1 X91.494 Y113.979 E.01928
G1 X91.094 Y113.631 E.01662
G1 X90.778 Y113.214 E.0164
G1 X90.543 Y112.665 E.01872
G1 X90.45 Y112.071 E.01885
G1 X90.508 Y111.472 E.01887
G1 X90.713 Y110.906 E.01887
G1 X91.052 Y110.409 E.01886
G1 X91.504 Y110.012 E.01886
G1 X92.122 Y109.716 E.02148
G1 X92.636 Y109.614 E.01643
;WIDTH:0.411191
G1 X93.146 Y109.624 E.01562
;WIDTH:0.419999
G1 X93.642 Y109.732 E.01592
G1 X94.003 Y109.896 E.01243
G1 X94.409 Y110.171 E.01538
G1 X94.648 Y110.409 E.01058
G1 X94.987 Y110.906 E.01886
G1 X95.175 Y111.398 E.01651
M204 S1000
G1 X94.859 Y112.079 F9000
M204 S600
;TYPE:External perimeter
G1 F1200
G1 X94.818 Y112.476 E.01251
G1 X94.636 Y112.955 E.01607
G1 X94.343 Y113.369 E.0159
G1 X93.955 Y113.698 E.01595
G1 X93.426 Y113.939 E.01823
G1 X92.963 Y114.023 E.01475
G1 X92.663 Y114.016 E.00941
G1 X92.202 Y113.919 E.01477
G1 X91.741 Y113.695 E.01607
G1 X91.341 Y113.347 E.01662
G1 X91.064 Y112.956 E.01502
G1 X90.882 Y112.481 E.01595
G1 X90.824 Y112.024 E.01444
G1 X90.882 Y111.519 E.01594
G1 X91.064 Y111.045 E.01592
G1 X91.357 Y110.631 E.0159
G1 X91.745 Y110.302 E.01595
G1 X92.274 Y110.061 E.01823
G1 X92.74 Y109.977 E.01485
G1 X93.17 Y110.009 E.01352
G1 X93.492 Y110.078 E.01033
G1 X93.798 Y110.212 E.01047
G1 X94.151 Y110.446 E.01328
G1 X94.343 Y110.631 E.00836
G1 X94.636 Y111.045 E.0159
G1 X94.818 Y111.518 E.01589
G1 X94.872 Y111.953 E.01374
G1 X94.865 Y112.019 E.00208
M204 S1000
G1 X95.196 Y112.294 F9000
G1 E-2.24 F4200
;WIPE_START
G1 F7200
G1 X94.818 Y112.476 E-.25459
G1 X94.636 Y112.955 E-.28396
G1 X94.343 Y113.369 E-.28107
G1 X94.15 Y113.533 E-.14038
;WIPE_END
G1 Z.4 F720
G1 X89.274 Y102.771 F9000
G1 Z.2 F720
G1 E3.2 F2400
M204 S600
;TYPE:Perimeter
G1 F1200
G1 X89.32 Y102.711 E.00237
G1 X89.398 Y102.657 E.00297
G1 X92.607 Y100.804 E.11619
G1 X92.89 Y100.729 E.00918
G1 X93.173 Y100.804 E.00918
G1 X96.382 Y102.657 E.11619
G1 X96.589 Y102.864 E.00918
G1 X96.665 Y103.147 E.00919
G1 X96.665 Y106.853 E.1162
G1 X96.593 Y107.13 E.00897
G1 X96.413 Y107.324 E.0083
G1 X93.425 Y109.05 E.10819
G1 X93.015 Y109.25 E.0143
;WIDTH:0.405575
G1 X92.789 Y109.253 E.00682
;WIDTH:0.419999
G1 X92.359 Y109.052 E.01488
G1 X89.398 Y107.343 E.10719
G1 X89.215 Y107.174 E.00781
G1 X89.118 Y106.912 E.00876
G1 X89.115 Y103.147 E.11805
G1 X89.169 Y102.907 E.00771
G1 X89.237 Y102.819 E.00349
M204 S1000
G1 X89.561 Y103.002 F9000
M204 S600
;TYPE:External perimeter
G1 F1200
G1 X92.796 Y101.131 E.11717
G1 X92.94 Y101.112 E.00455
G1 X96.194 Y102.984 E.11771
G1 X96.285 Y103.115 E.005
G1 X96.288 Y103.147 E.00101
G1 X96.288 Y106.853 E.1162
G1 X96.217 Y107 E.00512
G1 X92.984 Y108.869 E.11709
G1 X92.856 Y108.891 E.00407
G1 X89.584 Y107.015 E.11826
G1 X89.497 Y106.895 E.00465
G1 X89.492 Y103.147 E.11752
G1 X89.535 Y103.056 E.00316
M204 S1000
G1 X89.426 Y102.625 F9000
G1 E-2.24 F4200
;WIPE_START
G1 F7200
G1 X91.027 Y102.175 E-.96
;WIPE_END
G1 Z.4 F720
G1 X108.863 Y96.165 F9000
G1 Z.2 F720
G1 E3.2 F2400
M204 S600
;TYPE:Solid infill
;WIDTH:0.423205
G1 F1200
G1 X108.264 Y95.566 E.02679
G1 X107.726 Y95.566 E.01701
G1 X108.693 Y96.533 E.04324
G1 X108.693 Y97.07 E.01698
G1 X107.188 Y95.566 E.06728
G1 X106.65 Y95.565 E.01701
G1 X108.692 Y97.608 E.09134
G1 X108.692 Y98.146 E.01701
G1 X106.112 Y95.565 E.1154
G1 X105.574 Y95.565 E.01701
G1 X108.692 Y98.683 E.13943
G1 X108.692 Y99.221 E.01701
G1 X105.036 Y95.565 E.16349
G1 X104.498 Y95.565 E.01701
G1 X108.691 Y99.758 E.18751
G1 X108.691 Y100.296 E.01701
G1 X103.96 Y95.565 E.21156
G1 X103.422 Y95.564 E.01701
G1 X108.691 Y100.833 E.23562
G1 X108.691 Y101.371 E.01701
G1 X102.884 Y95.564 E.25968
G1 X102.346 Y95.564 E.01701
M73 P1 R46
G1 X108.69 Y101.908 E.28369
G1 X108.69 Y102.446 E.01701
G1 X101.808 Y95.564 E.30775
G1 X101.27 Y95.564 E.01701
G1 X108.69 Y102.983 E.33179
G1 X108.69 Y103.521 E.01701
G1 X100.732 Y95.564 E.35585
G1 X100.194 Y95.564 E.01701
G1 X108.689 Y104.059 E.37988
G1 X108.689 Y104.596 E.01698
G1 X99.657 Y95.563 E.40392
G1 X99.119 Y95.563 E.01701
G1 X108.689 Y105.134 E.42798
G1 X108.689 Y105.671 E.01698
G1 X98.581 Y95.563 E.45202
G1 X98.043 Y95.563 E.01701
G1 X108.688 Y106.209 E.47605
G1 X108.688 Y106.746 E.01698
G1 X97.505 Y95.563 E.50009
G1 X96.967 Y95.563 E.01701
G1 X108.688 Y107.284 E.52415
G1 X108.688 Y107.821 E.01698
G1 X96.429 Y95.563 E.54818
G1 X95.891 Y95.562 E.01701
G1 X108.687 Y108.359 E.57224
G1 X108.687 Y108.896 E.01698
M73 P2 R46
G1 X95.353 Y95.562 E.59628
G1 X94.815 Y95.562 E.01701
G1 X108.687 Y109.434 E.62034
G1 X108.687 Y109.972 E.01701
G1 X94.277 Y95.562 E.6444
G1 X93.739 Y95.562 E.01701
G1 X108.686 Y110.509 E.66841
G1 X108.686 Y111.047 E.01701
G1 X93.201 Y95.562 E.69247
G1 X92.663 Y95.562 E.01701
G1 X108.686 Y111.584 E.7165
G1 X108.686 Y112.122 E.01701
G1 X92.125 Y95.561 E.74058
G1 X91.587 Y95.561 E.01701
G1 X108.685 Y112.659 E.7646
G1 X108.685 Y113.197 E.01701
G1 X91.049 Y95.561 E.78866
G1 X90.511 Y95.561 E.01701
G1 X108.685 Y113.734 E.81269
G1 X108.684 Y114.272 E.01701
G1 X89.973 Y95.561 E.83673
G1 X89.435 Y95.561 E.01701
G1 X95.81 Y101.935 E.28506
G1 X96.558 Y102.367 E.02731
G1 X96.695 Y102.464 E.00531
G1 X96.884 Y102.692 E.00936
G1 X96.979 Y102.929 E.00807
G1 X97.003 Y103.128 E.00634
G1 X108.319 Y114.444 E.50604
G1 X107.781 Y114.444 E.01701
G1 X97.004 Y103.667 E.48193
G1 X97.004 Y104.205 E.01701
G1 X107.242 Y114.443 E.45783
G1 X106.704 Y114.443 E.01701
G1 X97.004 Y104.743 E.43377
G1 X97.004 Y105.281 E.01701
G1 X106.166 Y114.443 E.40971
G1 X105.628 Y114.442 E.01701
G1 X97.004 Y105.818 E.38565
G1 X97.004 Y106.356 E.01701
G1 X105.09 Y114.442 E.36159
G1 X104.552 Y114.442 E.01701
G1 X97.001 Y106.891 E.33767
G1 X96.979 Y107.071 E.00573
G1 X96.881 Y107.308 E.00811
G1 X104.014 Y114.441 E.31898
G1 X103.476 Y114.441 E.01701
G1 X96.621 Y107.587 E.30652
G1 X96.286 Y107.79 E.01239
G1 X102.938 Y114.441 E.29745
G1 X102.399 Y114.441 E.01704
G1 X95.946 Y107.987 E.28859
G1 X95.605 Y108.183 E.01244
G1 X101.861 Y114.44 E.27978
G1 X101.323 Y114.44 E.01701
G1 X95.264 Y108.38 E.27097
G1 X94.923 Y108.577 E.01245
G1 X100.785 Y114.44 E.26216
G1 X100.247 Y114.439 E.01701
G1 X94.582 Y108.774 E.25333
G1 X94.241 Y108.971 E.01245
G1 X99.709 Y114.439 E.24452
G1 X99.171 Y114.439 E.01701
G1 X93.9 Y109.168 E.23571
G1 X93.567 Y109.359 E.01214
G1 X94.061 Y109.542 E.01666
G1 X94.523 Y109.829 E.0172
G1 X94.817 Y110.088 E.01239
G1 X95.198 Y110.589 E.0199
G1 X95.3 Y110.773 E.00665
G1 X95.502 Y111.307 E.01805
G1 X98.633 Y114.438 E.14001
G1 X98.095 Y114.438 E.01701
G1 X95.584 Y111.928 E.11227
G1 X95.544 Y112.425 E.01577
G1 X97.556 Y114.438 E.09
G1 X97.018 Y114.438 E.01701
G1 X95.444 Y112.863 E.07041
G1 X95.289 Y113.246 E.01306
G1 X96.48 Y114.437 E.05326
G1 X95.942 Y114.437 E.01701
G1 X95.08 Y113.574 E.03857
G1 X94.844 Y113.876 E.01212
G1 X95.404 Y114.437 E.02506
G1 X94.866 Y114.436 E.01701
G1 X94.558 Y114.129 E.01375
G1 X94.404 Y114.256 E.00631
G1 X94.246 Y114.354 E.00588
G1 X94.498 Y114.606 E.01127
M204 S1000
G1 E-2.24 F4200
;WIPE_START
G1 F7200
G1 X94.246 Y114.354 E-.19749
G1 X94.404 Y114.256 E-.10303
G1 X94.558 Y114.129 E-.11062
G1 X94.866 Y114.436 E-.24099
G1 X95.404 Y114.437 E-.29814
G1 X95.392 Y114.425 E-.00973
;WIPE_END
G1 Z.4 F720
G1 X92.121 Y109.54 F9000
G1 Z.2 F720
G1 E3.2 F2400
M204 S600
G1 F1200
G1 X91.105 Y108.524 E.04543
M204 S1000
G1 E-2.24 F4200
;WIPE_START
G1 F7200
G1 X92.121 Y109.54 E-.79625
;WIPE_END
G1 E-.16375 F4200
G1 Z.4 F720
G1 X95.001 Y101.664 F9000
G1 Z.2 F720
G1 E3.2 F2400
M204 S600
G1 F1200
G1 X88.898 Y95.561 E.27292
G1 X88.36 Y95.56 E.01701
G1 X93.284 Y100.485 E.22022
G1 X93.128 Y100.42 E.00534
G1 X92.89 Y100.388 E.00759
G1 X92.678 Y100.416 E.00676
G1 X87.822 Y95.56 E.21715
G1 X87.284 Y95.56 E.01701
G1 X92.309 Y100.585 E.22471
G1 X91.968 Y100.782 E.01245
G1 X86.746 Y95.56 E.23352
M73 P3 R46
G1 X86.208 Y95.56 E.01701
G1 X91.627 Y100.979 E.24233
G1 X91.286 Y101.176 E.01245
G1 X85.67 Y95.56 E.25114
G1 X85.132 Y95.56 E.01701
G1 X90.945 Y101.372 E.25993
G1 X90.604 Y101.569 E.01245
G1 X84.594 Y95.559 E.26876
G1 X84.056 Y95.559 E.01701
G1 X90.263 Y101.766 E.27757
G1 X89.922 Y101.963 E.01245
G1 X83.518 Y95.559 E.28638
G1 X82.98 Y95.559 E.01701
G1 X89.581 Y102.16 E.29519
G1 X89.24 Y102.357 E.01245
G1 X82.442 Y95.559 E.304
G1 X81.904 Y95.559 E.01701
G1 X88.957 Y102.612 E.3154
G1 X88.921 Y102.653 E.00173
G1 X88.818 Y102.87 E.0076
G1 X88.799 Y102.991 E.00387
G1 X81.366 Y95.559 E.33237
G1 X80.828 Y95.558 E.01701
G1 X88.776 Y103.506 E.35542
G1 X88.776 Y104.044 E.01701
G1 X80.29 Y95.558 E.37948
G1 X79.752 Y95.558 E.01701
G1 X88.776 Y104.581 E.40352
G1 X88.776 Y105.119 E.01701
G1 X79.214 Y95.558 E.42758
G1 X78.676 Y95.558 E.01701
G1 X88.776 Y105.657 E.45164
G1 X88.776 Y106.195 E.01701
G1 X78.139 Y95.558 E.47567
G1 X77.601 Y95.558 E.01701
G1 X88.776 Y106.733 E.49973
G1 X88.776 Y106.866 E.00421
G1 X88.829 Y107.163 E.00954
G1 X88.935 Y107.368 E.0073
G1 X89.094 Y107.543 E.00748
G1 X90.296 Y108.253 E.04414
G1 X91.613 Y109.57 E.05889
G1 X91.49 Y109.624 E.00425
G1 X91.27 Y109.765 E.00826
G1 X77.063 Y95.557 E.63534
G1 X76.525 Y95.557 E.01701
G1 X90.976 Y110.009 E.64625
G1 X90.719 Y110.29 E.01204
G1 X75.987 Y95.557 E.65882
G1 X75.449 Y95.557 E.01701
G1 X90.494 Y110.602 E.67279
G1 X90.401 Y110.773 E.00616
G1 X90.325 Y110.971 E.00671
G1 X74.911 Y95.557 E.68929
G1 X74.373 Y95.557 E.01701
G1 X90.185 Y111.369 E.70709
G1 X90.123 Y111.844 E.01515
G1 X73.835 Y95.557 E.72835
G1 X73.297 Y95.556 E.01701
G1 X90.154 Y112.413 E.75382
G1 X90.172 Y112.579 E.00528
G1 X90.224 Y112.781 E.0066
G1 X90.382 Y113.179 E.01354
G1 X72.759 Y95.556 E.78808
G1 X72.221 Y95.556 E.01701
G1 X91.097 Y114.432 E.84411
G1 X90.56 Y114.433 E.01698
G1 X71.683 Y95.556 E.84415
G1 X71.304 Y95.556 E.01198
M73 P3 R45
G1 X71.304 Y95.715 E.00503
G1 X90.022 Y114.433 E.83704
G1 X89.485 Y114.433 E.01698
G1 X71.304 Y96.253 E.81301
G1 X71.305 Y96.791 E.01701
