; generated by PrusaSlicer 2.5.0+linux-x64-GTK3 on 2023-05-31 at 06:36:25 UTC


;
;

;
;
; 

; external perimeters extrusion width = 0.45mm
; perimeters extrusion width = 0.45mm
; infill extrusion width = 0.45mm
; solid infill extrusion width = 0.45mm
; top infill extrusion width = 0.40mm
; first layer extrusion width = 0.42mm

M73 P0 R55
M201 X2500 Y2500 Z400 E5000 ; sets maximum accelerations, mm/sec^2
M203 X180 Y180 Z12 E80 ; sets maximum feedrates, mm / sec
M204 P1250 R1250 T2500 ; sets acceleration (P, T) and retract acceleration (R), mm/sec^2
M205 X8.00 Y8.00 Z2.00 E10.00 ; sets the jerk limits, mm/sec
M205 S0 T0 ; sets the minimum extruding and travel feed rate, mm/sec
M107
;TYPE:Custom
M862.3 P "MINI" ; printer model check
G90 ; use absolute coordinates
M83 ; extruder relative mode
M104 S170 ; set extruder temp for bed leveling
M140 S60 ; set bed temp
M109 R170 ; wait for bed leveling temp
M190 S60 ; wait for bed temp
M204 T1250 ; set travel acceleration
G28 ; home all without mesh bed level
G29 ; mesh bed leveling 
M204 T2500 ; restore travel acceleration
M104 S215 ; set extruder temp
G92 E0
G1 Y-2 X179 F2400
G1 Z3 F720
M109 S215 ; wait for extruder temp

; intro line
G1 X170 F1000
G1 Z0.2 F720
G1 X110 E8 F900
G1 X40 E10 F700
G92 E0

M221 S95 ; set flow
G21 ; set units to millimeters
G90 ; use absolute coordinates
M83 ; use relative distances for extrusion
M900 K0.2 ; Filament gcode LA 1.5
; ; Filament gcode LA 1.0
M107
;LAYER_CHANGE
;Z:0.2
;HEIGHT:0.2
;BEFORE_LAYER_CHANGE
G92 E0.0
;0.2


G1 E-3.2 F4200
M73 P0 R54
G1 Z.2 F720
;AFTER_LAYER_CHANGE
;0.2
G1 Z.4
G1 X68.672 Y65.15 F9000
G1 Z.2 F720
G1 E3.2 F2400
M204 P800
;TYPE:Skirt/Brim
;WIDTH:0.42
G1 F1200
G1 X69.42 Y64.631 E.02854
G1 X70.209 Y64.331 E.02646
G1 X71.021 Y64.22 E.0257
G1 X109.277 Y64.239 E1.19948
G1 X109.879 Y64.353 E.01923
G1 X110.58 Y64.631 E.02363
G1 X111.098 Y64.959 E.01923
G1 X111.647 Y65.475 E.02363
G1 X112.218 Y66.376 E.03344
G1 X112.451 Y67.092 E.02363
G1 X112.528 Y67.701 E.01923
G1 X112.533 Y112.15 E1.39368
G1 X112.481 Y112.753 E.01897
G1 X112.328 Y113.347 E.01923
G1 X111.747 Y114.403 E.0378
G1 X111.098 Y115.041 E.02854
G1 X110.58 Y115.369 E.01923
G1 X109.879 Y115.647 E.02363
G1 X108.979 Y115.78 E.02854
G1 X71.021 Y115.78 E1.19014
G1 X69.837 Y115.554 E.0378
G1 X68.902 Y115.041 E.03344
G1 X68.295 Y114.454 E.02647
G1 X67.849 Y113.767 E.0257
G1 X67.549 Y112.908 E.02854
G1 X67.467 Y112.15 E.0239
G1 X67.467 Y67.85 E1.389
G1 X67.519 Y67.247 E.01897
G1 X67.672 Y66.653 E.01923
G1 X68.253 Y65.597 E.0378
G1 X68.631 Y65.193 E.01735
M204 P1000
; printing object RPM_case.stl id:0 copy 0
G1 E-2.24 F4200
;WIPE_START
G1 F7200
G1 X69.42 Y64.631 E-.53695
G1 X70.053 Y64.39 E-.37505
;WIPE_END
G1 E-.048 F4200
G1 Z.4 F720
G1 X71.003 Y92.775 F9000
G1 Z.2 F720
G1 E3.2 F2400
M204 P800
;TYPE:Perimeter
;WIDTH:0.420027
G1 F1200
G1 X71.129 Y92.716 E.00435
G1 X108.832 Y92.727 E1.18225
G1 X108.971 Y92.75 E.00441
G1 X109.035 Y92.911 E.00543
G1 X109.035 Y112.042 E.59989
G1 X108.997 Y112.225 E.00585
G1 X108.871 Y112.284 E.00436
G1 X93.495 Y112.284 E.48215
;WIDTH:0.422983
G1 X92.966 Y112.282 E.01672
;WIDTH:0.438213
G1 X91.8 Y112.284 E.03832
;WIDTH:0.419999
G1 X83.569 Y112.284 E.25807
;WIDTH:0.422983
G1 X82.965 Y112.282 E.01909
;WIDTH:0.438214
G1 X81.8 Y112.284 E.0383
;WIDTH:0.419999
G1 X71.206 Y112.284 E.33217
G1 X71.038 Y112.248 E.0054
G1 X70.965 Y112.072 E.00598
G1 X70.965 Y92.958 E.59931
;WIDTH:0.420027
G1 X70.991 Y92.834 E.00397
M204 P1000
G1 X70.78 Y92.453 F9000
M204 P800
;TYPE:External perimeter
;WIDTH:0.419999
G1 F1200
G1 X71.081 Y92.339 E.01008
G1 X108.832 Y92.35 E1.18366
G1 X109.112 Y92.387 E.00884
M73 P1 R54
G1 X109.321 Y92.582 E.00899
G1 X109.413 Y92.876 E.00965
G1 X109.413 Y112.042 E.60094
G1 X109.342 Y112.399 E.01142
G1 X109.22 Y112.547 E.006
G1 X108.919 Y112.661 E.01009
G1 X71.179 Y112.661 E1.18331
G1 X70.829 Y112.577 E.01128
G1 X70.657 Y112.394 E.00788
G1 X70.587 Y112.119 E.00889
G1 X70.587 Y92.958 E.60078
G1 X70.658 Y92.601 E.01142
G1 X70.742 Y92.499 E.00412
M204 P1000
G1 X71.076 Y92.58 F9000
G1 E-2.24 F4200
;WIPE_START
G1 F7200
G1 X71.081 Y92.339 E-.20778
G1 X72.352 Y92.34 E-.70422
;WIPE_END
G1 E-.048 F4200
G1 Z.4 F720
G1 X81.829 Y107.336 F9000
G1 Z.2 F720
G1 E3.2 F2400
M204 P800
;TYPE:Perimeter
G1 F1200
G1 X82.331 Y107.156 E.01671
G1 X82.93 Y107.101 E.01887
G1 X83.369 Y107.156 E.01389
G1 X83.917 Y107.347 E.01818
G1 X84.38 Y107.646 E.01729
G1 X84.75 Y108.032 E.01676
G1 X85.071 Y108.596 E.02034
G1 X85.212 Y109.088 E.01605
G1 X85.24 Y109.625 E.01686
G1 X85.218 Y109.884 E.00816
G1 X85.076 Y110.391 E.01651
G1 X84.831 Y110.858 E.01654
G1 X84.551 Y111.194 E.01372
G1 X84.076 Y111.564 E.01887
G1 X83.524 Y111.804 E.01887
;WIDTH:0.422983
G1 X82.965 Y111.902 E.01793
;WIDTH:0.429252
G1 X82.329 Y111.848 E.02051
G1 X81.764 Y111.641 E.01934
;WIDTH:0.419999
G1 X81.266 Y111.304 E.01887
G1 X80.867 Y110.853 E.01887
G1 X80.593 Y110.317 E.01887
G1 X80.46 Y109.734 E.01877
G1 X80.458 Y109.312 E.01321
G1 X80.591 Y108.691 E.01993
G1 X80.867 Y108.147 E.01913
G1 X81.266 Y107.696 E.01887
G1 X81.772 Y107.356 E.01914
M204 P1000
G1 X82.044 Y107.651 F9000
M204 P800
;TYPE:External perimeter
G1 F1200
G1 X82.447 Y107.515 E.01334
G1 X82.954 Y107.477 E.01592
G1 X83.253 Y107.515 E.00945
G1 X83.727 Y107.673 E.01569
G1 X84.159 Y107.954 E.01616
G1 X84.504 Y108.331 E.01601
G1 X84.745 Y108.786 E.01613
G1 X84.863 Y109.27 E.01562
G1 X84.856 Y109.782 E.01606
G1 X84.713 Y110.288 E.01651
G1 X84.483 Y110.7 E.01479
G1 X84.31 Y110.904 E.00836
G1 X83.915 Y111.223 E.01592
G1 X83.453 Y111.434 E.01592
G1 X82.954 Y111.523 E.01592
G1 X82.447 Y111.485 E.01592
G1 X81.966 Y111.323 E.01592
G1 X81.541 Y111.046 E.01592
G1 X81.197 Y110.672 E.01592
G1 X80.958 Y110.224 E.01592
G1 X80.837 Y109.732 E.01589
G1 X80.835 Y109.31 E.01321
G1 X80.957 Y108.779 E.01709
G1 X81.197 Y108.328 E.01601
G1 X81.541 Y107.954 E.01592
G1 X81.987 Y107.67 E.0166
M204 P1000
G1 X82.077 Y107.252 F9000
G1 E-2.24 F4200
;WIPE_START
G1 F7200
G1 X82.447 Y107.515 E-.26901
G1 X82.954 Y107.477 E-.2814
G1 X83.253 Y107.515 E-.16711
G1 X83.586 Y107.626 E-.19448
;WIPE_END
G1 E-.048 F4200
G1 Z.4 F720
G1 X95.182 Y108.958 F9000
G1 Z.2 F720
G1 E3.2 F2400
M204 P800
;TYPE:Perimeter
G1 F1200
G1 X95.247 Y109.491 E.01684
G1 X95.193 Y110.015 E.01651
G1 X94.987 Y110.594 E.01928
G1 X94.648 Y111.091 E.01887
G1 X94.196 Y111.488 E.01887
G1 X93.582 Y111.783 E.02133
;WIDTH:0.428648
G1 X93.067 Y111.896 E.01693
;WIDTH:0.438213
G1 X92.469 Y111.88 E.01965
G1 X91.892 Y111.702 E.01985
;WIDTH:0.419999
G1 X91.375 Y111.394 E.01887
G1 X90.95 Y110.968 E.01887
G1 X90.645 Y110.449 E.01887
G1 X90.47 Y109.787 E.02146
G1 X90.46 Y109.264 E.01642
G1 X90.543 Y108.835 E.01371
G1 X90.781 Y108.282 E.01887
G1 X91.149 Y107.806 E.01887
G1 X91.636 Y107.43 E.01928
G1 X92.118 Y107.217 E.01651
G1 X92.635 Y107.114 E.01654
;WIDTH:0.41512
G1 X93.23 Y107.132 E.01842
;WIDTH:0.419999
G1 X93.883 Y107.337 E.02147
G1 X94.33 Y107.609 E.0164
G1 X94.648 Y107.909 E.01371
G1 X94.987 Y108.406 E.01887
G1 X95.175 Y108.899 E.01653
M204 P1000
G1 X94.832 Y109.135 F9000
M204 P800
;TYPE:External perimeter
G1 F1200
G1 X94.872 Y109.453 E.01005
G1 X94.818 Y109.976 E.01651
G1 X94.636 Y110.455 E.01606
G1 X94.343 Y110.869 E.01592
G1 X93.955 Y111.198 E.01592
G1 X93.43 Y111.438 E.01811
G1 X92.954 Y111.523 E.01515
G1 X92.447 Y111.485 E.01594
G1 X91.966 Y111.323 E.01592
G1 X91.541 Y111.046 E.01592
G1 X91.197 Y110.672 E.01592
G1 X90.957 Y110.219 E.01606
G1 X90.838 Y109.703 E.01662
G1 X90.841 Y109.235 E.01467
G1 X90.894 Y108.973 E.00836
G1 X91.086 Y108.503 E.01592
G1 X91.39 Y108.096 E.01592
G1 X91.789 Y107.775 E.01606
G1 X92.27 Y107.562 E.01651
G1 X92.81 Y107.481 E.01711
G1 X93.257 Y107.516 E.01407
G1 X93.758 Y107.693 E.01664
G1 X94.151 Y107.946 E.01465
G1 X94.343 Y108.131 E.00837
G1 X94.636 Y108.545 E.01592
G1 X94.825 Y109.075 E.01764
M204 P1000
G1 X95.14 Y109.226 F9000
G1 E-2.24 F4200
;WIPE_START
G1 F7200
G1 X94.872 Y109.453 E-.21091
G1 X94.818 Y109.976 E-.29175
G1 X94.636 Y110.455 E-.28378
G1 X94.505 Y110.64 E-.12556
;WIPE_END
G1 E-.048 F4200
G1 Z.4 F720
G1 X93.086 Y98.281 F9000
G1 Z.2 F720
G1 E3.2 F2400
M204 P800
;TYPE:Perimeter
G1 F1200
G1 X93.173 Y98.304 E.00283
G1 X96.382 Y100.157 E.11619
G1 X96.589 Y100.364 E.00918
G1 X96.665 Y100.647 E.00918
G1 X96.665 Y104.353 E.11619
G1 X96.593 Y104.63 E.00897
G1 X96.413 Y104.824 E.0083
G1 X93.143 Y106.709 E.11833
;WIDTH:0.41512
G1 X92.855 Y106.76 E.00905
;WIDTH:0.414674
G1 X92.609 Y106.693 E.0079
;WIDTH:0.419999
G1 X89.398 Y104.843 E.11619
G1 X89.198 Y104.647 E.00878
G1 X89.116 Y104.375 E.0089
G1 X89.115 Y100.647 E.1169
G1 X89.168 Y100.407 E.0077
G1 X89.32 Y100.211 E.00778
G1 X89.398 Y100.157 E.00297
G1 X92.607 Y98.304 E.11619
G1 X92.89 Y98.229 E.00918
G1 X93.028 Y98.266 E.00447
M204 P1000
G1 X92.984 Y98.631 F9000
M204 P800
;TYPE:External perimeter
G1 F1200
G1 X96.194 Y100.484 E.11619
G1 X96.285 Y100.615 E.005
G1 X96.288 Y104.353 E.11721
G1 X96.217 Y104.5 E.00513
G1 X92.984 Y106.369 E.11707
G1 X92.818 Y106.38 E.00522
G1 X89.585 Y104.515 E.11704
G1 X89.495 Y104.383 E.00501
G1 X89.492 Y100.647 E.11713
G1 X89.561 Y100.502 E.00503
G1 X89.586 Y100.484 E.00099
G1 X92.796 Y98.631 E.11619
G1 X92.928 Y98.614 E.00418
M204 P1000
G1 X93.244 Y98.327 F9000
G1 E-2.24 F4200
;WIPE_START
G1 F7200
G1 X94.356 Y99.432 E-.912
;WIPE_END
G1 E-.048 F4200
G1 Z.4 F720
G1 X108.919 Y93.604 F9000
G1 Z.2 F720
G1 E3.2 F2400
M204 P800
;TYPE:Solid infill
;WIDTH:0.421146
G1 F1200
G1 X108.325 Y93.009 E.02645
G1 X107.79 Y93.009 E.01683
G1 X108.75 Y93.969 E.0427
G1 X108.749 Y94.504 E.01681
G1 X107.255 Y93.009 E.06648
G1 X106.72 Y93.009 E.01683
G1 X108.749 Y95.038 E.09027
G1 X108.749 Y95.573 E.01681
G1 X106.185 Y93.009 E.11405
G1 X105.649 Y93.009 E.01683
G1 X108.749 Y96.108 E.13784
G1 X108.748 Y96.642 E.01681
G1 X105.114 Y93.008 E.16162
G1 X104.579 Y93.008 E.01683
G1 X108.748 Y97.177 E.18541
G1 X108.748 Y97.712 E.01681
G1 X104.044 Y93.008 E.20919
G1 X103.509 Y93.008 E.01683
G1 X108.748 Y98.246 E.23298
G1 X108.747 Y98.781 E.01681
G1 X102.974 Y93.008 E.25676
G1 X102.439 Y93.008 E.01683
G1 X108.747 Y99.315 E.28055
G1 X108.747 Y99.85 E.01681
G1 X101.904 Y93.008 E.30433
G1 X101.369 Y93.007 E.01683
G1 X108.747 Y100.385 E.32812
G1 X108.746 Y100.919 E.01681
G1 X100.834 Y93.007 E.3519
G1 X100.299 Y93.007 E.01683
G1 X108.746 Y101.454 E.37569
G1 X108.746 Y101.989 E.01681
G1 X99.764 Y93.007 E.39947
G1 X99.229 Y93.007 E.01683
G1 X108.746 Y102.523 E.42326
G1 X108.745 Y103.058 E.01681
G1 X98.694 Y93.007 E.44704
G1 X98.159 Y93.007 E.01683
G1 X108.745 Y103.593 E.47083
G1 X108.745 Y104.127 E.01681
G1 X97.624 Y93.006 E.49461
G1 X97.089 Y93.006 E.01683
G1 X108.744 Y104.662 E.5184
G1 X108.744 Y105.196 E.01681
G1 X96.554 Y93.006 E.54218
G1 X96.019 Y93.006 E.01683
G1 X108.744 Y105.731 E.56597
G1 X108.744 Y106.266 E.01681
G1 X95.484 Y93.006 E.58975
G1 X94.949 Y93.006 E.01683
G1 X108.743 Y106.8 E.61354
G1 X108.743 Y107.335 E.01681
G1 X94.414 Y93.005 E.63733
G1 X93.879 Y93.005 E.01683
G1 X108.743 Y107.87 E.66111
G1 X108.743 Y108.404 E.01681
G1 X93.344 Y93.005 E.6849
G1 X92.809 Y93.005 E.01683
G1 X108.742 Y108.939 E.70868
G1 X108.742 Y109.474 E.01681
G1 X92.274 Y93.005 E.73247
G1 X91.739 Y93.005 E.01683
G1 X108.742 Y110.008 E.75625
G1 X108.742 Y110.543 E.01681
G1 X91.203 Y93.005 E.78004
G1 X90.668 Y93.004 E.01683
M73 P2 R54
G1 X108.741 Y111.077 E.80382
G1 X108.741 Y111.612 E.01681
G1 X90.133 Y93.004 E.82761
G1 X89.598 Y93.004 E.01683
G1 X108.595 Y112.001 E.8449
G1 X108.06 Y112 E.01683
G1 X96.948 Y100.888 E.49422
G1 X96.948 Y101.423 E.01682
G1 X107.524 Y112 E.47042
G1 X106.989 Y112 E.01683
M73 P2 R53
G1 X96.948 Y101.958 E.44662
G1 X96.948 Y102.493 E.01682
G1 X106.454 Y111.999 E.42281
G1 X105.919 Y111.999 E.01683
G1 X96.948 Y103.028 E.39901
G1 X96.948 Y103.563 E.01682
G1 X105.384 Y111.999 E.3752
G1 X104.848 Y111.999 E.01683
G1 X96.948 Y104.098 E.3514
G1 X96.948 Y104.359 E.0082
G1 X96.909 Y104.594 E.0075
G1 X104.313 Y111.998 E.32932
G1 X103.778 Y111.998 E.01683
G1 X96.711 Y104.931 E.31431
G1 X96.674 Y104.978 E.00188
G1 X96.403 Y105.157 E.01023
G1 X103.243 Y111.998 E.30423
G1 X102.708 Y111.997 E.01683
G1 X96.063 Y105.353 E.29552
G1 X95.724 Y105.548 E.01232
G1 X102.172 Y111.997 E.28681
G1 X101.637 Y111.997 E.01683
G1 X95.385 Y105.744 E.2781
G1 X95.045 Y105.939 E.01232
G1 X101.102 Y111.996 E.26939
G1 X100.567 Y111.996 E.01683
G1 X94.706 Y106.135 E.26068
G1 X94.366 Y106.331 E.01232
G1 X100.032 Y111.996 E.25197
G1 X99.496 Y111.995 E.01683
G1 X94.027 Y106.526 E.24326
G1 X93.688 Y106.722 E.01232
G1 X98.961 Y111.995 E.23455
G1 X98.426 Y111.995 E.01683
G1 X95.484 Y109.053 E.13086
G1 X95.526 Y109.323 E.00861
G1 X95.518 Y109.622 E.0094
G1 X97.891 Y111.995 E.10554
G1 X97.356 Y111.994 E.01683
G1 X95.462 Y110.1 E.08423
G1 X95.422 Y110.264 E.00528
G1 X95.328 Y110.501 E.00804
G1 X96.82 Y111.994 E.06639
G1 X96.285 Y111.994 E.01683
G1 X95.158 Y110.867 E.05013
G1 X94.934 Y111.178 E.01205
G1 X95.75 Y111.993 E.03628
G1 X95.215 Y111.993 E.01683
G1 X94.678 Y111.456 E.02388
G1 X94.385 Y111.698 E.01195
G1 X94.68 Y111.993 E.01309
G1 X94.145 Y111.992 E.01683
G1 X93.912 Y111.76 E.01032
M204 P1000
G1 E-2.24 F4200
;WIPE_START
G1 F7200
G1 X94.145 Y111.992 E-.18191
G1 X94.68 Y111.993 E-.29659
G1 X94.385 Y111.698 E-.23072
G1 X94.667 Y111.465 E-.20279
;WIPE_END
G1 E-.048 F4200
G1 Z.4 F720
G1 X92.4 Y107.039 F9000
G1 Z.2 F720
G1 E3.2 F2400
M204 P800
G1 F1200
G1 X92.078 Y106.717 E.01433
G1 X90.812 Y105.986 E.04596
G1 X91.981 Y107.154 E.05196
M204 P1000
G1 E-2.24 F4200
;WIPE_START
G1 F7200
G1 X90.817 Y105.991 E-.912
;WIPE_END
G1 E-.048 F4200
G1 Z.4 F720
G1 X95.682 Y99.622 F9000
G1 Z.2 F720
G1 E3.2 F2400
M204 P800
G1 F1200
G1 X89.063 Y93.004 E.29436
G1 X88.528 Y93.004 E.01683
G1 X93.952 Y98.428 E.24125
G1 X93.309 Y98.057 E.02337
G1 X93.113 Y97.975 E.00667
G1 X92.941 Y97.952 E.00545
G1 X87.993 Y93.004 E.22008
G1 X87.458 Y93.004 E.01683
G1 X92.499 Y98.045 E.22421
G1 X92.157 Y98.238 E.01235
G1 X86.923 Y93.003 E.2328
G1 X86.388 Y93.003 E.01683
G1 X91.818 Y98.433 E.24151
G1 X91.479 Y98.629 E.01231
G1 X85.853 Y93.003 E.25022
G1 X85.318 Y93.003 E.01683
G1 X91.14 Y98.825 E.25894
G1 X90.801 Y99.021 E.01231
G1 X84.783 Y93.003 E.26765
G1 X84.248 Y93.003 E.01683
G1 X90.462 Y99.217 E.27637
G1 X90.123 Y99.412 E.01231
G1 X83.713 Y93.003 E.28508
G1 X83.178 Y93.002 E.01683
G1 X89.784 Y99.608 E.2938
G1 X89.444 Y99.804 E.01231
G1 X82.643 Y93.002 E.30251
G1 X82.108 Y93.002 E.01683
G1 X89.12 Y100.014 E.31187
G1 X88.968 Y100.185 E.00718
G1 X88.9 Y100.329 E.00502
G1 X81.573 Y93.002 E.32588
G1 X81.038 Y93.002 E.01683
G1 X88.832 Y100.797 E.34668
G1 X88.833 Y101.332 E.01682
G1 X80.503 Y93.002 E.37048
G1 X79.968 Y93.002 E.01683
G1 X88.833 Y101.866 E.39428
G1 X88.833 Y102.401 E.01682
G1 X79.433 Y93.001 E.41808
G1 X78.898 Y93.001 E.01683
G1 X88.833 Y102.936 E.44188
G1 X88.833 Y103.471 E.01682
G1 X78.363 Y93.001 E.46568
G1 X77.828 Y93.001 E.01683
G1 X89.003 Y104.176 E.49703
M204 P1000
G1 E-2.24 F4200
;WIPE_START
G1 F7200
G1 X87.839 Y103.012 E-.912
;WIPE_END
G1 E-.048 F4200
G1 Z.4 F720
G1 X91.61 Y107.318 F9000
G1 Z.2 F720
G1 E3.2 F2400
M204 P800
G1 F1200
G1 X77.293 Y93.001 E.63679
G1 X76.758 Y93.001 E.01683
G1 X91.174 Y107.418 E.64122
G1 X90.891 Y107.669 E.01192
G1 X76.222 Y93.001 E.65242
G1 X75.687 Y93 E.01683
G1 X90.658 Y107.971 E.66583
G1 X90.451 Y108.299 E.0122
M73 P3 R53
G1 X75.152 Y93 E.68044
G1 X74.617 Y93 E.01683
G1 X90.301 Y108.684 E.69754
G1 X90.258 Y108.792 E.00368
G1 X90.195 Y109.113 E.01028
G1 X74.082 Y93 E.71665
G1 X73.547 Y93 E.01683
G1 X90.174 Y109.626 E.73948
G1 X90.194 Y109.846 E.00694
G1 X90.294 Y110.281 E.01406
G1 X73.012 Y93 E.76863
G1 X72.477 Y93 E.01683
G1 X91.478 Y112 E.84509
G1 X90.943 Y112 E.01684
G1 X71.942 Y92.999 E.84507
G1 X71.407 Y92.999 E.01683
G1 X90.407 Y111.999 E.84505
G1 X89.872 Y111.999 E.01684
G1 X71.248 Y93.375 E.82833
G1 X71.248 Y93.91 E.01683
G1 X89.336 Y111.998 E.8045
G1 X88.801 Y111.997 E.01684
G1 X85.356 Y108.553 E.15318
G1 X85.028 Y107.926 E.02227
G1 X84.637 Y107.499 E.01822
G1 X84.482 Y107.37 E.00634
G1 X84.082 Y107.117 E.01487
G1 X83.806 Y107.003 E.00941
G1 X71.248 Y94.445 E.55852
G1 X71.249 Y94.98 E.01683
G1 X83.101 Y106.833 E.52718
